;FLAVOR:Marlin
;TIME:27054
;Filament used: 27.8026m
;Layer height: 0.2
;MINX:65.2
;MINY:35.167
;MINZ:0.2
;MAXX:164.8
;MAXY:194.585
;MAXZ:25
;Generated with Cura_SteamEngine 5.2.1
M140 S60
M105
M190 S60
M104 S200
M105
M109 S200
M82 ;absolute extrusion mode
; Ender 3 Custom Start G-code
G92 E0 ; Reset Extruder
G28 ; Home all axes
G29 ; BLTouch calibration
G1 Z2.0 F3000 ; Move Z Axis up little to prevent scratching of Heat Bed
G1 X0.1 Y20 Z0.3 F5000.0 ; Move to start position
G1 X0.1 Y200.0 Z0.3 F1500.0 E15 ; Draw the first line
G1 X0.4 Y200.0 Z0.3 F5000.0 ; Move to side a little
G1 X0.4 Y20 Z0.3 F1500.0 E30 ; Draw the second line
G92 E0 ; Reset Extruder
G1 Z2.0 F3000 ; Move Z Axis up little to prevent scratching of Heat Bed
G1 X5 Y20 Z0.3 F5000.0 ; Move over to prevent blob squish
G92 E0
G92 E0
G1 F2700 E-5
;LAYER_COUNT:125
;LAYER:0
M107
;MESH:Sword Tip v2.stl
G0 F6000 X115 Y193.691 Z0.2
;TYPE:WALL-INNER
G1 F2700 E0
G1 F1200 X164.4 Y94.89 E3.674
G1 X164.4 Y83.561 E4.05081
G1 X164.4 Y35.567 E5.64709
G1 X65.6 Y35.567 E8.9332
G1 X65.6 Y94.89 E10.90629
G1 X115 Y193.691 E14.58029
G0 F6000 X115 Y194.585
;TYPE:WALL-OUTER
G1 F1200 X164.8 Y94.984 E18.28404
G1 X164.8 Y83.561 E18.66397
G1 X164.8 Y35.167 E20.27356
G1 X65.2 Y35.167 E23.58627
G1 X65.2 Y94.984 E25.57579
G1 X115 Y194.585 E29.27954
G0 F6000 X115 Y194.038
G0 X115.233 Y193
G0 X115 Y192.883
;TYPE:SKIN
G1 F1200 X164.04 Y94.803 E32.92674
G1 X164.04 Y83.56 E33.30069
G1 X164.04 Y35.927 E34.88497
G1 X65.96 Y35.927 E38.14712
G1 X65.96 Y94.803 E40.10534
G1 X115 Y192.883 E43.75254
G0 F6000 X115.167 Y192.101
G1 F1200 X114.497 Y191.43 E43.78408
G0 F6000 X115.356 Y191.724
G1 F1200 X113.931 Y190.299 E43.85111
G0 F6000 X113.519 Y190.504
G0 X112.953 Y189.373
G0 X113.366 Y189.168
G1 F1200 X115.544 Y191.346 E43.95356
G0 F6000 X115.733 Y190.969
G1 F1200 X112.8 Y188.036 E44.09152
G0 F6000 X112.387 Y188.241
G0 X111.822 Y187.11
G0 X112.234 Y186.905
G1 F1200 X115.922 Y190.592 E44.26496
G0 F6000 X116.11 Y190.215
G1 F1200 X111.669 Y185.773 E44.47388
G0 F6000 X111.256 Y185.978
G0 X110.69 Y184.847
G0 X111.103 Y184.642
G1 F1200 X116.299 Y189.838 E44.71828
G0 F6000 X116.488 Y189.461
G1 F1200 X110.537 Y183.511 E44.99818
G0 F6000 X110.125 Y183.716
G0 X109.559 Y182.584
G0 X109.972 Y182.379
G1 F1200 X116.676 Y189.083 E45.31351
G0 F6000 X116.864 Y188.707
G1 F1200 X109.406 Y181.248 E45.66434
G0 F6000 X108.993 Y181.453
G0 X108.428 Y180.322
G0 X108.84 Y180.117
G1 F1200 X117.053 Y188.33 E46.05065
G0 F6000 X117.241 Y187.952
G1 F1200 X108.275 Y178.985 E46.47241
G0 F6000 X107.862 Y179.19
G0 X107.296 Y178.059
G0 X107.709 Y177.854
G1 F1200 X117.43 Y187.575 E46.92965
G0 F6000 X117.619 Y187.198
G1 F1200 X107.143 Y176.722 E47.42241
G0 F6000 X106.73 Y176.927
G0 X106.165 Y175.796
G0 X106.577 Y175.591
G1 F1200 X117.807 Y186.821 E47.95064
G0 F6000 X117.996 Y186.444
G1 F1200 X106.012 Y174.46 E48.51433
G0 F6000 X105.599 Y174.665
G0 X105.033 Y173.533
G0 X105.446 Y173.328
G1 F1200 X118.185 Y186.067 E49.11353
G0 F6000 X118.373 Y185.689
G1 F1200 X104.88 Y172.197 E49.74818
G0 F6000 X104.468 Y172.402
G0 X103.902 Y171.271
G0 X104.315 Y171.066
G1 F1200 X118.562 Y185.312 E50.41829
G0 F6000 X118.75 Y184.936
G1 F1200 X103.749 Y169.934 E51.12391
G0 F6000 X103.336 Y170.139
G0 X102.771 Y169.008
G0 X103.183 Y168.803
G1 F1200 X118.938 Y184.558 E51.86498
G0 F6000 X119.127 Y184.181
G1 F1200 X102.618 Y167.671 E52.64154
G0 F6000 X102.205 Y167.876
G0 X101.639 Y166.745
G0 X102.052 Y166.54
G1 F1200 X119.316 Y183.804 E53.45358
G0 F6000 X119.504 Y183.427
G1 F1200 X101.486 Y165.409 E54.30109
G0 F6000 X101.074 Y165.614
G0 X100.508 Y164.482
G0 X100.921 Y164.277
G1 F1200 X119.693 Y183.05 E55.18409
G0 F6000 X119.882 Y182.673
G1 F1200 X100.355 Y163.146 E56.10258
G0 F6000 X99.942 Y163.351
G0 X99.377 Y162.22
G0 X99.789 Y162.015
G1 F1200 X120.07 Y182.295 E57.05652
G0 F6000 X120.259 Y181.918
G1 F1200 X99.224 Y160.883 E58.04594
G0 F6000 X98.811 Y161.088
G0 X98.245 Y159.957
G0 X98.658 Y159.752
G1 F1200 X120.447 Y181.541 E59.07083
G0 F6000 X120.635 Y181.164
G1 F1200 X98.092 Y158.621 E60.13118
G0 F6000 X97.68 Y158.826
G0 X97.114 Y157.694
G0 X97.526 Y157.489
G1 F1200 X120.824 Y180.787 E61.22705
G0 F6000 X121.013 Y180.41
G1 F1200 X96.961 Y156.358 E62.35838
G0 F6000 X96.548 Y156.563
G0 X95.982 Y155.431
G0 X96.395 Y155.226
G1 F1200 X121.201 Y180.032 E63.52518
G0 F6000 X121.39 Y179.656
G1 F1200 X95.829 Y154.095 E64.72749
G0 F6000 X95.417 Y154.3
G0 X94.851 Y153.169
G0 X95.264 Y152.964
G1 F1200 X121.579 Y179.279 E65.96527
G0 F6000 X121.767 Y178.901
G1 F1200 X94.698 Y151.832 E67.23851
G0 F6000 X94.285 Y152.037
G0 X93.72 Y150.906
G0 X94.132 Y150.701
G1 F1200 X121.956 Y178.524 E68.54724
G0 F6000 X122.144 Y178.147
G1 F1200 X93.567 Y149.57 E69.89142
G0 F6000 X93.154 Y149.775
G0 X92.589 Y148.643
G0 X93.001 Y148.438
G1 F1200 X122.333 Y177.77 E71.2711
G0 F6000 X122.521 Y177.393
G1 F1200 X92.435 Y147.307 E72.68626
G0 F6000 X92.023 Y147.512
G0 X91.457 Y146.38
G0 X91.87 Y146.175
G1 F1200 X122.71 Y177.016 E74.1369
G0 F6000 X122.898 Y176.638
G1 F1200 X91.304 Y145.044 E75.62298
G0 F6000 X90.892 Y145.249
G0 X90.326 Y144.118
G0 X90.738 Y143.913
G1 F1200 X123.087 Y176.261 E77.14456
G0 F6000 X123.276 Y175.885
G1 F1200 X90.173 Y142.781 E78.70164
G0 F6000 X89.76 Y142.986
G0 X89.195 Y141.855
G0 X89.607 Y141.65
G1 F1200 X123.464 Y175.507 E80.29417
G0 F6000 X123.653 Y175.13
G1 F1200 X89.041 Y140.519 E81.92219
G0 F6000 X88.629 Y140.724
G0 X88.063 Y139.592
G0 X88.476 Y139.387
G1 F1200 X123.841 Y174.753 E83.58568
G0 F6000 X124.03 Y174.376
G1 F1200 X87.91 Y138.256 E85.28465
G0 F6000 X87.498 Y138.461
G0 X86.932 Y137.329
G0 X87.344 Y137.124
G1 F1200 X124.218 Y173.999 E87.01911
G0 F6000 X124.407 Y173.622
G1 F1200 X86.778 Y135.993 E88.78907
G0 F6000 X86.366 Y136.198
G0 X85.801 Y135.067
G0 X86.213 Y134.862
G1 F1200 X124.595 Y173.244 E90.59444
G0 F6000 X124.784 Y172.867
G1 F1200 X85.647 Y133.73 E92.43532
G0 F6000 X85.235 Y133.935
G0 X84.669 Y132.804
G0 X85.081 Y132.599
G1 F1200 X124.973 Y172.49 E94.3117
G0 F6000 X125.161 Y172.113
G1 F1200 X84.516 Y131.468 E96.22351
G0 F6000 X84.104 Y131.673
G0 X83.538 Y130.541
G0 X83.95 Y130.336
G1 F1200 X125.35 Y171.736 E98.17084
G0 F6000 X125.539 Y171.359
G1 F1200 X83.384 Y129.205 E100.15366
G0 F6000 X82.972 Y129.41
G0 X82.407 Y128.279
G0 X82.819 Y128.074
G1 F1200 X125.727 Y170.981 E102.1719
G0 F6000 X125.915 Y170.605
G1 F1200 X82.253 Y126.942 E104.22565
G0 F6000 X81.841 Y127.147
G0 X81.275 Y126.016
G0 X81.687 Y125.811
G1 F1200 X126.104 Y170.228 E106.31489
G0 F6000 X126.292 Y169.85
G1 F1200 X81.122 Y124.679 E108.43957
G0 F6000 X80.709 Y124.884
G0 X80.144 Y123.753
G0 X80.556 Y123.548
G1 F1200 X126.481 Y169.473 E110.59974
G0 F6000 X126.67 Y169.096
G1 F1200 X79.99 Y122.417 E112.7954
G0 F6000 X79.578 Y122.622
G0 X79.012 Y121.49
G0 X79.425 Y121.285
G1 F1200 X126.858 Y168.719 E115.02653
G0 F6000 X127.047 Y168.342
G1 F1200 X78.859 Y120.154 E117.29314
G0 F6000 X78.447 Y120.359
G0 X77.881 Y119.228
G0 X78.293 Y119.023
G1 F1200 X127.235 Y167.964 E119.5952
G0 F6000 X127.424 Y167.587
G1 F1200 X77.728 Y117.891 E121.93275
G0 F6000 X77.315 Y118.096
G0 X76.75 Y116.965
G0 X77.162 Y116.76
G1 F1200 X127.612 Y167.21 E124.30576
G0 F6000 X127.801 Y166.833
G1 F1200 X76.596 Y115.628 E126.71429
G0 F6000 X76.184 Y115.833
G0 X75.618 Y114.702
G0 X76.03 Y114.497
G1 F1200 X127.989 Y166.456 E129.15828
G0 F6000 X128.178 Y166.079
G1 F1200 X75.465 Y113.366 E131.63774
G0 F6000 X75.053 Y113.571
G0 X74.487 Y112.439
G0 X74.899 Y112.234
G1 F1200 X128.366 Y165.701 E134.15266
G0 F6000 X128.555 Y165.325
G1 F1200 X74.333 Y111.103 E136.7031
G0 F6000 X73.921 Y111.308
G0 X73.356 Y110.177
G0 X73.768 Y109.972
G1 F1200 X128.744 Y164.948 E139.289
G0 F6000 X128.932 Y164.57
G1 F1200 X73.202 Y108.84 E141.91037
G0 F6000 X72.79 Y109.045
G0 X72.224 Y107.914
G0 X72.636 Y107.709
G1 F1200 X129.121 Y164.193 E144.56723
G0 F6000 X129.31 Y163.816
G1 F1200 X72.071 Y106.577 E147.25958
G0 F6000 X71.658 Y106.782
G0 X71.093 Y105.651
G0 X71.505 Y105.446
G1 F1200 X129.498 Y163.439 E149.98739
G0 F6000 X129.686 Y163.062
G1 F1200 X70.939 Y104.315 E152.75067
G0 F6000 X70.527 Y104.52
G0 X69.961 Y103.388
G0 X70.374 Y103.183
G1 F1200 X129.875 Y162.685 E155.54943
G0 F6000 X130.063 Y162.307
G1 F1200 X69.808 Y102.052 E158.38365
G0 F6000 X69.395 Y102.257
G0 X68.83 Y101.126
G0 X69.242 Y100.921
G1 F1200 X130.252 Y161.93 E161.25335
G0 F6000 X130.441 Y161.554
G1 F1200 X68.677 Y99.789 E164.15856
G0 F6000 X68.264 Y99.994
G0 X67.699 Y98.863
G0 X68.111 Y98.658
G1 F1200 X130.629 Y161.176 E167.09921
G0 F6000 X130.818 Y160.799
G1 F1200 X67.545 Y97.526 E170.07538
G0 F6000 X67.133 Y97.731
G0 X66.567 Y96.6
G0 X66.979 Y96.395
G1 F1200 X131.007 Y160.422 E173.08704
G0 F6000 X131.195 Y160.045
G1 F1200 X66.414 Y95.264 E176.13414
G0 F6000 X66.159 Y94.443
G1 F1200 X131.383 Y159.668 E179.2021
G0 F6000 X131.572 Y159.291
G1 F1200 X66.159 Y93.877 E182.27895
G0 F6000 X66.159 Y93.311
G1 F1200 X131.76 Y158.913 E185.36464
G0 F6000 X131.949 Y158.536
G1 F1200 X66.159 Y92.746 E188.4592
G0 F6000 X66.159 Y92.18
G1 F1200 X132.138 Y158.159 E191.56265
G0 F6000 X132.326 Y157.782
G1 F1200 X66.159 Y91.614 E194.67497
G0 F6000 X66.159 Y91.049
G1 F1200 X132.515 Y157.405 E197.79615
G0 F6000 X132.704 Y157.028
G1 F1200 X66.159 Y90.483 E200.92622
G0 F6000 X66.159 Y89.917
G1 F1200 X132.892 Y156.651 E204.06516
G0 F6000 X133.081 Y156.274
G1 F1200 X66.159 Y89.352 E207.21297
G0 F6000 X66.159 Y88.786
G1 F1200 X133.269 Y155.897 E210.36964
G0 F6000 X133.457 Y155.519
G1 F1200 X66.159 Y88.22 E213.53516
G0 F6000 X66.159 Y87.655
G1 F1200 X133.646 Y155.142 E216.70954
G0 F6000 X133.835 Y154.765
G1 F1200 X66.159 Y87.089 E219.89281
G0 F6000 X66.159 Y86.523
G1 F1200 X134.023 Y154.388 E223.08495
G0 F6000 X134.212 Y154.011
G1 F1200 X66.159 Y85.958 E226.28595
G0 F6000 X66.159 Y85.392
G1 F1200 X134.401 Y153.634 E229.49585
G0 F6000 X134.589 Y153.256
G1 F1200 X66.159 Y84.826 E232.71458
G0 F6000 X66.159 Y84.26
G1 F1200 X134.778 Y152.88 E235.94223
G0 F6000 X134.966 Y152.503
G1 F1200 X66.159 Y83.695 E239.17873
G0 F6000 X66.159 Y83.129
G1 F1200 X135.154 Y152.125 E242.42407
G0 F6000 X135.343 Y151.748
G1 F1200 X66.159 Y82.563 E245.67829
G0 F6000 X66.159 Y81.998
G1 F1200 X135.532 Y151.371 E248.94139
G0 F6000 X135.72 Y150.994
G1 F1200 X66.159 Y81.432 E252.21334
G0 F6000 X66.159 Y80.866
G1 F1200 X135.909 Y150.617 E255.49419
G0 F6000 X136.098 Y150.24
G1 F1200 X66.159 Y80.301 E258.78391
G0 F6000 X66.159 Y79.735
G1 F1200 X136.286 Y149.862 E262.08247
G0 F6000 X136.475 Y149.485
G1 F1200 X66.159 Y79.169 E265.38992
G0 F6000 X66.159 Y78.604
G1 F1200 X136.663 Y149.109 E268.70623
G0 F6000 X136.852 Y148.731
G1 F1200 X66.159 Y78.038 E272.03142
G0 F6000 X66.159 Y77.472
G1 F1200 X137.04 Y148.354 E275.36546
G0 F6000 X137.229 Y147.977
G1 F1200 X66.159 Y76.907 E278.70838
G0 F6000 X66.159 Y76.341
G1 F1200 X137.417 Y147.6 E282.06016
G0 F6000 X137.606 Y147.223
G1 F1200 X66.159 Y75.775 E285.42083
G0 F6000 X66.159 Y75.209
G1 F1200 X137.795 Y146.846 E288.79039
G0 F6000 X137.983 Y146.468
G1 F1200 X66.159 Y74.644 E292.16877
G0 F6000 X66.159 Y74.078
G1 F1200 X138.172 Y146.091 E295.55605
G0 F6000 X138.36 Y145.714
G1 F1200 X66.159 Y73.512 E298.95218
G0 F6000 X66.159 Y72.947
G1 F1200 X138.549 Y145.337 E302.35719
G0 F6000 X138.737 Y144.96
G1 F1200 X66.159 Y72.381 E305.77106
G0 F6000 X66.159 Y71.815
G1 F1200 X138.926 Y144.583 E309.19382
G0 F6000 X139.114 Y144.205
G1 F1200 X66.159 Y71.25 E312.6254
G0 F6000 X66.159 Y70.684
G1 F1200 X139.303 Y143.829 E316.06589
G0 F6000 X139.491 Y143.451
G1 F1200 X66.159 Y70.118 E319.51522
G0 F6000 X66.159 Y69.553
G1 F1200 X139.68 Y143.074 E322.97343
G0 F6000 X139.869 Y142.697
G1 F1200 X66.159 Y68.987 E326.44052
G0 F6000 X66.159 Y68.421
G1 F1200 X140.057 Y142.32 E329.91648
G0 F6000 X140.246 Y141.943
G1 F1200 X66.159 Y67.856 E333.4013
G0 F6000 X66.159 Y67.29
G1 F1200 X140.434 Y141.566 E336.895
G0 F6000 X140.623 Y141.188
G1 F1200 X66.159 Y66.724 E340.39755
G0 F6000 X66.159 Y66.159
G1 F1200 X140.811 Y140.811 E343.90896
G0 F6000 X141 Y140.434
G1 F1200 X66.159 Y65.593 E347.42925
G0 F6000 X66.159 Y65.027
G1 F1200 X141.188 Y140.057 E350.9584
G0 F6000 X141.377 Y139.68
G1 F1200 X66.159 Y64.461 E354.49645
G0 F6000 X66.159 Y63.896
G1 F1200 X141.566 Y139.303 E358.04337
G0 F6000 X141.754 Y138.925
G1 F1200 X66.159 Y63.33 E361.59912
G0 F6000 X66.159 Y62.764
G1 F1200 X141.943 Y138.549 E365.16379
G0 F6000 X142.131 Y138.172
G1 F1200 X66.159 Y62.199 E368.73731
G0 F6000 X66.159 Y61.633
G1 F1200 X142.32 Y137.794 E372.31969
G0 F6000 X142.508 Y137.417
G1 F1200 X66.159 Y61.067 E375.91093
G0 F6000 X66.159 Y60.502
G1 F1200 X142.697 Y137.04 E379.51105
G0 F6000 X142.885 Y136.663
G1 F1200 X66.159 Y59.936 E383.12003
G0 F6000 X66.159 Y59.37
G1 F1200 X143.074 Y136.286 E386.73789
G0 F6000 X143.263 Y135.909
G1 F1200 X66.159 Y58.805 E390.36463
G0 F6000 X66.159 Y58.239
G1 F1200 X143.451 Y135.531 E394.00021
G0 F6000 X143.64 Y135.154
G1 F1200 X66.159 Y57.673 E397.64468
G0 F6000 X66.159 Y57.108
G1 F1200 X143.829 Y134.778 E401.29804
G0 F6000 X144.017 Y134.4
G1 F1200 X66.159 Y56.542 E404.96024
G0 F6000 X66.159 Y55.976
G1 F1200 X144.205 Y134.023 E408.63131
G0 F6000 X144.394 Y133.646
G1 F1200 X66.159 Y55.411 E412.31124
G0 F6000 X66.159 Y54.845
G1 F1200 X144.582 Y133.269 E416.00004
G0 F6000 X144.771 Y132.892
G1 F1200 X66.159 Y54.279 E419.69773
G0 F6000 X66.159 Y53.713
G1 F1200 X144.96 Y132.515 E423.40431
G0 F6000 X145.148 Y132.137
G1 F1200 X66.159 Y53.148 E427.11971
G0 F6000 X66.159 Y52.582
G1 F1200 X145.337 Y131.76 E430.844
G0 F6000 X145.526 Y131.383
G1 F1200 X66.159 Y52.016 E434.57718
G0 F6000 X66.159 Y51.451
G1 F1200 X145.714 Y131.006 E438.31921
G0 F6000 X145.902 Y130.629
G1 F1200 X66.159 Y50.885 E442.0701
G0 F6000 X66.159 Y50.319
G1 F1200 X146.091 Y130.252 E445.82988
G0 F6000 X146.279 Y129.875
G1 F1200 X66.159 Y49.754 E449.5985
G0 F6000 X66.159 Y49.188
G1 F1200 X146.468 Y129.498 E453.37601
G0 F6000 X146.657 Y129.121
G1 F1200 X66.159 Y48.622 E457.16242
G0 F6000 X66.159 Y48.057
G1 F1200 X146.845 Y128.743 E460.95764
G0 F6000 X147.034 Y128.366
G1 F1200 X66.159 Y47.491 E464.76175
G0 F6000 X66.159 Y46.925
G1 F1200 X147.223 Y127.989 E468.57475
G0 F6000 X147.411 Y127.612
G1 F1200 X66.159 Y46.36 E472.3966
G0 F6000 X66.159 Y45.794
G1 F1200 X147.6 Y127.235 E476.22733
G0 F6000 X147.788 Y126.858
G1 F1200 X66.159 Y45.228 E480.06693
G0 F6000 X66.159 Y44.662
G1 F1200 X147.976 Y126.48 E483.91538
G0 F6000 X148.165 Y126.104
G1 F1200 X66.159 Y44.097 E487.77271
G0 F6000 X66.159 Y43.531
G1 F1200 X148.354 Y125.727 E491.63894
G0 F6000 X148.542 Y125.349
G1 F1200 X66.159 Y42.965 E495.514
G0 F6000 X66.159 Y42.4
G1 F1200 X148.731 Y124.972 E499.39794
G0 F6000 X148.92 Y124.595
G1 F1200 X66.159 Y41.834 E503.29076
G0 F6000 X66.159 Y41.268
G1 F1200 X149.108 Y124.218 E507.19245
G0 F6000 X149.297 Y123.841
G1 F1200 X66.159 Y40.703 E511.10301
G0 F6000 X66.159 Y40.137
G1 F1200 X149.485 Y123.464 E515.02243
G0 F6000 X149.673 Y123.086
G1 F1200 X66.159 Y39.571 E518.9507
G0 F6000 X66.159 Y39.006
G1 F1200 X149.862 Y122.709 E522.88783
G0 F6000 X150.051 Y122.333
G1 F1200 X66.159 Y38.44 E526.83387
G0 F6000 X66.159 Y37.874
G1 F1200 X150.239 Y121.955 E530.78876
G0 F6000 X150.428 Y121.578
G1 F1200 X66.159 Y37.309 E534.75252
G0 F6000 X66.159 Y36.743
G1 F1200 X150.617 Y121.201 E538.72516
G0 F6000 X150.805 Y120.824
G1 F1200 X66.159 Y36.177 E542.70668
G0 F6000 X66.674 Y36.127
G1 F1200 X150.994 Y120.447 E546.67283
G0 F6000 X151.182 Y120.07
G1 F1200 X67.24 Y36.127 E550.62123
G0 F6000 X67.805 Y36.127
G1 F1200 X151.371 Y119.692 E554.55189
G0 F6000 X151.559 Y119.315
G1 F1200 X68.371 Y36.127 E558.4648
G0 F6000 X68.937 Y36.127
G1 F1200 X151.747 Y118.938 E562.35995
G0 F6000 X151.936 Y118.561
G1 F1200 X69.502 Y36.127 E566.2374
G0 F6000 X70.068 Y36.127
G1 F1200 X152.125 Y118.184 E570.09711
G0 F6000 X152.313 Y117.806
G1 F1200 X70.634 Y36.127 E573.93904
G0 F6000 X71.199 Y36.127
G1 F1200 X152.502 Y117.429 E577.76326
G0 F6000 X152.691 Y117.053
G1 F1200 X71.765 Y36.127 E581.56977
G0 F6000 X72.331 Y36.127
G1 F1200 X152.879 Y116.675 E585.3585
G0 F6000 X153.068 Y116.298
G1 F1200 X72.897 Y36.127 E589.1295
G0 F6000 X73.462 Y36.127
G1 F1200 X153.256 Y115.921 E592.88276
G0 F6000 X153.444 Y115.544
