;FLAVOR:Marlin
;TIME:31838
;Filament used: 28.6056m
;Layer height: 0.2
;MINX:64.335
;MINY:65.2
;MINZ:0.2
;MAXX:165.665
;MAXY:165.665
;MAXZ:25
;Generated with Cura_SteamEngine 5.2.1
M140 S60
M105
M190 S60
M104 S200
M105
M109 S200
M82 ;absolute extrusion mode
; Ender 3 Custom Start G-code
G92 E0 ; Reset Extruder
G28 ; Home all axes
G29 ; BLTouch calibration
G1 Z2.0 F3000 ; Move Z Axis up little to prevent scratching of Heat Bed
G1 X0.1 Y20 Z0.3 F5000.0 ; Move to start position
G1 X0.1 Y200.0 Z0.3 F1500.0 E15 ; Draw the first line
G1 X0.4 Y200.0 Z0.3 F5000.0 ; Move to side a little
G1 X0.4 Y20 Z0.3 F1500.0 E30 ; Draw the second line
G92 E0 ; Reset Extruder
G1 Z2.0 F3000 ; Move Z Axis up little to prevent scratching of Heat Bed
G1 X5 Y20 Z0.3 F5000.0 ; Move over to prevent blob squish
G92 E0
G92 E0
G1 F2700 E-5
;LAYER_COUNT:125
;LAYER:0
M107
G0 F6000 X68.8 Y139.6 Z0.2
;TYPE:SKIRT
G1 F2700 E0
G1 F1200 X161.2 Y139.6 E3.07324
G1 X161.2 Y161.2 E3.79166
G1 X68.8 Y161.2 E6.86489
G1 X68.8 Y139.6 E7.58331
G0 F6000 X68.4 Y139.2
G1 F1200 X161.6 Y139.2 E10.68316
G1 X161.6 Y161.6 E11.42818
G1 X68.4 Y161.6 E14.52803
G1 X68.4 Y139.2 E15.27305
G0 F6000 X68 Y138.8
G1 F1200 X162 Y138.8 E18.39951
G1 X162 Y162 E19.17114
G1 X68 Y162 E22.29759
G1 X68 Y138.8 E23.06923
G0 F6000 X67.6 Y138.4
G1 F1200 X162.4 Y138.4 E26.22229
G1 X162.4 Y162.4 E27.02053
G1 X67.6 Y162.4 E30.17359
G1 X67.6 Y138.4 E30.97184
G0 F6000 X67.2 Y138
G1 F1200 X162.8 Y138 E34.15151
G1 X162.8 Y162.8 E34.97636
G1 X67.2 Y162.8 E38.15603
G1 X67.2 Y138 E38.98088
G0 F6000 X66.8 Y137.6
G1 F1200 X163.2 Y137.6 E42.18716
G1 X163.2 Y163.2 E43.03861
G1 X66.8 Y163.2 E46.24489
G1 X66.8 Y137.6 E47.09635
G0 F6000 X66.4 Y137.2
G1 F1200 X163.6 Y137.2 E50.32924
G1 X163.6 Y163.6 E51.2073
G1 X66.4 Y163.6 E54.44019
G1 X66.4 Y137.2 E55.31826
G0 F6000 X66 Y136.8
G1 F1200 X164 Y136.8 E58.57775
G1 X164 Y164 E59.48243
G1 X66 Y164 E62.74192
G1 X66 Y136.8 E63.64659
G0 F6000 X65.6 Y136.4
G1 F1200 X164.4 Y136.4 E66.9327
G1 X164.4 Y164.4 E67.86398
G1 X65.6 Y164.4 E71.15008
G1 X65.6 Y136.4 E72.08136
G0 F6000 X65.2 Y136
G1 F1200 X164.8 Y136 E75.39407
G1 X164.8 Y164.8 E76.35197
G1 X65.2 Y164.8 E79.66468
G1 X65.2 Y136 E80.62257
G1 F2700 E75.62257
G0 F6000 X68.335 Y139.88
G0 X69.08 Y139.88
;TYPE:SUPPORT
G1 F2700 E80.62257
G1 F1200 X69.08 Y160.92 E81.32236
G1 X160.92 Y160.92 E84.37697
G1 X160.92 Y150.4 E84.72687
G1 X160.92 Y139.88 E85.07676
G1 X69.08 Y139.88 E88.13138
G1 X69.159 Y140
G1 X160.84 Y140 E91.1807
G0 F6000 X160 Y139.96
G1 F1200 X160 Y160.84 E91.87517
G0 F6000 X160.84 Y160
G1 F1200 X69.159 Y160 E94.92449
G0 F6000 X70 Y160.84
G1 F1200 X70 Y139.96 E95.61896
G0 F6000 X72 Y139.96
G1 F1200 X72 Y160.84 E96.31344
G0 F6000 X74 Y160.84
G1 F1200 X74 Y139.96 E97.00791
G0 F6000 X76 Y139.96
G1 F1200 X76 Y160.84 E97.70238
G0 F6000 X78 Y160.84
G1 F1200 X78 Y139.96 E98.39685
G0 F6000 X80 Y139.96
G1 F1200 X80 Y160.84 E99.09132
G0 F6000 X82 Y160.84
G1 F1200 X82 Y139.96 E99.78579
G0 F6000 X84 Y139.96
G1 F1200 X84 Y160.84 E100.48026
G0 F6000 X86 Y160.84
G1 F1200 X86 Y139.96 E101.17474
G0 F6000 X88 Y139.96
G1 F1200 X88 Y160.84 E101.86921
G0 F6000 X90 Y160.84
G1 F1200 X90 Y139.96 E102.56368
G0 F6000 X92 Y139.96
G1 F1200 X92 Y160.84 E103.25815
G0 F6000 X94 Y160.84
G1 F1200 X94 Y139.96 E103.95262
G0 F6000 X96 Y139.96
G1 F1200 X96 Y160.84 E104.64709
G0 F6000 X98 Y160.84
G1 F1200 X98 Y139.96 E105.34157
G0 F6000 X100 Y139.96
G1 F1200 X100 Y160.84 E106.03604
G0 F6000 X102 Y160.84
G1 F1200 X102 Y139.96 E106.73051
G0 F6000 X104 Y139.96
G1 F1200 X104 Y160.84 E107.42498
G0 F6000 X106 Y160.84
G1 F1200 X106 Y139.96 E108.11945
G0 F6000 X108 Y139.96
G1 F1200 X108 Y160.84 E108.81392
G0 F6000 X110 Y160.84
G1 F1200 X110 Y139.96 E109.5084
G0 F6000 X112 Y139.96
G1 F1200 X112 Y160.84 E110.20287
G0 F6000 X114 Y160.84
G1 F1200 X114 Y139.96 E110.89734
G0 F6000 X116 Y139.96
G1 F1200 X116 Y160.84 E111.59181
G0 F6000 X118 Y160.84
G1 F1200 X118 Y139.96 E112.28628
G0 F6000 X120 Y139.96
G1 F1200 X120 Y160.84 E112.98075
G0 F6000 X122 Y160.84
G1 F1200 X122 Y139.96 E113.67523
G0 F6000 X124 Y139.96
G1 F1200 X124 Y160.84 E114.3697
G0 F6000 X126 Y160.84
G1 F1200 X126 Y139.96 E115.06417
G0 F6000 X128 Y139.96
G1 F1200 X128 Y160.84 E115.75864
G0 F6000 X130 Y160.84
G1 F1200 X130 Y139.96 E116.45311
G0 F6000 X132 Y139.96
G1 F1200 X132 Y160.84 E117.14758
G0 F6000 X134 Y160.84
G1 F1200 X134 Y139.96 E117.84206
G0 F6000 X136 Y139.96
G1 F1200 X136 Y160.84 E118.53653
G0 F6000 X138 Y160.84
G1 F1200 X138 Y139.96 E119.231
G0 F6000 X140 Y139.96
G1 F1200 X140 Y160.84 E119.92547
G0 F6000 X142 Y160.84
G1 F1200 X142 Y139.96 E120.61994
G0 F6000 X144 Y139.96
G1 F1200 X144 Y160.84 E121.31441
G0 F6000 X146 Y160.84
G1 F1200 X146 Y139.96 E122.00889
G0 F6000 X148 Y139.96
G1 F1200 X148 Y160.84 E122.70336
G0 F6000 X150 Y160.84
G1 F1200 X150 Y139.96 E123.39783
G0 F6000 X152 Y139.96
G1 F1200 X152 Y160.84 E124.0923
G0 F6000 X154 Y160.84
G1 F1200 X154 Y139.96 E124.78677
G0 F6000 X156 Y139.96
G1 F1200 X156 Y160.84 E125.48124
G0 F6000 X158 Y160.84
G1 F1200 X158 Y139.96 E126.17571
G1 F2700 E121.17571
G0 F6000 X158 Y139.135
G0 X161.653 Y139.147
G0 X161.665 Y142
G0 X160.84 Y142
G1 F2700 E126.17571
G1 F1200 X69.159 Y142 E129.22504
G0 F6000 X69.159 Y144
G1 F1200 X160.84 Y144 E132.27436
G0 F6000 X160.84 Y146
G1 F1200 X69.159 Y146 E135.32368
G0 F6000 X69.159 Y148
G1 F1200 X160.84 Y148 E138.373
G0 F6000 X160.84 Y150
G1 F1200 X69.159 Y150 E141.42233
G0 F6000 X69.159 Y152
G1 F1200 X160.84 Y152 E144.47165
G0 F6000 X160.84 Y154
G1 F1200 X69.159 Y154 E147.52097
G0 F6000 X69.159 Y156
G1 F1200 X160.84 Y156 E150.57029
G0 F6000 X160.84 Y158
G1 F1200 X69.159 Y158 E153.61962
G1 F2700 E148.61962
;MESH:Sword Blade v3.stl
G0 F6000 X68.335 Y158
G0 X68.347 Y139.147
G0 X69.159 Y135.665
G0 X65.6 Y134.4
;TYPE:WALL-INNER
G1 F2700 E153.61962
G1 F1200 X164.4 Y134.4 E156.90572
G1 X164.4 Y100 E158.04987
G1 X164.4 Y65.6 E159.19402
G1 X65.6 Y65.6 E162.48012
G1 X65.6 Y134.4 E164.76841
G0 F6000 X65.2 Y134.8
;TYPE:WALL-OUTER
G1 F1200 X164.8 Y134.8 E168.08112
G1 X164.8 Y100 E169.23858
G1 X164.8 Y65.2 E170.39603
G1 X65.2 Y65.2 E173.70874
G1 X65.2 Y134.8 E176.02364
G0 F6000 X65.47 Y134.53
G0 X65.7 Y134.04
G0 X65.96 Y134.04
;TYPE:SKIN
G1 F1200 X164.04 Y134.04 E179.2858
G1 X164.04 Y65.96 E181.55015
G1 X65.96 Y65.96 E184.8123
G1 X65.96 Y134.04 E187.07665
G0 F6000 X66.522 Y133.839
G1 F1200 X66.159 Y133.476 E187.09373
G0 F6000 X66.159 Y132.91
G1 F1200 X67.088 Y133.839 E187.13742
G0 F6000 X67.653 Y133.839
G1 F1200 X66.159 Y132.344 E187.20772
G0 F6000 X66.159 Y131.779
G1 F1200 X68.219 Y133.839 E187.30462
G0 F6000 X68.785 Y133.839
G1 F1200 X66.159 Y131.213 E187.42814
G0 F6000 X66.159 Y130.647
G1 F1200 X69.35 Y133.839 E187.57825
G0 F6000 X69.916 Y133.839
G1 F1200 X66.159 Y130.082 E187.75497
G0 F6000 X66.159 Y129.516
G1 F1200 X70.482 Y133.839 E187.95831
G0 F6000 X71.047 Y133.839
G1 F1200 X66.159 Y128.95 E188.18825
G0 F6000 X66.159 Y128.385
G1 F1200 X71.613 Y133.839 E188.44479
G0 F6000 X72.179 Y133.839
G1 F1200 X66.159 Y127.819 E188.72795
G0 F6000 X66.159 Y127.253
G1 F1200 X72.745 Y133.839 E189.03774
G0 F6000 X73.31 Y133.839
G1 F1200 X66.159 Y126.688 E189.3741
G0 F6000 X66.159 Y126.122
G1 F1200 X73.876 Y133.839 E189.73708
G0 F6000 X74.442 Y133.839
G1 F1200 X66.159 Y125.556 E190.12669
G0 F6000 X66.159 Y124.991
G1 F1200 X75.007 Y133.839 E190.54287
G0 F6000 X75.573 Y133.839
G1 F1200 X66.159 Y124.425 E190.98568
G0 F6000 X66.159 Y123.859
G1 F1200 X76.139 Y133.839 E191.45511
G0 F6000 X76.704 Y133.839
G1 F1200 X66.159 Y123.293 E191.95114
G0 F6000 X66.159 Y122.728
G1 F1200 X77.27 Y133.839 E192.47376
G0 F6000 X77.836 Y133.839
G1 F1200 X66.159 Y122.162 E193.02301
G0 F6000 X66.159 Y121.596
G1 F1200 X78.401 Y133.839 E193.59886
G0 F6000 X78.967 Y133.839
G1 F1200 X66.159 Y121.031 E194.20131
G0 F6000 X66.159 Y120.465
G1 F1200 X79.533 Y133.839 E194.83038
G0 F6000 X80.098 Y133.839
G1 F1200 X66.159 Y119.899 E195.48606
G0 F6000 X66.159 Y119.334
G1 F1200 X80.664 Y133.839 E196.16833
G0 F6000 X81.23 Y133.839
G1 F1200 X66.159 Y118.768 E196.87722
G0 F6000 X66.159 Y118.202
G1 F1200 X81.795 Y133.839 E197.61271
G0 F6000 X82.361 Y133.839
G1 F1200 X66.159 Y117.637 E198.37481
G0 F6000 X66.159 Y117.071
G1 F1200 X82.927 Y133.839 E199.16352
G0 F6000 X83.493 Y133.839
G1 F1200 X66.159 Y116.505 E199.97886
G0 F6000 X66.159 Y115.94
G1 F1200 X84.058 Y133.839 E200.82077
G0 F6000 X84.624 Y133.839
G1 F1200 X66.159 Y115.374 E201.68931
G0 F6000 X66.159 Y114.808
G1 F1200 X85.19 Y133.839 E202.58447
G0 F6000 X85.755 Y133.839
G1 F1200 X66.159 Y114.242 E203.50623
G0 F6000 X66.159 Y113.677
G1 F1200 X86.321 Y133.839 E204.45459
G0 F6000 X86.887 Y133.839
G1 F1200 X66.159 Y113.111 E205.42957
G0 F6000 X66.159 Y112.545
G1 F1200 X87.452 Y133.839 E206.43115
G0 F6000 X88.018 Y133.839
G1 F1200 X66.159 Y111.98 E207.45933
G0 F6000 X66.159 Y111.414
G1 F1200 X88.584 Y133.839 E208.51413
G0 F6000 X89.149 Y133.839
G1 F1200 X66.159 Y110.848 E209.59554
G0 F6000 X66.159 Y110.283
G1 F1200 X89.715 Y133.839 E210.70354
G0 F6000 X90.281 Y133.839
G1 F1200 X66.159 Y109.717 E211.83816
G0 F6000 X66.159 Y109.151
G1 F1200 X90.846 Y133.839 E212.99939
G0 F6000 X91.412 Y133.839
G1 F1200 X66.159 Y108.586 E214.18721
G0 F6000 X66.159 Y108.02
G1 F1200 X91.978 Y133.839 E215.40166
G0 F6000 X92.544 Y133.839
G1 F1200 X66.159 Y107.454 E216.64273
G0 F6000 X66.159 Y106.889
G1 F1200 X93.109 Y133.839 E217.91037
G0 F6000 X93.675 Y133.839
G1 F1200 X66.159 Y106.323 E219.20464
G0 F6000 X66.159 Y105.757
G1 F1200 X94.241 Y133.839 E220.52553
G0 F6000 X94.806 Y133.839
G1 F1200 X66.159 Y105.192 E221.873
G0 F6000 X66.159 Y104.626
G1 F1200 X95.372 Y133.839 E223.24709
G0 F6000 X95.938 Y133.839
G1 F1200 X66.159 Y104.06 E224.6478
G0 F6000 X66.159 Y103.494
G1 F1200 X96.503 Y133.839 E226.07512
G0 F6000 X97.069 Y133.839
G1 F1200 X66.159 Y102.929 E227.52903
G0 F6000 X66.159 Y102.363
G1 F1200 X97.635 Y133.839 E229.00956
G0 F6000 X98.2 Y133.839
G1 F1200 X66.159 Y101.797 E230.5167
G0 F6000 X66.159 Y101.232
G1 F1200 X98.766 Y133.839 E232.05043
G0 F6000 X99.332 Y133.839
G1 F1200 X66.159 Y100.666 E233.61078
G0 F6000 X66.159 Y100.1
G1 F1200 X99.897 Y133.839 E235.19774
G0 F6000 X100.463 Y133.839
G1 F1200 X66.159 Y99.535 E236.8113
G0 F6000 X66.159 Y98.969
G1 F1200 X101.029 Y133.839 E238.45147
G0 F6000 X101.594 Y133.839
G1 F1200 X66.159 Y98.403 E240.11825
G0 F6000 X66.159 Y97.838
G1 F1200 X102.16 Y133.839 E241.81163
G0 F6000 X102.726 Y133.839
G1 F1200 X66.159 Y97.272 E243.53163
G0 F6000 X66.159 Y96.706
G1 F1200 X103.292 Y133.839 E245.27825
G0 F6000 X103.857 Y133.839
G1 F1200 X66.159 Y96.141 E247.05145
G0 F6000 X66.159 Y95.575
G1 F1200 X104.423 Y133.839 E248.85127
G0 F6000 X104.989 Y133.839
G1 F1200 X66.159 Y95.009 E250.67771
G0 F6000 X66.159 Y94.444
G1 F1200 X105.554 Y133.839 E252.53073
G0 F6000 X106.12 Y133.839
G1 F1200 X66.159 Y93.878 E254.41038
G0 F6000 X66.159 Y93.312
G1 F1200 X106.686 Y133.839 E256.31664
G0 F6000 X107.251 Y133.839
G1 F1200 X66.159 Y92.746 E258.24951
G0 F6000 X66.159 Y92.181
G1 F1200 X107.817 Y133.839 E260.20897
G0 F6000 X108.383 Y133.839
G1 F1200 X66.159 Y91.615 E262.19506
G0 F6000 X66.159 Y91.049
G1 F1200 X108.948 Y133.839 E264.20775
G0 F6000 X109.514 Y133.839
G1 F1200 X66.159 Y90.484 E266.24703
G0 F6000 X66.159 Y89.918
G1 F1200 X110.08 Y133.839 E268.31294
G0 F6000 X110.645 Y133.839
G1 F1200 X66.159 Y89.352 E270.40545
G0 F6000 X66.159 Y88.787
G1 F1200 X111.211 Y133.839 E272.52456
G0 F6000 X111.777 Y133.839
G1 F1200 X66.159 Y88.221 E274.67029
G0 F6000 X66.159 Y87.655
G1 F1200 X112.343 Y133.839 E276.84264
G0 F6000 X112.908 Y133.839
G1 F1200 X66.159 Y87.09 E279.04157
G0 F6000 X66.159 Y86.524
G1 F1200 X113.474 Y133.839 E281.26712
G0 F6000 X114.04 Y133.839
G1 F1200 X66.159 Y85.958 E283.5193
G0 F6000 X66.159 Y85.393
G1 F1200 X114.605 Y133.839 E285.79805
G0 F6000 X115.171 Y133.839
G1 F1200 X66.159 Y84.827 E288.10343
G0 F6000 X66.159 Y84.261
G1 F1200 X115.737 Y133.839 E290.43542
G0 F6000 X116.302 Y133.839
G1 F1200 X66.159 Y83.695 E292.79402
G0 F6000 X66.159 Y83.13
G1 F1200 X116.868 Y133.839 E295.17922
G0 F6000 X117.434 Y133.839
G1 F1200 X66.159 Y82.564 E297.59103
G0 F6000 X66.159 Y81.998
G1 F1200 X117.999 Y133.839 E300.02945
G0 F6000 X118.565 Y133.839
G1 F1200 X66.159 Y81.433 E302.49447
G0 F6000 X66.159 Y80.867
G1 F1200 X119.131 Y133.839 E304.98611
G0 F6000 X119.696 Y133.839
G1 F1200 X66.159 Y80.301 E307.50435
G0 F6000 X66.159 Y79.736
G1 F1200 X120.262 Y133.839 E310.04919
G0 F6000 X120.828 Y133.839
G1 F1200 X66.159 Y79.17 E312.62065
G0 F6000 X66.159 Y78.604
G1 F1200 X121.393 Y133.839 E315.21871
G0 F6000 X121.959 Y133.839
G1 F1200 X66.159 Y78.039 E317.84337
G0 F6000 X66.159 Y77.473
G1 F1200 X122.525 Y133.839 E320.49466
G0 F6000 X123.091 Y133.839
G1 F1200 X66.159 Y76.907 E323.17256
G0 F6000 X66.159 Y76.342
G1 F1200 X123.656 Y133.839 E325.87705
G0 F6000 X124.222 Y133.839
G1 F1200 X66.159 Y75.776 E328.60815
G0 F6000 X66.159 Y75.21
G1 F1200 X124.788 Y133.839 E331.36588
G0 F6000 X125.353 Y133.839
G1 F1200 X66.159 Y74.645 E334.15019
G0 F6000 X66.159 Y74.079
G1 F1200 X125.919 Y133.839 E336.96111
G0 F6000 X126.485 Y133.839
G1 F1200 X66.159 Y73.513 E339.79866
G0 F6000 X66.159 Y72.947
G1 F1200 X127.05 Y133.839 E342.66281
G0 F6000 X127.616 Y133.839
G1 F1200 X66.159 Y72.382 E345.55356
G0 F6000 X66.159 Y71.816
G1 F1200 X128.182 Y133.839 E348.47093
G0 F6000 X128.747 Y133.839
G1 F1200 X66.159 Y71.25 E351.4149
G0 F6000 X66.159 Y70.685
G1 F1200 X129.313 Y133.839 E354.38547
G0 F6000 X129.879 Y133.839
G1 F1200 X66.159 Y70.119 E357.38267
G0 F6000 X66.159 Y69.553
G1 F1200 X130.444 Y133.839 E360.40646
G0 F6000 X131.01 Y133.839
G1 F1200 X66.159 Y68.988 E363.45685
G0 F6000 X66.159 Y68.422
G1 F1200 X131.576 Y133.839 E366.53387
G0 F6000 X132.141 Y133.839
G1 F1200 X66.159 Y67.856 E369.63748
G0 F6000 X66.159 Y67.291
G1 F1200 X132.707 Y133.839 E372.7677
G0 F6000 X133.273 Y133.839
G1 F1200 X66.159 Y66.725 E375.92453
G0 F6000 X66.159 Y66.159
G1 F1200 X133.839 Y133.839 E379.10799
G0 F6000 X134.404 Y133.839
G1 F1200 X66.725 Y66.159 E382.29143
G0 F6000 X67.291 Y66.159
G1 F1200 X134.97 Y133.839 E385.47486
G0 F6000 X135.536 Y133.839
G1 F1200 X67.856 Y66.159 E388.65832
G0 F6000 X68.422 Y66.159
G1 F1200 X136.101 Y133.839 E391.84176
G0 F6000 X136.667 Y133.839
G1 F1200 X68.988 Y66.159 E395.0252
G0 F6000 X69.553 Y66.159
G1 F1200 X137.233 Y133.839 E398.20866
G0 F6000 X137.798 Y133.839
G1 F1200 X70.119 Y66.159 E401.39209
G0 F6000 X70.685 Y66.159
G1 F1200 X138.364 Y133.839 E404.57553
G0 F6000 X138.93 Y133.839
G1 F1200 X71.25 Y66.159 E407.75899
G0 F6000 X71.816 Y66.159
G1 F1200 X139.495 Y133.839 E410.94242
G0 F6000 X140.061 Y133.839
G1 F1200 X72.382 Y66.159 E414.12586
G0 F6000 X72.947 Y66.159
G1 F1200 X140.627 Y133.839 E417.30932
G0 F6000 X141.192 Y133.839
G1 F1200 X73.513 Y66.159 E420.49276
G0 F6000 X74.079 Y66.159
G1 F1200 X141.758 Y133.839 E423.67619
G0 F6000 X142.324 Y133.839
G1 F1200 X74.645 Y66.159 E426.85963
G0 F6000 X75.21 Y66.159
G1 F1200 X142.89 Y133.839 E430.04309
G0 F6000 X143.455 Y133.839
G1 F1200 X75.776 Y66.159 E433.22653
G0 F6000 X76.342 Y66.159
G1 F1200 X144.021 Y133.839 E436.40996
G0 F6000 X144.587 Y133.839
G1 F1200 X76.907 Y66.159 E439.59342
G0 F6000 X77.473 Y66.159
G1 F1200 X145.152 Y133.839 E442.77686
G0 F6000 X145.718 Y133.839
G1 F1200 X78.039 Y66.159 E445.96029
G0 F6000 X78.604 Y66.159
G1 F1200 X146.284 Y133.839 E449.14375
G0 F6000 X146.849 Y133.839
G1 F1200 X79.17 Y66.159 E452.32719
G0 F6000 X79.736 Y66.159
G1 F1200 X147.415 Y133.839 E455.51063
G0 F6000 X147.981 Y133.839
G1 F1200 X80.301 Y66.159 E458.69409
G0 F6000 X80.867 Y66.159
G1 F1200 X148.546 Y133.839 E461.87752
G0 F6000 X149.112 Y133.839
G1 F1200 X81.433 Y66.159 E465.06096
G0 F6000 X81.998 Y66.159
G1 F1200 X149.678 Y133.839 E468.24442
G0 F6000 X150.243 Y133.839
G1 F1200 X82.564 Y66.159 E471.42785
G0 F6000 X83.13 Y66.159
G1 F1200 X150.809 Y133.839 E474.61129
G0 F6000 X151.375 Y133.839
G1 F1200 X83.695 Y66.159 E477.79475
G0 F6000 X84.261 Y66.159
G1 F1200 X151.94 Y133.839 E480.97819
G0 F6000 X152.506 Y133.839
G1 F1200 X84.827 Y66.159 E484.16162
G0 F6000 X85.393 Y66.159
G1 F1200 X153.072 Y133.839 E487.34506
G0 F6000 X153.638 Y133.839
G1 F1200 X85.958 Y66.159 E490.52852
