;FLAVOR:Marlin
;TIME:38241
;Filament used: 29.1119m
;Layer height: 0.2
;MINX:64.335
;MINY:17.954
;MINZ:0.2
;MAXX:165.665
;MAXY:213.353
;MAXZ:25
;Generated with Cura_SteamEngine 5.2.1
M140 S60
M105
M190 S60
M104 S200
M105
M109 S200
M82 ;absolute extrusion mode
; Ender 3 Custom Start G-code
G92 E0 ; Reset Extruder
G28 ; Home all axes
G29 ; BLTouch calibration
G1 Z2.0 F3000 ; Move Z Axis up little to prevent scratching of Heat Bed
G1 X0.1 Y20 Z0.3 F5000.0 ; Move to start position
G1 X0.1 Y200.0 Z0.3 F1500.0 E15 ; Draw the first line
G1 X0.4 Y200.0 Z0.3 F5000.0 ; Move to side a little
G1 X0.4 Y20 Z0.3 F1500.0 E30 ; Draw the second line
G92 E0 ; Reset Extruder
G1 Z2.0 F3000 ; Move Z Axis up little to prevent scratching of Heat Bed
G1 X5 Y20 Z0.3 F5000.0 ; Move over to prevent blob squish
G92 E0
G92 E0
G1 F2700 E-5
;LAYER_COUNT:125
;LAYER:0
M107
G0 F6000 X68.8 Y187.288 Z0.2
;TYPE:SKIRT
G1 F2700 E0
G1 F1200 X161.2 Y187.288 E3.07324
G1 X161.2 Y208.888 E3.79166
G1 X68.8 Y208.888 E6.86489
G1 X68.8 Y187.288 E7.58331
G0 F6000 X68.4 Y186.888
G1 F1200 X161.6 Y186.888 E10.68316
G1 X161.6 Y209.288 E11.42818
G1 X68.4 Y209.288 E14.52803
G1 X68.4 Y186.888 E15.27305
G0 F6000 X68 Y186.488
G1 F1200 X162 Y186.488 E18.39951
G1 X162 Y209.688 E19.17114
G1 X68 Y209.688 E22.29759
G1 X68 Y186.488 E23.06923
G0 F6000 X67.6 Y186.088
G1 F1200 X162.4 Y186.088 E26.22229
G1 X162.4 Y210.088 E27.02053
G1 X67.6 Y210.088 E30.17359
G1 X67.6 Y186.088 E30.97184
G0 F6000 X67.2 Y185.688
G1 F1200 X162.8 Y185.688 E34.15151
G1 X162.8 Y210.488 E34.97636
G1 X67.2 Y210.488 E38.15603
G1 X67.2 Y185.688 E38.98088
G0 F6000 X66.8 Y185.288
G1 F1200 X163.2 Y185.288 E42.18716
G1 X163.2 Y210.888 E43.03861
G1 X66.8 Y210.888 E46.24489
G1 X66.8 Y185.288 E47.09635
G0 F6000 X66.4 Y184.888
G1 F1200 X163.6 Y184.888 E50.32924
G1 X163.6 Y211.288 E51.2073
G1 X66.4 Y211.288 E54.44019
G1 X66.4 Y184.888 E55.31826
G0 F6000 X66 Y184.488
G1 F1200 X164 Y184.488 E58.57775
G1 X164 Y211.688 E59.48243
G1 X66 Y211.688 E62.74192
G1 X66 Y184.488 E63.64659
G0 F6000 X65.6 Y184.088
G1 F1200 X164.4 Y184.088 E66.9327
G1 X164.4 Y212.088 E67.86398
G1 X65.6 Y212.088 E71.15008
G1 X65.6 Y184.088 E72.08136
G0 F6000 X65.2 Y183.688
G1 F1200 X164.8 Y183.688 E75.39407
G1 X164.8 Y212.488 E76.35197
G1 X65.2 Y212.488 E79.66468
G1 X65.2 Y183.688 E80.62257
G1 F2700 E75.62257
G0 F6000 X68.335 Y187.568
G0 X69.08 Y187.568
;TYPE:SUPPORT
G1 F2700 E80.62257
G1 F1200 X69.08 Y208.608 E81.32236
G1 X160.92 Y208.608 E84.37697
G1 X160.92 Y198.088 E84.72687
G1 X160.92 Y187.568 E85.07676
G1 X69.08 Y187.568 E88.13138
G0 F6000 X69.159 Y188
G1 F1200 X160.84 Y188 E91.1807
G0 F6000 X160 Y187.648
G1 F1200 X160 Y208.528 E91.87517
G0 F6000 X160.84 Y208
G1 F1200 X69.159 Y208 E94.92449
G0 F6000 X70 Y208.528
G1 F1200 X70 Y187.648 E95.61896
G0 F6000 X72 Y187.648
G1 F1200 X72 Y208.528 E96.31344
G0 F6000 X74 Y208.528
G1 F1200 X74 Y187.648 E97.00791
G0 F6000 X76 Y187.648
G1 F1200 X76 Y208.528 E97.70238
G0 F6000 X78 Y208.528
G1 F1200 X78 Y187.648 E98.39685
G0 F6000 X80 Y187.648
G1 F1200 X80 Y208.528 E99.09132
G0 F6000 X82 Y208.528
G1 F1200 X82 Y187.648 E99.78579
G0 F6000 X84 Y187.648
G1 F1200 X84 Y208.528 E100.48026
G0 F6000 X86 Y208.528
G1 F1200 X86 Y187.648 E101.17474
G0 F6000 X88 Y187.648
G1 F1200 X88 Y208.528 E101.86921
G0 F6000 X90 Y208.528
G1 F1200 X90 Y187.648 E102.56368
G0 F6000 X92 Y187.648
G1 F1200 X92 Y208.528 E103.25815
G0 F6000 X94 Y208.528
G1 F1200 X94 Y187.648 E103.95262
G0 F6000 X96 Y187.648
G1 F1200 X96 Y208.528 E104.64709
G0 F6000 X98 Y208.528
G1 F1200 X98 Y187.648 E105.34157
G0 F6000 X100 Y187.648
G1 F1200 X100 Y208.528 E106.03604
G0 F6000 X102 Y208.528
G1 F1200 X102 Y187.648 E106.73051
G0 F6000 X104 Y187.648
G1 F1200 X104 Y208.528 E107.42498
G0 F6000 X106 Y208.528
G1 F1200 X106 Y187.648 E108.11945
G0 F6000 X108 Y187.648
G1 F1200 X108 Y208.528 E108.81392
G0 F6000 X110 Y208.528
G1 F1200 X110 Y187.648 E109.5084
G0 F6000 X112 Y187.648
G1 F1200 X112 Y208.528 E110.20287
G0 F6000 X114 Y208.528
G1 F1200 X114 Y187.648 E110.89734
G0 F6000 X116 Y187.648
G1 F1200 X116 Y208.528 E111.59181
G0 F6000 X118 Y208.528
G1 F1200 X118 Y187.648 E112.28628
G0 F6000 X120 Y187.648
G1 F1200 X120 Y208.528 E112.98075
G0 F6000 X122 Y208.528
G1 F1200 X122 Y187.648 E113.67523
G0 F6000 X124 Y187.648
G1 F1200 X124 Y208.528 E114.3697
G0 F6000 X126 Y208.528
G1 F1200 X126 Y187.648 E115.06417
G0 F6000 X128 Y187.648
G1 F1200 X128 Y208.528 E115.75864
G0 F6000 X130 Y208.528
G1 F1200 X130 Y187.648 E116.45311
G0 F6000 X132 Y187.648
G1 F1200 X132 Y208.528 E117.14758
G0 F6000 X134 Y208.528
G1 F1200 X134 Y187.648 E117.84206
G0 F6000 X136 Y187.648
G1 F1200 X136 Y208.528 E118.53653
G0 F6000 X138 Y208.528
G1 F1200 X138 Y187.648 E119.231
G0 F6000 X140 Y187.648
G1 F1200 X140 Y208.528 E119.92547
G0 F6000 X142 Y208.528
G1 F1200 X142 Y187.648 E120.61994
G0 F6000 X144 Y187.648
G1 F1200 X144 Y208.528 E121.31441
G0 F6000 X146 Y208.528
G1 F1200 X146 Y187.648 E122.00889
G0 F6000 X148 Y187.648
G1 F1200 X148 Y208.528 E122.70336
G0 F6000 X150 Y208.528
G1 F1200 X150 Y187.648 E123.39783
G0 F6000 X152 Y187.648
G1 F1200 X152 Y208.528 E124.0923
G0 F6000 X154 Y208.528
G1 F1200 X154 Y187.648 E124.78677
G0 F6000 X156 Y187.648
G1 F1200 X156 Y208.528 E125.48124
G0 F6000 X158 Y208.528
G1 F1200 X158 Y187.648 E126.17571
G1 F2700 E121.17571
G0 F6000 X158 Y186.823
G0 X161.653 Y186.835
G0 X161.665 Y190
G0 X160.84 Y190
G1 F2700 E126.17571
G1 F1200 X69.159 Y190 E129.22504
G0 F6000 X69.159 Y192
G1 F1200 X160.84 Y192 E132.27436
G0 F6000 X160.84 Y194
G1 F1200 X69.159 Y194 E135.32368
G0 F6000 X69.159 Y196
G1 F1200 X160.84 Y196 E138.373
G0 F6000 X160.84 Y198
G1 F1200 X69.159 Y198 E141.42233
G0 F6000 X69.159 Y200
G1 F1200 X160.84 Y200 E144.47165
G0 F6000 X160.84 Y202
G1 F1200 X69.159 Y202 E147.52097
G0 F6000 X69.159 Y204
G1 F1200 X160.84 Y204 E150.57029
G0 F6000 X160.84 Y206
G1 F1200 X69.159 Y206 E153.61962
G1 F2700 E148.61962
;MESH:Sword Hilt electric v5.stl
G0 F6000 X68.335 Y206
G0 X68.347 Y186.835
G0 X69.159 Y183.353
G0 X65.6 Y182.088
;TYPE:WALL-INNER
G1 F2700 E153.61962
G1 F1200 X164.4 Y182.088 E156.90572
G1 X164.4 Y67.754 E160.70848
G1 X164.4 Y18.354 E162.35153
G1 X65.6 Y18.354 E165.63763
G1 X65.6 Y182.088 E171.08345
G0 F6000 X65.2 Y182.488
;TYPE:WALL-OUTER
G1 F1200 X164.8 Y182.488 E174.39616
G1 X164.8 Y67.754 E178.21223
G1 X164.8 Y17.954 E179.86858
G1 X65.2 Y17.954 E183.18129
G1 X65.2 Y182.488 E188.65371
G0 F6000 X65.47 Y182.218
G0 X65.7 Y181.728
G0 X65.96 Y181.728
;TYPE:SKIN
G1 F1200 X164.04 Y181.728 E191.91587
G1 X164.04 Y67.754 E195.70666
G1 X164.04 Y18.714 E197.33774
G1 X65.96 Y18.714 E200.59989
G1 X65.96 Y181.728 E206.02176
G0 F6000 X66.692 Y181.527
G1 F1200 X66.159 Y180.993 E206.04685
G0 F6000 X66.159 Y180.427
G1 F1200 X67.258 Y181.527 E206.09857
G0 F6000 X67.824 Y181.527
G1 F1200 X66.159 Y179.861 E206.17691
G0 F6000 X66.159 Y179.296
G1 F1200 X68.389 Y181.527 E206.28183
G0 F6000 X68.955 Y181.527
G1 F1200 X66.159 Y178.73 E206.41336
G0 F6000 X66.159 Y178.164
G1 F1200 X69.521 Y181.527 E206.57153
G0 F6000 X70.087 Y181.527
G1 F1200 X66.159 Y177.599 E206.75629
G0 F6000 X66.159 Y177.033
G1 F1200 X70.652 Y181.527 E206.96765
G0 F6000 X71.218 Y181.527
G1 F1200 X66.159 Y176.467 E207.20563
G0 F6000 X66.159 Y175.902
G1 F1200 X71.784 Y181.527 E207.47021
G0 F6000 X72.349 Y181.527
G1 F1200 X66.159 Y175.336 E207.7614
G0 F6000 X66.159 Y174.77
G1 F1200 X72.915 Y181.527 E208.0792
G0 F6000 X73.481 Y181.527
G1 F1200 X66.159 Y174.204 E208.42363
G0 F6000 X66.159 Y173.639
G1 F1200 X74.046 Y181.527 E208.79463
G0 F6000 X74.612 Y181.527
G1 F1200 X66.159 Y173.073 E209.19226
G0 F6000 X66.159 Y172.507
G1 F1200 X75.178 Y181.527 E209.61651
G0 F6000 X75.743 Y181.527
G1 F1200 X66.159 Y171.942 E210.06733
G0 F6000 X66.159 Y171.376
G1 F1200 X76.309 Y181.527 E210.54478
G0 F6000 X76.875 Y181.527
G1 F1200 X66.159 Y170.81 E211.04885
G0 F6000 X66.159 Y170.245
G1 F1200 X77.44 Y181.527 E211.5795
G0 F6000 X78.006 Y181.527
G1 F1200 X66.159 Y169.679 E212.13677
G0 F6000 X66.159 Y169.113
G1 F1200 X78.572 Y181.527 E212.72066
G0 F6000 X79.137 Y181.527
G1 F1200 X66.159 Y168.548 E213.33113
G0 F6000 X66.159 Y167.982
G1 F1200 X79.703 Y181.527 E213.96822
G0 F6000 X80.269 Y181.527
G1 F1200 X66.159 Y167.416 E214.63194
G0 F6000 X66.159 Y166.851
G1 F1200 X80.835 Y181.527 E215.32225
G0 F6000 X81.4 Y181.527
G1 F1200 X66.159 Y166.285 E216.03917
G0 F6000 X66.159 Y165.719
G1 F1200 X81.966 Y181.527 E216.7827
G0 F6000 X82.532 Y181.527
G1 F1200 X66.159 Y165.153 E217.55286
G0 F6000 X66.159 Y164.588
G1 F1200 X83.097 Y181.527 E218.3496
G0 F6000 X83.663 Y181.527
G1 F1200 X66.159 Y164.022 E219.17296
G0 F6000 X66.159 Y163.456
G1 F1200 X84.229 Y181.527 E220.02294
G0 F6000 X84.794 Y181.527
G1 F1200 X66.159 Y162.891 E220.89949
G0 F6000 X66.159 Y162.325
G1 F1200 X85.36 Y181.527 E221.80267
G0 F6000 X85.926 Y181.527
G1 F1200 X66.159 Y161.759 E222.73248
G0 F6000 X66.159 Y161.194
G1 F1200 X86.491 Y181.527 E223.68885
G0 F6000 X87.057 Y181.527
G1 F1200 X66.159 Y160.628 E224.67186
G0 F6000 X66.159 Y160.062
G1 F1200 X87.623 Y181.527 E225.68148
G0 F6000 X88.188 Y181.527
G1 F1200 X66.159 Y159.497 E226.71768
G0 F6000 X66.159 Y158.931
G1 F1200 X88.754 Y181.527 E227.7805
G0 F6000 X89.32 Y181.527
G1 F1200 X66.159 Y158.365 E228.86995
G0 F6000 X66.159 Y157.8
G1 F1200 X89.885 Y181.527 E229.98597
G0 F6000 X90.451 Y181.527
G1 F1200 X66.159 Y157.234 E231.12862
G0 F6000 X66.159 Y156.668
G1 F1200 X91.017 Y181.527 E232.29788
G0 F6000 X91.583 Y181.527
G1 F1200 X66.159 Y156.103 E233.49375
G0 F6000 X66.159 Y155.537
G1 F1200 X92.148 Y181.527 E234.71622
G0 F6000 X92.714 Y181.527
G1 F1200 X66.159 Y154.971 E235.96531
G0 F6000 X66.159 Y154.405
G1 F1200 X93.28 Y181.527 E237.24102
G0 F6000 X93.845 Y181.527
G1 F1200 X66.159 Y153.84 E238.54331
G0 F6000 X66.159 Y153.274
G1 F1200 X94.411 Y181.527 E239.87222
G0 F6000 X94.977 Y181.527
G1 F1200 X66.159 Y152.708 E241.22775
G0 F6000 X66.159 Y152.143
G1 F1200 X95.542 Y181.527 E242.60986
G0 F6000 X96.108 Y181.527
G1 F1200 X66.159 Y151.577 E244.01859
G0 F6000 X66.159 Y151.011
G1 F1200 X96.674 Y181.527 E245.45395
G0 F6000 X97.239 Y181.527
G1 F1200 X66.159 Y150.446 E246.91588
G0 F6000 X66.159 Y149.88
G1 F1200 X97.805 Y181.527 E248.40443
G0 F6000 X98.371 Y181.527
G1 F1200 X66.159 Y149.314 E249.91961
G0 F6000 X66.159 Y148.749
G1 F1200 X98.936 Y181.527 E251.46136
G0 F6000 X99.502 Y181.527
G1 F1200 X66.159 Y148.183 E253.02974
G0 F6000 X66.159 Y147.617
G1 F1200 X100.068 Y181.527 E254.62474
G0 F6000 X100.634 Y181.527
G1 F1200 X66.159 Y147.052 E256.24634
G0 F6000 X66.159 Y146.486
G1 F1200 X101.199 Y181.527 E257.89454
G0 F6000 X101.765 Y181.527
G1 F1200 X66.159 Y145.92 E259.56936
G0 F6000 X66.159 Y145.354
G1 F1200 X102.331 Y181.527 E261.2708
G0 F6000 X102.896 Y181.527
G1 F1200 X66.159 Y144.789 E262.99882
G0 F6000 X66.159 Y144.223
G1 F1200 X103.462 Y181.527 E264.75346
G0 F6000 X104.028 Y181.527
G1 F1200 X66.159 Y143.657 E266.53473
G0 F6000 X66.159 Y143.092
G1 F1200 X104.593 Y181.527 E268.34257
G0 F6000 X105.159 Y181.527
G1 F1200 X66.159 Y142.526 E270.17703
G0 F6000 X66.159 Y141.96
G1 F1200 X105.725 Y181.527 E272.03812
G0 F6000 X106.29 Y181.527
G1 F1200 X66.159 Y141.395 E273.92578
G0 F6000 X66.159 Y140.829
G1 F1200 X106.856 Y181.527 E275.84007
G0 F6000 X107.422 Y181.527
G1 F1200 X66.159 Y140.263 E277.78098
G0 F6000 X66.159 Y139.698
G1 F1200 X107.987 Y181.527 E279.74846
G0 F6000 X108.553 Y181.527
G1 F1200 X66.159 Y139.132 E281.74257
G0 F6000 X66.159 Y138.566
G1 F1200 X109.119 Y181.527 E283.7633
G0 F6000 X109.684 Y181.527
G1 F1200 X66.159 Y138.001 E285.8106
G0 F6000 X66.159 Y137.435
G1 F1200 X110.25 Y181.527 E287.88453
G0 F6000 X110.816 Y181.527
G1 F1200 X66.159 Y136.869 E289.98508
G0 F6000 X66.159 Y136.304
G1 F1200 X111.382 Y181.527 E292.11224
G0 F6000 X111.947 Y181.527
G1 F1200 X66.159 Y135.738 E294.26599
G0 F6000 X66.159 Y135.172
G1 F1200 X112.513 Y181.527 E296.44636
G0 F6000 X113.079 Y181.527
G1 F1200 X66.159 Y134.606 E298.65336
G0 F6000 X66.159 Y134.041
G1 F1200 X113.644 Y181.527 E300.88693
G0 F6000 X114.21 Y181.527
G1 F1200 X66.159 Y133.475 E303.14712
G0 F6000 X66.159 Y132.909
G1 F1200 X114.776 Y181.527 E305.43394
G0 F6000 X115.341 Y181.527
G1 F1200 X66.159 Y132.344 E307.74734
G0 F6000 X66.159 Y131.778
G1 F1200 X115.907 Y181.527 E310.08735
G0 F6000 X116.473 Y181.527
G1 F1200 X66.159 Y131.212 E312.45399
G0 F6000 X66.159 Y130.647
G1 F1200 X117.038 Y181.527 E314.84721
G0 F6000 X117.604 Y181.527
G1 F1200 X66.159 Y130.081 E317.26705
G0 F6000 X66.159 Y129.515
G1 F1200 X118.17 Y181.527 E319.71351
G0 F6000 X118.735 Y181.527
G1 F1200 X66.159 Y128.95 E322.18655
G0 F6000 X66.159 Y128.384
G1 F1200 X119.301 Y181.527 E324.68621
G0 F6000 X119.867 Y181.527
G1 F1200 X66.159 Y127.818 E327.21249
G0 F6000 X66.159 Y127.253
G1 F1200 X120.433 Y181.527 E329.76537
G0 F6000 X120.998 Y181.527
G1 F1200 X66.159 Y126.687 E332.34485
G0 F6000 X66.159 Y126.121
G1 F1200 X121.564 Y181.527 E334.95096
G0 F6000 X122.13 Y181.527
G1 F1200 X66.159 Y125.556 E337.58366
G0 F6000 X66.159 Y124.99
G1 F1200 X122.695 Y181.527 E340.24297
G0 F6000 X123.261 Y181.527
G1 F1200 X66.159 Y124.424 E342.92889
G0 F6000 X66.159 Y123.858
G1 F1200 X123.827 Y181.527 E345.64144
G0 F6000 X124.392 Y181.527
G1 F1200 X66.159 Y123.293 E348.38057
G0 F6000 X66.159 Y122.727
G1 F1200 X124.958 Y181.527 E351.14632
G0 F6000 X125.524 Y181.527
G1 F1200 X66.159 Y122.161 E353.93869
G0 F6000 X66.159 Y121.596
G1 F1200 X126.089 Y181.527 E356.75763
G0 F6000 X126.655 Y181.527
G1 F1200 X66.159 Y121.03 E359.6032
G0 F6000 X66.159 Y120.464
G1 F1200 X127.221 Y181.527 E362.4754
G0 F6000 X127.786 Y181.527
G1 F1200 X66.159 Y119.899 E365.37417
G0 F6000 X66.159 Y119.333
G1 F1200 X128.352 Y181.527 E368.29956
G0 F6000 X128.918 Y181.527
G1 F1200 X66.159 Y118.767 E371.25157
G0 F6000 X66.159 Y118.202
G1 F1200 X129.483 Y181.527 E374.23016
G0 F6000 X130.049 Y181.527
G1 F1200 X66.159 Y117.636 E377.23537
G0 F6000 X66.159 Y117.07
G1 F1200 X130.615 Y181.527 E380.26721
G0 F6000 X131.181 Y181.527
G1 F1200 X66.159 Y116.505 E383.32565
G0 F6000 X66.159 Y115.939
G1 F1200 X131.746 Y181.527 E386.41068
G0 F6000 X132.312 Y181.527
G1 F1200 X66.159 Y115.373 E389.52234
G0 F6000 X66.159 Y114.807
G1 F1200 X132.878 Y181.527 E392.66062
G0 F6000 X133.443 Y181.527
G1 F1200 X66.159 Y114.242 E395.82548
G0 F6000 X66.159 Y113.676
G1 F1200 X134.009 Y181.527 E399.01696
G0 F6000 X134.575 Y181.527
G1 F1200 X66.159 Y113.11 E402.23506
G0 F6000 X66.159 Y112.545
G1 F1200 X135.14 Y181.527 E405.47974
G0 F6000 X135.706 Y181.527
G1 F1200 X66.159 Y111.979 E408.75104
G0 F6000 X66.159 Y111.413
G1 F1200 X136.272 Y181.527 E412.04896
G0 F6000 X136.837 Y181.527
G1 F1200 X66.159 Y110.848 E415.37346
G0 F6000 X66.159 Y110.282
G1 F1200 X137.403 Y181.527 E418.72458
G0 F6000 X137.969 Y181.527
G1 F1200 X66.159 Y109.716 E422.10233
G0 F6000 X66.159 Y109.151
G1 F1200 X138.534 Y181.527 E425.50665
G0 F6000 X139.1 Y181.527
G1 F1200 X66.159 Y108.585 E428.9376
G0 F6000 X66.159 Y108.019
G1 F1200 X139.666 Y181.527 E432.39516
G0 F6000 X140.232 Y181.527
G1 F1200 X66.159 Y107.454 E435.87933
G0 F6000 X66.159 Y106.888
G1 F1200 X140.797 Y181.527 E439.3901
G0 F6000 X141.363 Y181.527
G1 F1200 X66.159 Y106.322 E442.92749
G0 F6000 X66.159 Y105.757
G1 F1200 X141.929 Y181.527 E446.49147
G0 F6000 X142.494 Y181.527
G1 F1200 X66.159 Y105.191 E450.08206
G0 F6000 X66.159 Y104.625
G1 F1200 X143.06 Y181.527 E453.69927
G0 F6000 X143.626 Y181.527
G1 F1200 X66.159 Y104.059 E457.34311
G0 F6000 X66.159 Y103.494
G1 F1200 X144.191 Y181.527 E461.01352
G0 F6000 X144.757 Y181.527
G1 F1200 X66.159 Y102.928 E464.71055
G0 F6000 X66.159 Y102.362
G1 F1200 X145.323 Y181.527 E468.4342
G0 F6000 X145.888 Y181.527
G1 F1200 X66.159 Y101.797 E472.18444
G0 F6000 X66.159 Y101.231
G1 F1200 X146.454 Y181.527 E475.96129
G0 F6000 X147.02 Y181.527
G1 F1200 X66.159 Y100.665 E479.76477
G0 F6000 X66.159 Y100.1
G1 F1200 X147.585 Y181.527 E483.59482
G0 F6000 X148.151 Y181.527
G1 F1200 X66.159 Y99.534 E487.4515
G0 F6000 X66.159 Y98.968
G1 F1200 X148.717 Y181.527 E491.33479
G0 F6000 X149.282 Y181.527
G1 F1200 X66.159 Y98.403 E495.24467
G0 F6000 X66.159 Y97.837
G1 F1200 X149.848 Y181.527 E499.18117
G0 F6000 X150.414 Y181.527
G1 F1200 X66.159 Y97.271 E503.14429
