;FLAVOR:Marlin
;TIME:8283
;Filament used: 6.20741m
;Layer height: 0.2
;MINX:65.2
;MINY:52.7
;MINZ:0.2
;MAXX:164.8
;MAXY:177.3
;MAXZ:15.2
;Generated with Cura_SteamEngine 5.2.1
M140 S60
M105
M190 S60
M104 S200
M105
M109 S200
M82 ;absolute extrusion mode
; Ender 3 Custom Start G-code
G92 E0 ; Reset Extruder
G28 ; Home all axes
G29 ; BLTouch calibration
G1 Z2.0 F3000 ; Move Z Axis up little to prevent scratching of Heat Bed
G1 X0.1 Y20 Z0.3 F5000.0 ; Move to start position
G1 X0.1 Y200.0 Z0.3 F1500.0 E15 ; Draw the first line
G1 X0.4 Y200.0 Z0.3 F5000.0 ; Move to side a little
G1 X0.4 Y20 Z0.3 F1500.0 E30 ; Draw the second line
G92 E0 ; Reset Extruder
G1 Z2.0 F3000 ; Move Z Axis up little to prevent scratching of Heat Bed
G1 X5 Y20 Z0.3 F5000.0 ; Move over to prevent blob squish
G92 E0
G92 E0
G1 F2700 E-5
;LAYER_COUNT:76
;LAYER:0
M107
;MESH:Sword Hilt v14.stl
G0 F6000 X108.991 Y72.571 Z0.2
;TYPE:WALL-INNER
G1 F2700 E0
G1 F1200 X108.691 Y72.343 E0.01253
G1 X108.61 Y72.26 E0.01639
G1 X108.394 Y71.978 E0.0282
G1 X108.235 Y71.593 E0.04206
G1 X108.181 Y71.168 E0.05631
G1 X108.239 Y70.748 E0.07041
G1 X108.403 Y70.365 E0.08427
G1 X108.658 Y70.032 E0.09822
G1 X108.973 Y69.789 E0.11145
G1 X109.366 Y69.625 E0.12561
G1 X109.714 Y69.579 E0.13729
G1 F1032.3 X110.302 Y69.594 E0.16003
G1 F916 X110.643 Y69.747 E0.17632
G1 F1045.8 X110.972 Y70.101 E0.19476
G1 F1200 X111.177 Y70.369 E0.20598
G1 X111.339 Y70.762 E0.22012
G1 X111.391 Y71.175 E0.23397
G1 X111.339 Y71.59 E0.24788
G1 X111.181 Y71.974 E0.26169
G1 F1121.5 X110.878 Y72.381 E0.27974
G1 F935.7 X110.706 Y72.586 E0.29116
G1 F849.6 X110.413 Y72.725 E0.3064
G1 F991.7 X110.126 Y72.74 E0.31796
G1 F1182.3 X109.787 Y72.78 E0.32948
G1 F1191.1 X109.378 Y72.728 E0.3433
G1 F1197 X108.991 Y72.571 E0.35723
G0 F6000 X109.784 Y72.378
;TYPE:WALL-OUTER
G1 F1203 X109.448 Y72.327 E0.3685
G1 F1200 X109.169 Y72.207 E0.3786
G1 X108.922 Y72.009 E0.38913
G1 X108.748 Y71.782 E0.39864
G1 X108.63 Y71.501 E0.40878
G1 X108.586 Y71.194 E0.4191
G1 X108.627 Y70.857 E0.43039
G1 X108.74 Y70.583 E0.44025
G1 X108.921 Y70.341 E0.4503
G1 X109.174 Y70.14 E0.46104
G1 X109.456 Y70.02 E0.47124
G1 X109.76 Y69.976 E0.48145
G1 X110.094 Y70.011 E0.49262
G1 X110.396 Y70.138 E0.50352
G1 X110.638 Y70.324 E0.51367
G1 X110.828 Y70.571 E0.52404
G1 X110.942 Y70.847 E0.53397
G1 X110.986 Y71.157 E0.54438
G1 X110.941 Y71.505 E0.55605
G1 X110.818 Y71.791 E0.56641
G1 X110.639 Y72.025 E0.57621
G1 X110.369 Y72.226 E0.5874
G1 F1203 X110.074 Y72.339 E0.59788
G1 X109.784 Y72.378 E0.60759
G0 F6000 X109.714 Y72.872
G0 X110.807 Y72.195
G0 X111.036 Y71.895
G0 X111.18 Y71.548
G0 X111.228 Y70.165
G0 X110.433 Y69.333
G0 X111.644 Y69.424
G0 X111.481 Y69.345
;TYPE:WALL-INNER
G1 F1156.6 X111.126 Y69.311 E0.6199
G1 F1023.5 X110.881 Y69.287 E0.6295
G1 F916 X110.563 Y69.138 E0.6448
G1 F989.7 X110.38 Y68.941 E0.65564
G1 F1116.3 X110.077 Y68.547 E0.67341
G1 F1170.7 X109.917 Y68.162 E0.68763
G1 F1200 X109.862 Y67.73 E0.70211
G1 X109.916 Y67.327 E0.71563
G1 X110.081 Y66.927 E0.73003
G1 X110.32 Y66.615 E0.7431
G1 X110.671 Y66.344 E0.75785
G1 X111.074 Y66.184 E0.77227
G1 X111.48 Y66.135 E0.78587
G1 X111.892 Y66.191 E0.7997
G1 X112.275 Y66.349 E0.81348
G1 X112.598 Y66.605 E0.82719
G1 F1126.8 X112.913 Y67.001 E0.84511
G1 F960 X113.057 Y67.223 E0.85611
G1 F871.1 X113.094 Y67.331 E0.86134
G1 F1008.4 X113.063 Y67.82 E0.88074
G1 F1200 X113.014 Y68.153 E0.89193
G1 X112.864 Y68.535 E0.90558
G1 X112.607 Y68.872 E0.91968
G1 X112.281 Y69.126 E0.93342
G1 F1194 X111.887 Y69.29 E0.94769
G1 F1179.4 X111.481 Y69.345 E0.96155
G0 F6000 X110.862 Y68.781
;TYPE:WALL-OUTER
G1 F1200 X110.601 Y68.574 E0.97263
G1 X110.425 Y68.344 E0.98227
G1 X110.312 Y68.071 E0.99209
G1 X110.267 Y67.758 E1.00261
G1 X110.31 Y67.418 E1.01401
G1 X110.43 Y67.131 E1.02436
G1 X110.61 Y66.897 E1.03417
G1 X110.872 Y66.695 E1.04518
G1 X111.153 Y66.58 E1.05528
G1 X111.453 Y66.54 E1.06534
G1 X111.768 Y66.577 E1.07589
G1 X112.069 Y66.696 E1.08666
G1 X112.319 Y66.889 E1.09716
G1 X112.506 Y67.134 E1.10741
G1 X112.628 Y67.434 E1.11818
G1 X112.67 Y67.74 E1.12846
G1 X112.627 Y68.056 E1.13906
G1 X112.502 Y68.352 E1.14975
G1 X112.31 Y68.597 E1.1601
G1 X112.07 Y68.783 E1.1702
G1 X111.797 Y68.895 E1.18002
G1 X111.469 Y68.943 E1.19104
G1 X111.154 Y68.902 E1.20161
G1 X110.862 Y68.781 E1.21212
G0 F6000 X110.488 Y69.389
G0 X111.839 Y69.134
G0 X113.043 Y68.521
G0 X113.354 Y67.233
G0 X114.589 Y68.176
G0 X114.759 Y68.139
;TYPE:WALL-INNER
G1 F1200 X114.373 Y67.977 E1.22604
G1 X114.059 Y67.728 E1.23937
G1 X113.846 Y67.461 E1.25073
G1 F1008.4 X113.62 Y67.166 E1.26544
G1 F871.1 X113.575 Y67.043 E1.27144
G1 F1012.7 X113.593 Y66.67 E1.28616
G1 F1200 X113.593 Y66.514 E1.29135
G1 X113.641 Y66.179 E1.3026
G1 X113.79 Y65.803 E1.31606
G1 X114.04 Y65.475 E1.32977
G1 X114.338 Y65.236 E1.34248
G1 X114.458 Y65.17 E1.34703
G1 X114.771 Y65.041 E1.35829
G1 X115.193 Y64.985 E1.37245
G1 X115.607 Y65.046 E1.38637
G1 X115.987 Y65.202 E1.40003
G1 X116.325 Y65.455 E1.41408
G1 X116.584 Y65.792 E1.42821
G1 X116.742 Y66.181 E1.44218
G1 X116.785 Y66.514 E1.45335
G1 F1108.5 X116.795 Y67.034 E1.47207
G1 F1069 X116.627 Y67.33 E1.48478
G1 F1153.8 X116.318 Y67.736 E1.50243
G1 F1200 X115.982 Y67.985 E1.51634
G1 X115.593 Y68.146 E1.53034
G1 X115.172 Y68.196 E1.54444
G1 X114.759 Y68.139 E1.55831
G0 F6000 X115.51 Y67.75
;TYPE:WALL-OUTER
G1 F1200 X115.19 Y67.795 E1.56905
G1 X114.882 Y67.754 E1.57939
G1 X114.595 Y67.637 E1.5897
G1 X114.338 Y67.444 E1.60039
G1 X114.149 Y67.199 E1.61068
G1 X114.03 Y66.91 E1.62107
G1 X113.986 Y66.592 E1.63175
G1 X114.029 Y66.279 E1.64226
G1 X114.15 Y65.987 E1.65277
G1 X114.334 Y65.747 E1.66283
G1 X114.57 Y65.562 E1.6728
G1 X114.875 Y65.432 E1.68383
G1 X115.189 Y65.389 E1.69437
G1 X115.503 Y65.432 E1.70491
G1 X115.79 Y65.55 E1.71523
G1 X116.026 Y65.73 E1.72511
G1 X116.221 Y65.976 E1.73555
G1 X116.345 Y66.265 E1.74601
G1 X116.389 Y66.578 E1.75652
G1 X116.352 Y66.893 E1.76707
G1 F1203 X116.235 Y67.183 E1.77744
G1 X116.048 Y67.432 E1.78777
G1 F1200 X115.788 Y67.635 E1.79875
G1 X115.51 Y67.75 E1.80875
G0 F6000 X115.778 Y68.181
G0 X117 Y67.16
G0 X117.399 Y68.565
G0 X119.458 Y69.379
G0 X119.297 Y69.201
;TYPE:WALL-INNER
G1 F1083.5 X118.82 Y69.239 E1.82638
G1 F1159.4 X118.503 Y69.198 E1.83738
G1 F1200 X118.352 Y69.158 E1.84258
G1 X118.023 Y69.018 E1.85447
G1 X117.695 Y68.759 E1.86837
G1 X117.456 Y68.45 E1.88136
G1 X117.289 Y68.047 E1.89587
G1 X117.243 Y67.677 E1.90827
G1 F1106 X117.237 Y67.19 E1.92585
G1 F1064.3 X117.404 Y66.898 E1.93846
G1 F1151.1 X117.711 Y66.495 E1.95603
G1 F1200 X118.034 Y66.248 E1.96955
G1 X118.417 Y66.088 E1.98336
G1 X118.834 Y66.031 E1.99736
G1 X119.237 Y66.081 E2.01086
G1 X119.658 Y66.251 E2.02597
G1 X119.978 Y66.503 E2.03951
G1 X120.227 Y66.821 E2.05295
G1 X120.394 Y67.224 E2.06745
G1 X120.448 Y67.643 E2.08151
G1 X120.387 Y68.072 E2.09592
G1 X120.224 Y68.454 E2.10973
G1 X119.98 Y68.772 E2.12306
G1 F1162.2 X119.565 Y69.091 E2.14104
G1 F1086 X119.297 Y69.201 E2.15169
G0 F6000 X118.843 Y68.839
;TYPE:WALL-OUTER
G1 F1200 X118.555 Y68.801 E2.16135
G1 X118.504 Y68.788 E2.1631
G1 X118.245 Y68.68 E2.17243
G1 X117.995 Y68.489 E2.1829
G1 X117.804 Y68.244 E2.19323
G1 X117.686 Y67.963 E2.20336
G1 X117.642 Y67.65 E2.21388
G1 X117.68 Y67.332 E2.22453
G1 F1203 X117.796 Y67.045 E2.2348
G1 X117.983 Y66.796 E2.24513
G1 F1200 X118.246 Y66.591 E2.25622
G1 X118.538 Y66.474 E2.26668
G1 X118.823 Y66.436 E2.27625
G1 X119.156 Y66.476 E2.2874
G1 X119.437 Y66.591 E2.2975
G1 X119.693 Y66.784 E2.30816
G1 X119.879 Y67.027 E2.31834
G1 X119.998 Y67.311 E2.32858
G1 X120.042 Y67.617 E2.33887
G1 X120.003 Y67.945 E2.34985
G1 X119.885 Y68.235 E2.36027
G1 X119.694 Y68.487 E2.37078
G1 X119.447 Y68.677 E2.38115
G1 X119.166 Y68.793 E2.39126
G1 X118.843 Y68.839 E2.40211
G0 F6000 X119.039 Y69.329
G0 X119.403 Y69.403
G0 X118.875 Y70.673
G0 X118.826 Y71.045
G0 X118.508 Y71.391
G0 X119.443 Y72.702
G0 X120.256 Y72.65
;TYPE:WALL-INNER
G1 F1098.4 X119.691 Y72.572 E2.42284
G1 F1032.3 X119.377 Y72.417 E2.43637
G1 F1069 X119.186 Y72.238 E2.44615
G1 F1165 X118.872 Y71.84 E2.46351
G1 F1200 X118.716 Y71.452 E2.47742
G1 X118.664 Y71.055 E2.49074
G1 X118.716 Y70.636 E2.50478
G1 X118.887 Y70.226 E2.51956
G1 F1159.4 X119.126 Y69.918 E2.53298
G1 F1083.5 X119.473 Y69.62 E2.54983
G1 F1052.6 X119.756 Y69.503 E2.56144
G1 F1124.1 X119.929 Y69.483 E2.56762
G1 F1200 X120.269 Y69.439 E2.57902
G1 X120.664 Y69.49 E2.59227
G1 X121.058 Y69.646 E2.60637
G1 X121.411 Y69.916 E2.62115
G1 X121.651 Y70.233 E2.63437
G1 X121.818 Y70.617 E2.6483
G1 X121.868 Y70.996 E2.66101
G1 X121.867 Y71.1 E2.66447
G1 X121.82 Y71.464 E2.67668
G1 X121.657 Y71.856 E2.6908
G1 X121.401 Y72.184 E2.70464
G1 X121.071 Y72.438 E2.71849
G1 X120.67 Y72.6 E2.73287
G1 F1173.6 X120.256 Y72.65 E2.74706
G0 F6000 X120.587 Y72.204
;TYPE:WALL-OUTER
G1 F1200 X120.27 Y72.247 E2.7577
G1 X119.968 Y72.208 E2.76782
G1 X119.68 Y72.093 E2.77814
G1 F1203 X119.43 Y71.904 E2.78854
G1 X119.233 Y71.656 E2.79904
G1 F1200 X119.111 Y71.367 E2.80948
G1 X119.066 Y71.046 E2.82026
G1 X119.108 Y70.729 E2.83089
G1 X119.226 Y70.446 E2.84109
G1 X119.418 Y70.193 E2.85166
G1 X119.673 Y70 E2.86229
G1 X119.952 Y69.884 E2.87234
G1 X120.269 Y69.843 E2.88297
G1 X120.582 Y69.883 E2.89347
G1 X120.875 Y70.004 E2.90401
G1 X121.114 Y70.19 E2.91409
G1 X121.308 Y70.439 E2.92458
G1 X121.428 Y70.728 E2.93499
G1 X121.469 Y71.064 E2.94625
G1 X121.431 Y71.35 E2.95585
G1 X121.306 Y71.654 E2.96678
G1 X121.126 Y71.888 E2.9766
G1 X120.884 Y72.078 E2.98683
G1 X120.587 Y72.204 E2.99756
G0 F6000 X120.788 Y72.661
G0 X119.496 Y72.732
G0 X119.95 Y74.025
G0 X120.007 Y74.351
G0 X119.958 Y74.723
G0 X119.813 Y75.073
G0 X118.718 Y76.038
G0 X118.575 Y75.956
;TYPE:WALL-INNER
G1 F1200 X118.139 Y75.9 E3.01218
G1 F1182.3 X117.753 Y75.74 E3.02629
G1 F1145.6 X117.37 Y75.434 E3.04337
G1 F1086 X117.176 Y75.228 E3.05377
G1 F1071.4 X116.997 Y74.835 E3.06985
G1 F1118.9 X116.961 Y74.328 E3.08799
G1 F1173.6 X117.014 Y73.921 E3.10194
G1 F1200 X117.182 Y73.532 E3.11604
G1 X117.438 Y73.204 E3.12988
G1 X117.773 Y72.952 E3.14382
G1 X118.169 Y72.796 E3.15797
G1 X118.537 Y72.751 E3.17031
G1 F1148.3 X119.071 Y72.792 E3.18892
G1 F1064.3 X119.406 Y72.948 E3.20278
G1 F1071.4 X119.718 Y73.235 E3.21857
G1 F1153.8 X119.961 Y73.557 E3.23252
G1 F1200 X120.118 Y73.95 E3.2466
G1 X120.17 Y74.349 E3.25998
G1 X120.113 Y74.774 E3.27424
G1 X119.955 Y75.157 E3.28802
G1 X119.702 Y75.483 E3.30175
G1 X119.374 Y75.739 E3.31559
G1 X119.043 Y75.877 E3.32752
G1 X118.964 Y75.902 E3.33027
G1 X118.575 Y75.956 E3.34333
G0 F6000 X118.233 Y75.506
;TYPE:WALL-OUTER
G1 F1200 X117.977 Y75.4 E3.35255
G1 X117.732 Y75.217 E3.36272
G1 X117.527 Y74.961 E3.37363
G1 X117.404 Y74.667 E3.38423
G1 X117.361 Y74.35 E3.39487
G1 X117.408 Y74.021 E3.40592
G1 X117.52 Y73.754 E3.41555
G1 X117.708 Y73.506 E3.4259
G1 X117.956 Y73.313 E3.43636
G1 X118.229 Y73.198 E3.44621
G1 F1203 X118.563 Y73.148 E3.45741
G1 X118.864 Y73.189 E3.46749
G1 X119.174 Y73.314 E3.47858
G1 F1200 X119.404 Y73.491 E3.48823
G1 X119.6 Y73.74 E3.49877
G1 X119.723 Y74.033 E3.50934
G1 X119.765 Y74.353 E3.52008
G1 X119.727 Y74.652 E3.5301
G1 X119.601 Y74.96 E3.54117
G1 X119.423 Y75.191 E3.55087
G1 X119.158 Y75.397 E3.56203
G1 X118.899 Y75.504 E3.57135
G1 X118.582 Y75.551 E3.58201
G1 X118.233 Y75.506 E3.59372
G1 F2700 E-1.40628
G0 F6000 X118.044 Y75.968
G0 X115.793 Y74.28
G0 X115.513 Y72.9
G0 X115.47 Y72.725
;TYPE:WALL-INNER
G1 F2700 E3.59372
G1 F1200 X115.088 Y72.779 E3.60655
G1 X114.668 Y72.73 E3.62061
G1 X114.277 Y72.575 E3.6346
G1 X113.923 Y72.306 E3.64939
G1 X113.674 Y71.971 E3.66327
G1 X113.513 Y71.593 E3.67694
G1 X113.459 Y71.175 E3.69096
G1 X113.513 Y70.761 E3.70484
G1 X113.671 Y70.375 E3.71871
G1 X113.925 Y70.043 E3.73262
G1 X114.255 Y69.786 E3.74653
G1 X114.654 Y69.623 E3.76086
G1 X115.074 Y69.57 E3.77494
G1 X115.496 Y69.629 E3.78912
G1 X115.872 Y69.786 E3.80267
G1 X116.189 Y70.033 E3.81604
G1 X116.407 Y70.306 E3.82765
G1 X116.463 Y70.385 E3.83088
G1 X116.614 Y70.752 E3.84407
G1 X116.67 Y71.165 E3.85794
G1 X116.611 Y71.61 E3.87287
G1 X116.447 Y71.996 E3.88682
G1 X116.18 Y72.327 E3.90096
G1 X115.851 Y72.576 E3.91468
G1 X115.47 Y72.725 E3.92829
G0 F6000 X115.065 Y72.377
;TYPE:WALL-OUTER
G1 F1200 X114.749 Y72.336 E3.93889
G1 X114.461 Y72.215 E3.94928
G1 X114.226 Y72.035 E3.95912
G1 X114.023 Y71.775 E3.9701
G1 X113.91 Y71.505 E3.97983
G1 X113.865 Y71.193 E3.99032
G1 X113.909 Y70.847 E4.00192
G1 X114.03 Y70.563 E4.01218
G1 X114.222 Y70.318 E4.02254
G1 X114.474 Y70.128 E4.03303
G1 X114.745 Y70.017 E4.04277
G1 X115.058 Y69.974 E4.05328
G1 X115.377 Y70.013 E4.06397
G1 X115.66 Y70.13 E4.07416
G1 X115.912 Y70.322 E4.08469
G1 X116.091 Y70.55 E4.09433
G1 X116.227 Y70.871 E4.10593
G1 X116.267 Y71.175 E4.11613
G1 X116.226 Y71.485 E4.12653
G1 X116.109 Y71.772 E4.13684
G1 X115.92 Y72.02 E4.14721
G1 X115.673 Y72.212 E4.15761
G1 X115.375 Y72.336 E4.16835
G1 X115.065 Y72.377 E4.17875
G1 F2700 E-0.82125
G0 F6000 X115.246 Y72.858
G0 X115.12 Y74.192
G0 X114.806 Y77.538
;TYPE:WALL-INNER
G1 F2700 E4.17875
G1 F1200 X114.416 Y77.37 E4.19287
G1 X114.083 Y77.119 E4.20674
G1 X113.824 Y76.773 E4.22112
G1 X113.67 Y76.391 E4.23482
G1 X113.628 Y76.064 E4.24578
G1 F987.7 X113.584 Y75.592 E4.26494
G1 F837.7 X113.722 Y75.222 E4.28375
G1 F960 X113.907 Y75.059 E4.294
G1 F1159.4 X114.149 Y74.802 E4.30616
G1 F1200 X114.427 Y74.591 E4.31776
G1 X114.819 Y74.436 E4.33178
G1 X115.201 Y74.382 E4.34462
G1 X115.622 Y74.431 E4.35871
G1 F1182.3 X116.03 Y74.594 E4.37354
G1 F1145.6 X116.418 Y74.903 E4.39083
G1 F1061.9 X116.597 Y75.093 E4.40064
G1 F1004.2 X116.781 Y75.48 E4.41767
G1 F1048 X116.828 Y76.005 E4.43774
G1 F1145.6 X116.775 Y76.403 E4.45173
G1 F1200 X116.61 Y76.799 E4.466
G1 X116.365 Y77.115 E4.4793
G1 X116.026 Y77.378 E4.49357
G1 X115.65 Y77.534 E4.50711
G1 X115.228 Y77.591 E4.52127
G1 X114.806 Y77.538 E4.53542
G0 F6000 X114.62 Y77.026
;TYPE:WALL-OUTER
G1 F1200 X114.384 Y76.846 E4.54529
G1 X114.191 Y76.601 E4.55566
G1 X114.066 Y76.306 E4.56632
G1 X114.024 Y75.998 E4.57666
G1 X114.062 Y75.68 E4.58731
G1 X114.172 Y75.407 E4.5971
G1 X114.371 Y75.136 E4.60828
G1 X114.616 Y74.948 E4.61855
G1 X114.914 Y74.825 E4.62928
G1 X115.224 Y74.783 E4.63968
G1 X115.542 Y74.827 E4.65036
G1 X115.811 Y74.937 E4.66002
G1 X116.056 Y75.12 E4.6702
G1 X116.264 Y75.379 E4.68124
G1 X116.384 Y75.669 E4.69168
G1 X116.426 Y75.986 E4.70232
G1 X116.388 Y76.283 E4.71228
G1 X116.27 Y76.579 E4.72288
G1 X116.078 Y76.832 E4.73344
G1 X115.816 Y77.033 E4.74442
G1 X115.555 Y77.141 E4.75382
G1 X115.243 Y77.186 E4.7643
G1 X114.909 Y77.146 E4.77549
G1 X114.62 Y77.026 E4.7859
G0 F6000 X114.427 Y77.489
G0 X113.418 Y75.155
G0 X111.378 Y76.351
G0 X111.52 Y76.27
;TYPE:WALL-INNER
G1 F1200 X111.102 Y76.205 E4.79997
G1 X110.736 Y76.057 E4.8131
G1 X110.398 Y75.797 E4.82728
G1 X110.148 Y75.475 E4.84084
G1 X110.013 Y75.151 E4.85251
G1 X109.978 Y75.03 E4.8567
G1 X109.931 Y74.655 E4.86927
G1 X109.984 Y74.253 E4.88276
G1 X110.141 Y73.864 E4.89671
G1 X110.34 Y73.603 E4.90763
G1 F1000 X110.67 Y73.221 E4.92778
G1 F849.6 X110.987 Y73.074 E4.94419
G1 F946.7 X111.193 Y73.08 E4.95288
G1 F1137.4 X111.585 Y73.065 E4.96665
G1 F1200 X111.958 Y73.113 E4.97915
G1 X112.342 Y73.279 E4.99307
G1 X112.671 Y73.527 E5.00677
G1 X112.917 Y73.844 E5.02012
G1 X113.089 Y74.257 E5.035
G1 X113.132 Y74.586 E5.04603
G1 F987.7 X113.176 Y75.058 E5.06519
G1 F837.7 X113.038 Y75.428 E5.084
G1 F960 X112.852 Y75.591 E5.09429
G1 F1159.4 X112.611 Y75.848 E5.10642
G1 F1200 X112.33 Y76.061 E5.11814
G1 X111.931 Y76.219 E5.13242
G1 X111.52 Y76.27 E5.14619
G0 F6000 X111.212 Y75.821
;TYPE:WALL-OUTER
G1 F1200 X110.934 Y75.705 E5.15621
G1 X110.697 Y75.524 E5.16613
G1 X110.506 Y75.284 E5.17633
G1 X110.384 Y75.001 E5.18658
G1 X110.372 Y74.961 E5.18797
G1 X110.336 Y74.683 E5.19729
G1 X110.379 Y74.34 E5.20879
G1 X110.494 Y74.059 E5.21889
G1 X110.669 Y73.833 E5.2284
G1 X110.927 Y73.627 E5.23938
G1 F1203 X111.22 Y73.504 E5.24992
G1 X111.537 Y73.461 E5.26053
G1 X111.869 Y73.51 E5.27167
G1 F1200 X112.14 Y73.624 E5.28145
G1 X112.389 Y73.815 E5.29188
G1 X112.578 Y74.064 E5.30228
G1 X112.694 Y74.344 E5.31236
G1 X112.736 Y74.652 E5.3227
G1 X112.699 Y74.965 E5.33318
G1 X112.588 Y75.243 E5.34314
