;FLAVOR:Marlin
;TIME:8359
;Filament used: 6.25935m
;Layer height: 0.2
;MINX:49
;MINY:36.5
;MINZ:0.2
;MAXX:171
;MAXY:183.5
;MAXZ:15.2
;Generated with Cura_SteamEngine 5.2.1
M140 S50
M105
M190 S50
M104 S200
M105
M109 S200
M82 ;absolute extrusion mode
; Ender 3 Custom Start G-code
G92 E0 ; Reset Extruder
G28 ; Home all axes
G29 ; BLTouch calibration
G1 Z2.0 F3000 ; Move Z Axis up little to prevent scratching of Heat Bed
G1 X0.1 Y20 Z0.3 F5000.0 ; Move to start position
G1 X0.1 Y200.0 Z0.3 F1500.0 E15 ; Draw the first line
G1 X0.4 Y200.0 Z0.3 F5000.0 ; Move to side a little
G1 X0.4 Y20 Z0.3 F1500.0 E30 ; Draw the second line
G92 E0 ; Reset Extruder
G1 Z2.0 F3000 ; Move Z Axis up little to prevent scratching of Heat Bed
G1 X5 Y20 Z0.3 F5000.0 ; Move over to prevent blob squish
G92 E0
G92 E0
G1 F2700 E-5
;LAYER_COUNT:76
;LAYER:0
M107
G0 F6000 X51.566 Y40.458 Z0.2
;TYPE:SKIRT
G1 F2700 E0
G1 F1200 X52.198 Y39.764 E0.03122
G1 X52.886 Y39.127 E0.0624
G1 X53.626 Y38.551 E0.09359
G1 X54.412 Y38.039 E0.12479
G1 X55.239 Y37.597 E0.15598
G1 X56.101 Y37.227 E0.18718
G1 X56.991 Y36.931 E0.21838
G1 X57.903 Y36.713 E0.24957
G1 X58.83 Y36.572 E0.28075
G1 X59.701 Y36.513 E0.30979
G1 X60.33 Y36.5 E0.33071
G1 X159.451 Y36.501 E3.62749
G1 X160.149 Y36.511 E3.65071
G1 X161.085 Y36.565 E3.68189
G1 X162.013 Y36.697 E3.71307
G1 X162.927 Y36.909 E3.74428
G1 X163.819 Y37.198 E3.77546
G1 X164.684 Y37.561 E3.80666
G1 X165.514 Y37.997 E3.83785
G1 X166.305 Y38.502 E3.86906
G1 X167.049 Y39.073 E3.90025
G1 X167.742 Y39.705 E3.93145
G1 X168.379 Y40.393 E3.96263
G1 X168.954 Y41.134 E3.99383
G1 X169.465 Y41.92 E4.02501
G1 X169.907 Y42.748 E4.05623
G1 X170.276 Y43.61 E4.08741
G1 X170.571 Y44.5 E4.1186
G1 X170.789 Y45.412 E4.14979
G1 X170.929 Y46.34 E4.181
G1 X170.987 Y47.201 E4.2097
G1 X171 Y47.83 E4.23063
G1 X170.999 Y171.9 E8.35721
G1 X170.99 Y172.627 E8.38139
G1 X170.939 Y173.564 E8.41261
G1 X170.807 Y174.492 E8.44378
G1 X170.598 Y175.406 E8.47497
G1 X170.311 Y176.299 E8.50616
G1 X169.949 Y177.165 E8.53738
G1 X169.515 Y177.996 E8.56856
G1 X169.011 Y178.787 E8.59976
G1 X168.442 Y179.532 E8.63094
G1 X167.811 Y180.227 E8.66216
G1 X167.124 Y180.865 E8.69334
G1 X166.385 Y181.442 E8.72453
G1 X165.599 Y181.954 E8.75573
G1 X164.773 Y182.397 E8.7869
G1 X163.911 Y182.769 E8.81813
G1 X163.022 Y183.065 E8.84929
G1 X162.11 Y183.285 E8.8805
G1 X161.183 Y183.426 E8.91168
G1 X160.299 Y183.487 E8.94115
G1 X159.67 Y183.5 E8.96208
G1 X60.565 Y183.499 E12.25832
G1 X59.867 Y183.49 E12.28154
G1 X58.931 Y183.438 E12.31272
G1 X58.002 Y183.306 E12.34393
G1 X57.088 Y183.096 E12.37512
G1 X56.195 Y182.809 E12.40632
G1 X55.33 Y182.446 E12.43752
G1 X54.499 Y182.012 E12.4687
G1 X53.708 Y181.508 E12.4999
G1 X52.963 Y180.938 E12.5311
G1 X52.269 Y180.307 E12.56229
G1 X51.632 Y179.62 E12.59346
G1 X51.055 Y178.88 E12.62467
G1 X50.543 Y178.094 E12.65586
G1 X50.1 Y177.267 E12.68707
G1 X49.729 Y176.406 E12.71825
G1 X49.433 Y175.516 E12.74945
G1 X49.214 Y174.604 E12.78064
G1 X49.073 Y173.677 E12.81183
G1 X49.013 Y172.788 E12.84146
G1 X49 Y172.158 E12.86242
G1 X49.001 Y48.025 E16.9911
G1 X49.01 Y47.36 E17.01322
G1 X49.063 Y46.424 E17.0444
G1 X49.195 Y45.495 E17.07561
G1 X49.406 Y44.581 E17.10681
G1 X49.694 Y43.689 E17.13799
G1 X50.057 Y42.824 E17.16919
G1 X50.492 Y41.993 E17.20039
G1 X50.996 Y41.203 E17.23155
G1 X51.566 Y40.458 E17.26275
G0 F6000 X51.961 Y40.611
G1 F1200 X52.589 Y39.939 E17.29335
G1 X53.274 Y39.323 E17.32399
G1 X54.01 Y38.77 E17.35461
G1 X54.791 Y38.282 E17.38524
G1 X55.611 Y37.864 E17.41585
G1 X56.465 Y37.519 E17.44648
G1 X57.345 Y37.249 E17.4771
G1 X58.245 Y37.057 E17.50771
G1 X59.159 Y36.943 E17.53834
G1 X59.712 Y36.913 E17.55676
G1 X60.33 Y36.9 E17.57732
G1 X159.445 Y36.901 E20.8739
G1 X160.143 Y36.911 E20.89712
G1 X161.062 Y36.964 E20.92773
G1 X161.973 Y37.097 E20.95835
G1 X162.869 Y37.308 E20.98897
G1 X163.743 Y37.596 E21.01958
G1 X164.59 Y37.959 E21.05023
G1 X165.401 Y38.394 E21.08084
G1 X166.171 Y38.898 E21.11144
G1 X166.895 Y39.467 E21.14207
G1 X167.567 Y40.097 E21.17271
G1 X168.182 Y40.782 E21.20333
G1 X168.735 Y41.518 E21.23395
G1 X169.222 Y42.299 E21.26456
G1 X169.639 Y43.12 E21.29519
G1 X169.984 Y43.974 E21.32582
G1 X170.253 Y44.854 E21.35643
G1 X170.445 Y45.755 E21.38707
G1 X170.558 Y46.668 E21.41766
G1 X170.587 Y47.212 E21.43578
G1 X170.6 Y47.83 E21.45634
G1 X170.599 Y171.895 E25.58276
G1 X170.59 Y172.622 E25.60694
G1 X170.539 Y173.541 E25.63756
G1 X170.408 Y174.453 E25.6682
G1 X170.198 Y175.349 E25.69881
G1 X169.912 Y176.224 E25.72943
G1 X169.551 Y177.071 E25.76005
G1 X169.117 Y177.883 E25.79067
G1 X168.615 Y178.655 E25.8213
G1 X168.047 Y179.38 E25.85193
G1 X167.419 Y180.053 E25.88255
G1 X166.735 Y180.669 E25.91317
G1 X166 Y181.223 E25.94378
G1 X165.22 Y181.712 E25.9744
G1 X164.4 Y182.131 E26.00503
G1 X163.547 Y182.477 E26.03564
G1 X162.667 Y182.748 E26.06627
G1 X161.767 Y182.941 E26.09688
G1 X160.853 Y183.056 E26.12752
G1 X160.288 Y183.087 E26.14634
G1 X159.67 Y183.1 E26.1669
G1 X60.57 Y183.099 E29.46298
G1 X59.872 Y183.09 E29.4862
G1 X58.953 Y183.038 E29.51681
G1 X58.042 Y182.907 E29.54742
G1 X57.146 Y182.697 E29.57803
G1 X56.271 Y182.41 E29.60866
G1 X55.424 Y182.048 E29.6393
G1 X54.612 Y181.614 E29.66992
G1 X53.841 Y181.112 E29.70052
G1 X53.116 Y180.544 E29.73115
G1 X52.443 Y179.915 E29.76179
G1 X51.828 Y179.231 E29.79239
G1 X51.274 Y178.496 E29.823
G1 X50.786 Y177.715 E29.85363
G1 X50.367 Y176.895 E29.88426
G1 X50.021 Y176.042 E29.91487
G1 X49.751 Y175.162 E29.94549
G1 X49.558 Y174.261 E29.97613
G1 X49.444 Y173.348 E30.00674
G1 X49.413 Y172.777 E30.02576
G1 X49.4 Y172.158 E30.04635
G1 X49.401 Y48.031 E34.17483
G1 X49.41 Y47.366 E34.19695
G1 X49.462 Y46.446 E34.2276
G1 X49.594 Y45.535 E34.25821
G1 X49.805 Y44.639 E34.28883
G1 X50.092 Y43.764 E34.31946
G1 X50.455 Y42.918 E34.35008
G1 X50.889 Y42.106 E34.3807
G1 X51.392 Y41.335 E34.41132
G1 X51.961 Y40.611 E34.44195
G0 F6000 X52.355 Y40.767
G1 F1200 X52.981 Y40.117 E34.47196
G1 X53.662 Y39.524 E34.50199
G1 X54.394 Y38.994 E34.53205
G1 X55.169 Y38.531 E34.56208
G1 X55.982 Y38.138 E34.59211
G1 X56.827 Y37.818 E34.62217
G1 X57.696 Y37.575 E34.65218
G1 X58.584 Y37.409 E34.68222
G1 X59.723 Y37.313 E34.72024
G1 X60.33 Y37.3 E34.74044
G1 X159.439 Y37.301 E38.03681
G1 X160.137 Y37.311 E38.06003
G1 X161.039 Y37.364 E38.09008
G1 X161.932 Y37.496 E38.12011
G1 X162.81 Y37.707 E38.15014
G1 X163.666 Y37.995 E38.18018
G1 X164.493 Y38.357 E38.21021
G1 X165.285 Y38.792 E38.24026
G1 X166.036 Y39.294 E38.27031
G1 X166.739 Y39.861 E38.30034
G1 X167.389 Y40.488 E38.33038
G1 X167.981 Y41.17 E38.36042
G1 X168.511 Y41.901 E38.39045
G1 X168.973 Y42.677 E38.42049
G1 X169.366 Y43.49 E38.45052
G1 X169.684 Y44.335 E38.48055
G1 X169.927 Y45.205 E38.5106
G1 X170.092 Y46.093 E38.54064
G1 X170.187 Y47.223 E38.57835
G1 X170.2 Y47.83 E38.59855
G1 X170.199 Y171.89 E42.7248
G1 X170.19 Y172.617 E42.74898
G1 X170.139 Y173.519 E42.77903
G1 X170.008 Y174.413 E42.80908
G1 X169.799 Y175.291 E42.8391
G1 X169.513 Y176.148 E42.86915
G1 X169.152 Y176.976 E42.89919
G1 X168.72 Y177.768 E42.9292
G1 X168.219 Y178.52 E42.95925
G1 X167.653 Y179.224 E42.9893
G1 X167.028 Y179.875 E43.01931
G1 X166.347 Y180.469 E43.04937
G1 X165.616 Y181 E43.07942
G1 X164.842 Y181.464 E43.10943
G1 X164.029 Y181.858 E43.13948
G1 X163.185 Y182.178 E43.1695
G1 X162.315 Y182.423 E43.19957
G1 X161.428 Y182.589 E43.22958
G1 X160.277 Y182.687 E43.268
G1 X159.67 Y182.7 E43.28819
G1 X60.575 Y182.699 E46.58411
G1 X59.877 Y182.69 E46.60732
G1 X58.976 Y182.639 E46.63734
G1 X58.082 Y182.507 E46.6674
G1 X57.204 Y182.298 E46.69742
G1 X56.347 Y182.011 E46.72747
G1 X55.52 Y181.65 E46.75749
G1 X54.727 Y181.217 E46.78754
G1 X53.976 Y180.716 E46.81756
G1 X53.272 Y180.15 E46.84761
G1 X52.621 Y179.524 E46.87765
G1 X52.028 Y178.843 E46.90768
G1 X51.498 Y178.112 E46.93771
G1 X51.034 Y177.337 E46.96776
G1 X50.64 Y176.524 E46.99781
G1 X50.32 Y175.68 E47.02783
G1 X50.076 Y174.81 E47.05788
G1 X49.91 Y173.922 E47.08793
G1 X49.813 Y172.767 E47.12648
G1 X49.8 Y172.158 E47.14674
G1 X49.801 Y48.036 E51.27505
G1 X49.81 Y47.371 E51.29717
G1 X49.862 Y46.469 E51.32722
G1 X49.994 Y45.576 E51.35725
G1 X50.204 Y44.698 E51.38727
G1 X50.491 Y43.841 E51.41733
G1 X50.853 Y43.014 E51.44736
G1 X51.286 Y42.222 E51.47738
G1 X51.788 Y41.471 E51.50742
G1 X52.355 Y40.767 E51.53749
G1 F2700 E46.53749
;MESH:Sword Hilt v14.stl
G0 F6000 X104.848 Y149.846
G0 X105.022 Y150.904
G0 X105.611 Y152.306
G1 F2700 E51.53749
G0 F6000 X106.423 Y152.254
;TYPE:WALL-INNER
G1 F1095.9 X105.862 Y152.178 E51.55811
G1 F1030 X105.545 Y152.022 E51.5718
G1 F1081.1 X105.328 Y151.816 E51.58284
G1 F1179.4 X105.038 Y151.442 E51.59886
G1 F1200 X104.881 Y151.049 E51.61294
G1 X104.831 Y150.643 E51.62654
G1 X104.887 Y150.226 E51.64054
G1 X105.045 Y149.843 E51.65432
G1 X105.298 Y149.517 E51.66804
G1 X105.626 Y149.261 E51.68188
G1 X106.008 Y149.102 E51.69564
G1 X106.425 Y149.044 E51.70964
G1 X106.861 Y149.1 E51.72426
G1 X107.192 Y149.237 E51.73618
G1 X107.302 Y149.304 E51.74046
G1 F1182.3 X107.594 Y149.528 E51.75289
G1 F1078.7 X107.832 Y149.781 E51.76574
G1 F1004.2 X107.994 Y150.144 E51.78154
G1 F1048 X108.04 Y150.669 E51.80161
G1 F1118.9 X107.987 Y151.067 E51.81593
G1 F1173.6 X107.818 Y151.47 E51.83079
G1 F1200 X107.55 Y151.803 E51.84501
G1 X107.224 Y152.049 E51.85859
G1 X106.837 Y152.204 E51.87246
G1 F1173.6 X106.423 Y152.254 E51.88664
G0 F6000 X106.437 Y151.851
;TYPE:WALL-OUTER
G1 F1200 X106.148 Y151.814 E51.89633
G1 X105.847 Y151.697 E51.90707
G1 X105.596 Y151.509 E51.9175
G1 X105.4 Y151.26 E51.92804
G1 X105.277 Y150.967 E51.93861
G1 X105.236 Y150.66 E51.94891
G1 X105.273 Y150.348 E51.95936
G1 X105.399 Y150.04 E51.97043
G1 X105.577 Y149.809 E51.98013
G1 X105.842 Y149.603 E51.9913
G1 X106.105 Y149.494 E52.00076
G1 X106.418 Y149.449 E52.01128
G1 X106.767 Y149.494 E52.02299
G1 X107.023 Y149.6 E52.0322
G1 X107.06 Y149.622 E52.03363
G1 X107.268 Y149.783 E52.04238
G1 X107.479 Y150.045 E52.05357
G1 X107.588 Y150.311 E52.06313
G1 X107.639 Y150.647 E52.07443
G1 X107.6 Y150.946 E52.08446
G1 X107.48 Y151.246 E52.09521
G1 X107.28 Y151.507 E52.10615
G1 X107.044 Y151.686 E52.116
G1 X106.754 Y151.808 E52.12646
G1 X106.437 Y151.851 E52.1371
G0 F6000 X106.612 Y152.333
G0 X108.152 Y151.043
G0 X108.042 Y149.694
G0 X109.957 Y150.697
G0 X109.799 Y150.618
;TYPE:WALL-INNER
G1 F1200 X109.378 Y150.569 E52.1512
G1 F1182.3 X108.967 Y150.405 E52.16614
G1 F1145.6 X108.582 Y150.097 E52.18332
G1 F1086 X108.387 Y149.891 E52.19374
G1 F1071.4 X108.209 Y149.498 E52.20981
G1 F1118.9 X108.173 Y148.99 E52.22798
G1 F1173.6 X108.225 Y148.597 E52.24146
G1 F1200 X108.387 Y148.208 E52.25548
G1 X108.634 Y147.885 E52.269
G1 X108.974 Y147.622 E52.2833
G1 X109.35 Y147.466 E52.29684
G1 X109.772 Y147.409 E52.311
G1 X110.19 Y147.461 E52.32501
G1 X110.511 Y147.593 E52.33655
G1 X110.584 Y147.63 E52.33928
G1 X110.917 Y147.881 E52.35315
G1 X111.161 Y148.207 E52.36669
G1 X111.329 Y148.607 E52.38112
G1 X111.372 Y148.936 E52.39215
G1 F987.7 X111.416 Y149.408 E52.41131
G1 F837.7 X111.278 Y149.778 E52.43013
G1 F960 X111.092 Y149.941 E52.44041
G1 F1159.4 X110.851 Y150.198 E52.45254
G1 F1200 X110.573 Y150.409 E52.46414
G1 X110.181 Y150.564 E52.47816
G1 X109.799 Y150.618 E52.491
G0 F6000 X109.776 Y150.217
;TYPE:WALL-OUTER
G1 F1200 X109.458 Y150.173 E52.50167
G1 X109.189 Y150.063 E52.51134
G1 X108.944 Y149.88 E52.52151
G1 X108.739 Y149.623 E52.53245
G1 X108.616 Y149.332 E52.54295
G1 X108.574 Y149.014 E52.55362
G1 X108.612 Y148.717 E52.56358
G1 X108.73 Y148.421 E52.57418
G1 X108.922 Y148.168 E52.58474
G1 X109.171 Y147.974 E52.59524
G1 X109.445 Y147.859 E52.60512
G1 X109.757 Y147.814 E52.61561
G1 X110.091 Y147.854 E52.6268
G1 X110.356 Y147.962 E52.63632
G1 X110.401 Y147.988 E52.63804
G1 X110.616 Y148.154 E52.64708
G1 X110.809 Y148.399 E52.65745
G1 X110.934 Y148.694 E52.66811
G1 X110.976 Y149.002 E52.67845
G1 X110.939 Y149.315 E52.68893
G1 X110.828 Y149.593 E52.69889
G1 X110.629 Y149.864 E52.71007
G1 X110.384 Y150.052 E52.72034
G1 X110.086 Y150.175 E52.73106
G1 X109.776 Y150.217 E52.74147
G0 F6000 X109.957 Y150.697
G0 X111.658 Y149.505
G0 X111.964 Y150.882
G0 X112.907 Y151.939
G0 X113.053 Y151.888
;TYPE:WALL-INNER
G1 F1200 X112.658 Y151.722 E52.75572
G1 X112.322 Y151.467 E52.76975
G1 X112.073 Y151.132 E52.78363
G1 X111.911 Y150.743 E52.79765
G1 X111.868 Y150.414 E52.80868
G1 F987.7 X111.824 Y149.942 E52.82784
G1 F845.1 X111.893 Y149.751 E52.83743
G1 X111.962 Y149.572 E52.84649
G1 F960 X112.147 Y149.409 E52.85674
G1 F1159.4 X112.389 Y149.152 E52.86889
G1 F1200 X112.67 Y148.939 E52.88062
G1 X113.069 Y148.781 E52.89489
G1 X113.468 Y148.732 E52.90826
G1 X113.892 Y148.789 E52.92249
G1 X114.266 Y148.944 E52.93596
G1 X114.602 Y149.203 E52.95007
G1 X114.852 Y149.526 E52.96365
G1 X115.013 Y149.912 E52.97756
G1 X115.069 Y150.344 E52.99205
G1 X115.014 Y150.759 E53.00598
G1 X114.857 Y151.139 E53.01965
G1 X114.647 Y151.411 E53.03108
G1 F1118.9 X114.57 Y151.533 E53.03623
G1 F932 X114.406 Y151.732 E53.04727
G1 F846.6 X114.091 Y151.886 E53.0638
G1 F991.7 X113.804 Y151.901 E53.07537
G1 F1185.2 X113.458 Y151.941 E53.0871
G1 F1194 X113.053 Y151.888 E53.10075
G0 F6000 X113.131 Y151.49
;TYPE:WALL-OUTER
G1 F1200 X112.86 Y151.376 E53.11053
G1 X112.625 Y151.196 E53.12037
G1 X112.422 Y150.936 E53.13134
G1 X112.306 Y150.656 E53.14142
G1 X112.264 Y150.348 E53.15176
G1 X112.302 Y150.03 E53.16242
G1 X112.338 Y149.935 E53.16579
G1 X112.412 Y149.757 E53.17221
G1 X112.611 Y149.486 E53.18339
G1 X112.856 Y149.298 E53.19366
G1 X113.138 Y149.18 E53.20383
G1 X113.464 Y149.133 E53.21478
G1 X113.788 Y149.179 E53.22567
G1 X114.066 Y149.295 E53.23569
G1 X114.303 Y149.476 E53.2456
G1 X114.494 Y149.716 E53.25581
G1 X114.619 Y150.005 E53.26628
G1 X114.664 Y150.317 E53.27676
G1 X114.627 Y150.635 E53.28741
G1 X114.506 Y150.94 E53.29833
G1 X114.331 Y151.167 E53.30786
G1 X114.068 Y151.379 E53.31909
G1 X113.752 Y151.501 E53.33036
G1 X113.462 Y151.539 E53.34009
G1 X113.131 Y151.49 E53.35122
G0 F6000 X112.943 Y151.953
G0 X114.546 Y151.949
G0 X113.563 Y153.281
G0 X114.225 Y155.371
G0 X114.31 Y155.223
;TYPE:WALL-INNER
G1 F989.7 X114.127 Y155.026 E53.36206
G1 F1116.3 X113.824 Y154.632 E53.37983
G1 F1170.7 X113.662 Y154.24 E53.39429
G1 F1200 X113.608 Y153.825 E53.40821
G1 X113.662 Y153.409 E53.42216
G1 X113.82 Y153.024 E53.43601
G1 X114.028 Y152.751 E53.44742
G1 F1191.1 X114.124 Y152.648 E53.45214
G1 F991.7 X114.348 Y152.382 E53.46613
G1 F846.6 X114.69 Y152.224 E53.4839
G1 F932 X114.871 Y152.234 E53.49166
G1 F1118.9 X115.261 Y152.226 E53.50557
G1 F1200 X115.565 Y152.265 E53.51577
G1 X115.661 Y152.288 E53.51905
G1 X116.009 Y152.429 E53.53154
G1 X116.351 Y152.689 E53.54583
G1 X116.606 Y153.022 E53.55978
G1 X116.767 Y153.41 E53.57375
G1 X116.819 Y153.833 E53.58792
G1 X116.761 Y154.25 E53.60193
G1 X116.605 Y154.632 E53.61565
G1 X116.34 Y154.97 E53.62994
G1 X116.024 Y155.212 E53.64317
G1 F1194 X115.635 Y155.375 E53.65727
G1 F1179.4 X115.228 Y155.43 E53.67117
G1 F1156.6 X114.873 Y155.396 E53.68348
G1 F1023.5 X114.628 Y155.372 E53.69308
G1 F916 X114.31 Y155.223 E53.70838
G0 F6000 X114.901 Y154.987
;TYPE:WALL-OUTER
G1 F1200 X114.609 Y154.866 E53.71889
G1 X114.348 Y154.659 E53.72997
G1 X114.172 Y154.429 E53.7396
G1 X114.058 Y154.153 E53.74954
G1 X114.014 Y153.843 E53.75995
G1 X114.059 Y153.495 E53.77162
G1 X114.182 Y153.209 E53.78198
G1 X114.378 Y152.961 E53.79249
G1 X114.605 Y152.788 E53.80198
G1 X114.896 Y152.665 E53.81249
G1 X115.215 Y152.622 E53.8232
G1 X115.537 Y152.668 E53.83401
G1 X115.831 Y152.793 E53.84464
G1 X116.057 Y152.968 E53.85415
G1 X116.252 Y153.218 E53.86469
G1 X116.37 Y153.499 E53.87483
G1 X116.414 Y153.806 E53.88514
G1 X116.373 Y154.143 E53.89644
G1 X116.26 Y154.417 E53.90629
G1 X116.068 Y154.671 E53.91688
G1 X115.826 Y154.86 E53.9271
G1 X115.544 Y154.98 E53.93729
G1 X115.216 Y155.028 E53.94832
G1 X114.901 Y154.987 E53.95888
G0 F6000 X114.629 Y155.517
G0 X114.18 Y155.418
G0 X114.927 Y156.887
G0 X114.976 Y157.26
G0 X114.927 Y157.633
G0 X114.783 Y157.98
G0 X114.554 Y158.28
G0 X114.603 Y158.697
G0 X113.364 Y158.945
G0 X113.52 Y158.865
;TYPE:WALL-INNER
G1 F1200 X113.154 Y158.815 E53.97117
G1 X113.043 Y158.782 E53.97502
G1 X112.725 Y158.651 E53.98646
