;FLAVOR:Marlin
;TIME:31849
;Filament used: 28.5586m
;Layer height: 0.2
;MINX:49
;MINY:49
;MINZ:0.2
;MAXX:171
;MAXY:171
;MAXZ:25
;Generated with Cura_SteamEngine 5.2.1
M140 S50
M105
M190 S50
M104 S200
M105
M109 S200
M82 ;absolute extrusion mode
; Ender 3 Custom Start G-code
G92 E0 ; Reset Extruder
G28 ; Home all axes
G29 ; BLTouch calibration
G1 Z2.0 F3000 ; Move Z Axis up little to prevent scratching of Heat Bed
G1 X0.1 Y20 Z0.3 F5000.0 ; Move to start position
G1 X0.1 Y200.0 Z0.3 F1500.0 E15 ; Draw the first line
G1 X0.4 Y200.0 Z0.3 F5000.0 ; Move to side a little
G1 X0.4 Y20 Z0.3 F1500.0 E30 ; Draw the second line
G92 E0 ; Reset Extruder
G1 Z2.0 F3000 ; Move Z Axis up little to prevent scratching of Heat Bed
G1 X5 Y20 Z0.3 F5000.0 ; Move over to prevent blob squish
G92 E0
G92 E0
G1 F2700 E-5
;LAYER_COUNT:125
;LAYER:0
M107
G0 F6000 X52.21 Y52.252 Z0.2
;TYPE:SKIRT
G1 F2700 E0
G1 F1200 X52.899 Y51.616 E0.03119
G1 X53.64 Y51.041 E0.06238
G1 X54.427 Y50.531 E0.09357
G1 X55.255 Y50.09 E0.12478
G1 X56.117 Y49.721 E0.15596
G1 X57.008 Y49.427 E0.18717
G1 X57.92 Y49.209 E0.21836
G1 X58.847 Y49.071 E0.24953
G1 X59.701 Y49.013 E0.278
G1 X60.33 Y49 E0.29892
G1 X159.451 Y49.001 E3.5957
G1 X160.149 Y49.011 E3.61892
G1 X161.085 Y49.065 E3.6501
G1 X162.013 Y49.197 E3.68128
G1 X162.927 Y49.409 E3.71249
G1 X163.819 Y49.698 E3.74367
G1 X164.684 Y50.061 E3.77487
G1 X165.514 Y50.497 E3.80606
G1 X166.305 Y51.002 E3.83727
G1 X167.049 Y51.573 E3.86846
G1 X167.742 Y52.205 E3.89966
G1 X168.379 Y52.893 E3.93084
G1 X168.954 Y53.634 E3.96204
G1 X169.465 Y54.42 E3.99322
G1 X169.907 Y55.248 E4.02444
G1 X170.276 Y56.11 E4.05562
G1 X170.571 Y57 E4.08681
G1 X170.789 Y57.912 E4.118
G1 X170.929 Y58.84 E4.14921
G1 X170.987 Y59.701 E4.17791
G1 X171 Y60.33 E4.19884
G1 X170.999 Y159.415 E7.49442
G1 X170.989 Y160.142 E7.5186
G1 X170.936 Y161.079 E7.54982
G1 X170.804 Y162.007 E7.58099
G1 X170.593 Y162.921 E7.61219
G1 X170.304 Y163.813 E7.64338
G1 X169.941 Y164.678 E7.67458
G1 X169.506 Y165.509 E7.70577
G1 X169.001 Y166.299 E7.73696
G1 X168.431 Y167.044 E7.76816
G1 X167.8 Y167.738 E7.79936
G1 X167.111 Y168.375 E7.83057
G1 X166.371 Y168.951 E7.86176
G1 X165.585 Y169.462 E7.89294
G1 X164.758 Y169.904 E7.92413
G1 X163.896 Y170.274 E7.95533
G1 X163.006 Y170.569 E7.98651
G1 X162.094 Y170.788 E8.01771
G1 X161.167 Y170.928 E8.04889
G1 X160.299 Y170.987 E8.07782
G1 X159.67 Y171 E8.09875
G1 X60.565 Y170.999 E11.39499
G1 X59.867 Y170.99 E11.41821
G1 X58.931 Y170.938 E11.44939
G1 X58.002 Y170.806 E11.4806
G1 X57.088 Y170.596 E11.51179
G1 X56.195 Y170.309 E11.54299
G1 X55.33 Y169.946 E11.57419
G1 X54.499 Y169.512 E11.60537
G1 X53.708 Y169.008 E11.63657
G1 X52.963 Y168.438 E11.66777
G1 X52.269 Y167.807 E11.69896
G1 X51.632 Y167.12 E11.73013
G1 X51.055 Y166.38 E11.76134
G1 X50.543 Y165.594 E11.79254
G1 X50.1 Y164.767 E11.82374
G1 X49.729 Y163.906 E11.85492
G1 X49.433 Y163.016 E11.88612
G1 X49.214 Y162.104 E11.91731
G1 X49.073 Y161.177 E11.9485
G1 X49.013 Y160.288 E11.97813
G1 X49 Y159.658 E11.99909
G1 X49.001 Y60.509 E15.2968
G1 X49.011 Y59.844 E15.31892
G1 X49.065 Y58.907 E15.35014
G1 X49.199 Y57.979 E15.38132
G1 X49.411 Y57.065 E15.41253
G1 X49.7 Y56.173 E15.44372
G1 X50.065 Y55.309 E15.47491
G1 X50.501 Y54.479 E15.5061
G1 X51.007 Y53.689 E15.5373
G1 X51.578 Y52.945 E15.56849
G1 X52.21 Y52.252 E15.59969
G0 F6000 X52.602 Y52.427
G1 F1200 X53.288 Y51.813 E15.63031
G1 X54.024 Y51.261 E15.66091
G1 X54.806 Y50.774 E15.69155
G1 X55.627 Y50.358 E15.72216
G1 X56.481 Y50.014 E15.75278
G1 X57.361 Y49.745 E15.78339
G1 X58.262 Y49.554 E15.81402
G1 X59.176 Y49.442 E15.84465
G1 X59.712 Y49.413 E15.8625
G1 X60.33 Y49.4 E15.88306
G1 X159.445 Y49.401 E19.17964
G1 X160.143 Y49.411 E19.20286
G1 X161.062 Y49.464 E19.23348
G1 X161.973 Y49.597 E19.2641
G1 X162.869 Y49.808 E19.29471
G1 X163.743 Y50.096 E19.32532
G1 X164.59 Y50.459 E19.35597
G1 X165.401 Y50.894 E19.38658
G1 X166.171 Y51.398 E19.41719
G1 X166.895 Y51.967 E19.44781
G1 X167.567 Y52.597 E19.47845
G1 X168.182 Y53.282 E19.50907
G1 X168.735 Y54.018 E19.53969
G1 X169.222 Y54.799 E19.5703
G1 X169.639 Y55.62 E19.60093
G1 X169.984 Y56.474 E19.63156
G1 X170.253 Y57.354 E19.66217
G1 X170.445 Y58.255 E19.69281
G1 X170.558 Y59.168 E19.72341
G1 X170.587 Y59.712 E19.74153
G1 X170.6 Y60.33 E19.76209
G1 X170.599 Y159.41 E23.0575
G1 X170.589 Y160.137 E23.08168
G1 X170.536 Y161.056 E23.1123
G1 X170.404 Y161.967 E23.14292
G1 X170.193 Y162.863 E23.17353
G1 X169.906 Y163.738 E23.20416
G1 X169.543 Y164.584 E23.23478
G1 X169.109 Y165.396 E23.2654
G1 X168.605 Y166.167 E23.29604
G1 X168.037 Y166.891 E23.32664
G1 X167.408 Y167.563 E23.35726
G1 X166.723 Y168.178 E23.38788
G1 X165.987 Y168.731 E23.4185
G1 X165.206 Y169.219 E23.44913
G1 X164.386 Y169.637 E23.47974
G1 X163.532 Y169.982 E23.51037
G1 X162.652 Y170.251 E23.54098
G1 X161.751 Y170.444 E23.57163
G1 X160.838 Y170.557 E23.60222
G1 X160.288 Y170.587 E23.62054
G1 X159.67 Y170.6 E23.6411
G1 X60.57 Y170.599 E26.93718
G1 X59.872 Y170.59 E26.9604
G1 X58.953 Y170.538 E26.99102
G1 X58.042 Y170.407 E27.02163
G1 X57.146 Y170.197 E27.05224
G1 X56.271 Y169.91 E27.08286
G1 X55.424 Y169.548 E27.1135
G1 X54.612 Y169.114 E27.14412
G1 X53.841 Y168.612 E27.17472
G1 X53.116 Y168.044 E27.20536
G1 X52.443 Y167.415 E27.23599
G1 X51.828 Y166.731 E27.26659
G1 X51.274 Y165.996 E27.2972
G1 X50.786 Y165.215 E27.32783
G1 X50.367 Y164.395 E27.35846
G1 X50.021 Y163.542 E27.38907
G1 X49.751 Y162.662 E27.41969
G1 X49.558 Y161.761 E27.45034
G1 X49.444 Y160.848 E27.48094
G1 X49.413 Y160.277 E27.49996
G1 X49.4 Y159.658 E27.52055
G1 X49.401 Y60.515 E30.81806
G1 X49.411 Y59.85 E30.84018
G1 X49.465 Y58.931 E30.8708
G1 X49.598 Y58.02 E30.90142
G1 X49.81 Y57.124 E30.93205
G1 X50.099 Y56.249 E30.96269
G1 X50.463 Y55.404 E30.9933
G1 X50.898 Y54.593 E31.02391
G1 X51.403 Y53.822 E31.05456
G1 X51.972 Y53.099 E31.08516
G1 X52.602 Y52.427 E31.1158
G0 F6000 X52.993 Y52.606
G1 F1200 X53.675 Y52.014 E31.14584
G1 X54.407 Y51.485 E31.17587
G1 X55.183 Y51.023 E31.20591
G1 X55.997 Y50.632 E31.23595
G1 X56.842 Y50.313 E31.26599
G1 X57.712 Y50.071 E31.29602
G1 X58.6 Y49.907 E31.32606
G1 X59.723 Y49.813 E31.36354
G1 X60.33 Y49.8 E31.38373
G1 X159.439 Y49.801 E34.68011
G1 X160.137 Y49.811 E34.70333
G1 X161.039 Y49.864 E34.73338
G1 X161.932 Y49.996 E34.76341
G1 X162.81 Y50.207 E34.79344
G1 X163.666 Y50.495 E34.82348
G1 X164.493 Y50.857 E34.8535
G1 X165.285 Y51.292 E34.88356
G1 X166.036 Y51.794 E34.9136
G1 X166.739 Y52.361 E34.94364
G1 X167.389 Y52.988 E34.97368
G1 X167.981 Y53.67 E35.00372
G1 X168.511 Y54.401 E35.03375
G1 X168.973 Y55.177 E35.06379
G1 X169.366 Y55.99 E35.09382
G1 X169.684 Y56.835 E35.12385
G1 X169.927 Y57.705 E35.15389
G1 X170.092 Y58.593 E35.18393
G1 X170.187 Y59.723 E35.22165
G1 X170.2 Y60.33 E35.24184
G1 X170.199 Y159.404 E38.53706
G1 X170.189 Y160.131 E38.56124
G1 X170.137 Y161.033 E38.59129
G1 X170.005 Y161.926 E38.62132
G1 X169.794 Y162.805 E38.65138
G1 X169.507 Y163.661 E38.68141
G1 X169.145 Y164.488 E38.71144
G1 X168.711 Y165.28 E38.74147
G1 X168.209 Y166.031 E38.77152
G1 X167.643 Y166.734 E38.80154
G1 X167.016 Y167.385 E38.8316
G1 X166.335 Y167.977 E38.86161
G1 X165.604 Y168.507 E38.89164
G1 X164.828 Y168.97 E38.9217
G1 X164.015 Y169.363 E38.95173
G1 X163.17 Y169.683 E38.98178
G1 X162.301 Y169.926 E39.01179
G1 X161.413 Y170.091 E39.04184
G1 X160.277 Y170.187 E39.07975
G1 X159.67 Y170.2 E39.09995
G1 X60.575 Y170.199 E42.39586
G1 X59.877 Y170.19 E42.41908
G1 X58.976 Y170.139 E42.44909
G1 X58.082 Y170.007 E42.47915
G1 X57.204 Y169.798 E42.50917
G1 X56.347 Y169.511 E42.53923
G1 X55.52 Y169.15 E42.56924
G1 X54.727 Y168.717 E42.59929
G1 X53.976 Y168.216 E42.62932
G1 X53.272 Y167.65 E42.65936
G1 X52.621 Y167.024 E42.6894
G1 X52.028 Y166.343 E42.71944
G1 X51.498 Y165.612 E42.74947
G1 X51.034 Y164.837 E42.77951
G1 X50.64 Y164.024 E42.80956
G1 X50.32 Y163.18 E42.83958
G1 X50.076 Y162.31 E42.86963
G1 X49.91 Y161.422 E42.89968
G1 X49.813 Y160.267 E42.93823
G1 X49.8 Y159.658 E42.95849
G1 X49.801 Y60.521 E46.2558
G1 X49.811 Y59.856 E46.27792
G1 X49.865 Y58.954 E46.30797
G1 X49.998 Y58.061 E46.338
G1 X50.209 Y57.183 E46.36804
G1 X50.498 Y56.327 E46.39809
G1 X50.861 Y55.5 E46.42813
G1 X51.295 Y54.709 E46.45813
G1 X51.798 Y53.958 E46.4882
G1 X52.366 Y53.256 E46.51823
G1 X52.993 Y52.606 E46.54827
G1 F2700 E41.54827
G0 F6000 X63.8 Y63.335
G0 X63.8 Y63.8
G1 F2700 E46.54827
G1 F1200 X156.2 Y63.8 E49.62151
G1 X156.2 Y85.4 E50.33993
G1 X63.8 Y85.4 E53.41316
G1 X63.8 Y63.8 E54.13158
G0 F6000 X63.4 Y63.4
G1 F1200 X156.6 Y63.4 E57.23143
G1 X156.6 Y85.8 E57.97645
G1 X63.4 Y85.8 E61.0763
G1 X63.4 Y63.4 E61.82132
G0 F6000 X63 Y63
G1 F1200 X157 Y63 E64.94778
G1 X157 Y86.2 E65.71941
G1 X63 Y86.2 E68.84587
G1 X63 Y63 E69.6175
G0 F6000 X62.6 Y62.6
G1 F1200 X157.4 Y62.6 E72.77056
G1 X157.4 Y86.6 E73.5688
G1 X62.6 Y86.6 E76.72187
G1 X62.6 Y62.6 E77.52011
G0 F6000 X62.2 Y62.2
G1 F1200 X157.8 Y62.2 E80.69978
G1 X157.8 Y87 E81.52463
G1 X62.2 Y87 E84.7043
G1 X62.2 Y62.2 E85.52915
G0 F6000 X61.8 Y61.8
G1 F1200 X158.2 Y61.8 E88.73543
G1 X158.2 Y87.4 E89.58689
G1 X61.8 Y87.4 E92.79316
G1 X61.8 Y61.8 E93.64462
G0 F6000 X61.4 Y61.4
G1 F1200 X158.6 Y61.4 E96.87751
G1 X158.6 Y87.8 E97.75557
G1 X61.4 Y87.8 E100.98846
G1 X61.4 Y61.4 E101.86653
G0 F6000 X61 Y61
G1 F1200 X159 Y61 E105.12602
G1 X159 Y88.2 E106.0307
G1 X61 Y88.2 E109.29019
G1 X61 Y61 E110.19486
G0 F6000 X60.6 Y60.6
G1 F1200 X159.4 Y60.6 E113.48097
G1 X159.4 Y88.6 E114.41225
G1 X60.6 Y88.6 E117.69835
G1 X60.6 Y60.6 E118.62964
G0 F6000 X60.2 Y60.2
G1 F1200 X159.8 Y60.2 E121.94234
G1 X159.8 Y89 E122.90024
G1 X60.2 Y89 E126.21295
G1 X60.2 Y60.2 E127.17084
G1 F2700 E122.17084
G0 F6000 X63.335 Y64.08
G0 X64.08 Y64.08
;TYPE:SUPPORT
G1 F2700 E127.17084
G1 F1200 X64.08 Y85.12 E127.87063
G1 X155.92 Y85.12 E130.92524
G1 X155.92 Y74.6 E131.27514
G1 X155.92 Y64.08 E131.62504
G1 X64.08 Y64.08 E134.67965
G0 F6000 X64.159 Y66
G1 F1200 X155.84 Y66 E137.72897
G0 F6000 X155.84 Y68
G1 F1200 X64.159 Y68 E140.77829
G0 F6000 X64.159 Y70
G1 F1200 X155.84 Y70 E143.82761
G0 F6000 X155.84 Y72
G1 F1200 X64.159 Y72 E146.87694
G0 F6000 X64.159 Y74
G1 F1200 X155.84 Y74 E149.92626
G0 F6000 X155.84 Y76
G1 F1200 X64.159 Y76 E152.97558
G0 F6000 X64.159 Y78
G1 F1200 X155.84 Y78 E156.0249
G0 F6000 X155.84 Y80
G1 F1200 X64.159 Y80 E159.07423
G0 F6000 X64.159 Y82
G1 F1200 X155.84 Y82 E162.12355
G0 F6000 X155.84 Y84
G1 F1200 X64.159 Y84 E165.17287
G0 F6000 X66 Y85.04
G1 F1200 X66 Y64.16 E165.86734
G0 F6000 X68 Y64.16
G1 F1200 X68 Y85.04 E166.56181
G0 F6000 X70 Y85.04
G1 F1200 X70 Y64.16 E167.25629
G0 F6000 X72 Y64.16
G1 F1200 X72 Y85.04 E167.95076
G0 F6000 X74 Y85.04
G1 F1200 X74 Y64.16 E168.64523
G0 F6000 X76 Y64.16
G1 F1200 X76 Y85.04 E169.3397
G0 F6000 X78 Y85.04
G1 F1200 X78 Y64.16 E170.03417
G0 F6000 X80 Y64.16
G1 F1200 X80 Y85.04 E170.72864
G0 F6000 X82 Y85.04
G1 F1200 X82 Y64.16 E171.42311
G0 F6000 X84 Y64.16
G1 F1200 X84 Y85.04 E172.11759
G0 F6000 X86 Y85.04
G1 F1200 X86 Y64.16 E172.81206
G0 F6000 X88 Y64.16
G1 F1200 X88 Y85.04 E173.50653
G0 F6000 X90 Y85.04
G1 F1200 X90 Y64.16 E174.201
G0 F6000 X92 Y64.16
G1 F1200 X92 Y85.04 E174.89547
G0 F6000 X94 Y85.04
G1 F1200 X94 Y64.16 E175.58994
G0 F6000 X96 Y64.16
G1 F1200 X96 Y85.04 E176.28442
G0 F6000 X98 Y85.04
G1 F1200 X98 Y64.16 E176.97889
G0 F6000 X100 Y64.16
G1 F1200 X100 Y85.04 E177.67336
G0 F6000 X102 Y85.04
G1 F1200 X102 Y64.16 E178.36783
G0 F6000 X104 Y64.16
G1 F1200 X104 Y85.04 E179.0623
G0 F6000 X106 Y85.04
G1 F1200 X106 Y64.16 E179.75677
G0 F6000 X108 Y64.16
G1 F1200 X108 Y85.04 E180.45125
G0 F6000 X110 Y85.04
G1 F1200 X110 Y64.16 E181.14572
G0 F6000 X112 Y64.16
G1 F1200 X112 Y85.04 E181.84019
G0 F6000 X114 Y85.04
G1 F1200 X114 Y64.16 E182.53466
G0 F6000 X116 Y64.16
G1 F1200 X116 Y85.04 E183.22913
G0 F6000 X118 Y85.04
G1 F1200 X118 Y64.16 E183.9236
G0 F6000 X120 Y64.16
G1 F1200 X120 Y85.04 E184.61808
G0 F6000 X122 Y85.04
G1 F1200 X122 Y64.16 E185.31255
G0 F6000 X124 Y64.16
G1 F1200 X124 Y85.04 E186.00702
G0 F6000 X126 Y85.04
G1 F1200 X126 Y64.16 E186.70149
G0 F6000 X128 Y64.16
G1 F1200 X128 Y85.04 E187.39596
G0 F6000 X130 Y85.04
G1 F1200 X130 Y64.16 E188.09043
G0 F6000 X132 Y64.16
G1 F1200 X132 Y85.04 E188.78491
G0 F6000 X134 Y85.04
G1 F1200 X134 Y64.16 E189.47938
G0 F6000 X136 Y64.16
G1 F1200 X136 Y85.04 E190.17385
G0 F6000 X138 Y85.04
G1 F1200 X138 Y64.16 E190.86832
G0 F6000 X140 Y64.16
G1 F1200 X140 Y85.04 E191.56279
G0 F6000 X142 Y85.04
G1 F1200 X142 Y64.16 E192.25726
G0 F6000 X144 Y64.16
G1 F1200 X144 Y85.04 E192.95174
G0 F6000 X146 Y85.04
G1 F1200 X146 Y64.16 E193.64621
G0 F6000 X148 Y64.16
G1 F1200 X148 Y85.04 E194.34068
G0 F6000 X150 Y85.04
G1 F1200 X150 Y64.16 E195.03515
G0 F6000 X152 Y64.16
G1 F1200 X152 Y85.04 E195.72962
G0 F6000 X154 Y85.04
G1 F1200 X154 Y64.16 E196.42409
G1 F2700 E191.42409
;MESH:Sword Blade v3.stl
G0 F6000 X154 Y63.335
G0 X156.653 Y63.347
G0 X156.653 Y85.853
G0 X154 Y89.335
G0 X60.6 Y159.4
;TYPE:WALL-INNER
G1 F2700 E196.42409
G1 F1200 X159.4 Y159.4 E199.71019
G1 X159.4 Y125 E200.85434
G1 X159.4 Y90.6 E201.99849
G1 X60.6 Y90.6 E205.28459
G1 X60.6 Y159.4 E207.57289
G0 F6000 X60.2 Y159.8
;TYPE:WALL-OUTER
G1 F1200 X159.8 Y159.8 E210.8856
G1 X159.8 Y125 E212.04305
G1 X159.8 Y90.2 E213.20051
G1 X60.2 Y90.2 E216.51321
G1 X60.2 Y159.8 E218.82812
G0 F6000 X60.47 Y159.53
G0 X60.7 Y159.04
G0 X60.96 Y159.04
;TYPE:SKIN
G1 F1200 X95 Y159.04 E219.9603
G1 X159.04 Y159.04 E222.09027
G1 X159.04 Y90.96 E224.35462
G1 X60.96 Y90.96 E227.61678
G1 X60.96 Y159.04 E229.88113
G0 F6000 X61.541 Y158.839
G1 F1200 X61.159 Y158.457 E229.8991
G0 F6000 X61.159 Y157.891
G1 F1200 X62.107 Y158.839 E229.94369
G0 F6000 X62.672 Y158.839
G1 F1200 X61.159 Y157.326 E230.01485
G0 F6000 X61.159 Y156.76
G1 F1200 X63.238 Y158.839 E230.11264
G0 F6000 X63.804 Y158.839
G1 F1200 X61.159 Y156.194 E230.23706
G0 F6000 X61.159 Y155.629
G1 F1200 X64.37 Y158.839 E230.38807
G0 F6000 X64.935 Y158.839
G1 F1200 X61.159 Y155.063 E230.56568
G0 F6000 X61.159 Y154.497
G1 F1200 X65.501 Y158.839 E230.76991
G0 F6000 X66.067 Y158.839
G1 F1200 X61.159 Y153.932 E231.00075
G0 F6000 X61.159 Y153.366
G1 F1200 X66.632 Y158.839 E231.25818
G0 F6000 X67.198 Y158.839
G1 F1200 X61.159 Y152.8 E231.54224
G0 F6000 X61.159 Y152.235
G1 F1200 X67.764 Y158.839 E231.85289
G0 F6000 X68.329 Y158.839
G1 F1200 X61.159 Y151.669 E232.19015
G0 F6000 X61.159 Y151.103
G1 F1200 X68.895 Y158.839 E232.55403
G0 F6000 X69.461 Y158.839
G1 F1200 X61.159 Y150.538 E232.9445
G0 F6000 X61.159 Y149.972
G1 F1200 X70.026 Y158.839 E233.36158
G0 F6000 X70.592 Y158.839
G1 F1200 X61.159 Y149.406 E233.80528
G0 F6000 X61.159 Y148.841
G1 F1200 X71.158 Y158.839 E234.27558
G0 F6000 X71.723 Y158.839
G1 F1200 X61.159 Y148.275 E234.77248
G0 F6000 X61.159 Y147.709
G1 F1200 X72.289 Y158.839 E235.296
G0 F6000 X72.855 Y158.839
G1 F1200 X61.159 Y147.143 E235.84614
G0 F6000 X61.159 Y146.578
G1 F1200 X73.421 Y158.839 E236.42288
G0 F6000 X73.986 Y158.839
G1 F1200 X61.159 Y146.012 E237.02623
G0 F6000 X61.159 Y145.446
G1 F1200 X74.552 Y158.839 E237.65619
G0 F6000 X75.118 Y158.839
G1 F1200 X61.159 Y144.881 E238.31276
G0 F6000 X61.159 Y144.315
G1 F1200 X75.683 Y158.839 E238.99592
G0 F6000 X76.249 Y158.839
G1 F1200 X61.159 Y143.749 E239.70571
G0 F6000 X61.159 Y143.184
G1 F1200 X76.815 Y158.839 E240.4421
G0 F6000 X77.38 Y158.839
G1 F1200 X61.159 Y142.618 E241.20508
G0 F6000 X61.159 Y142.052
G1 F1200 X77.946 Y158.839 E241.99469
G0 F6000 X78.512 Y158.839
G1 F1200 X61.159 Y141.487 E242.8109
G0 F6000 X61.159 Y140.921
G1 F1200 X79.077 Y158.839 E243.65371
G0 F6000 X79.643 Y158.839
G1 F1200 X61.159 Y140.355 E244.52314
G0 F6000 X61.159 Y139.79
G1 F1200 X80.209 Y158.839 E245.41917
G0 F6000 X80.774 Y158.839
G1 F1200 X61.159 Y139.224 E246.3418
G0 F6000 X61.159 Y138.658
G1 F1200 X81.34 Y158.839 E247.29105
G0 F6000 X81.906 Y158.839
G1 F1200 X61.159 Y138.093 E248.2669
G0 F6000 X61.159 Y137.527
G1 F1200 X82.471 Y158.839 E249.26935
G0 F6000 X83.037 Y158.839
G1 F1200 X61.159 Y136.961 E250.29843
G0 F6000 X61.159 Y136.395
G1 F1200 X83.603 Y158.839 E251.35412
G0 F6000 X84.169 Y158.839
G1 F1200 X61.159 Y135.83 E252.43642
G0 F6000 X61.159 Y135.264
G1 F1200 X84.734 Y158.839 E253.54532
