;FLAVOR:Marlin
;TIME:27054
;Filament used: 27.8025m
;Layer height: 0.2
;MINX:60.2
;MINY:30.167
;MINZ:0.2
;MAXX:159.8
;MAXY:189.585
;MAXZ:25
;Generated with Cura_SteamEngine 5.2.1
M140 S50
M105
M190 S50
M104 S200
M105
M109 S200
M82 ;absolute extrusion mode
; Ender 3 Custom Start G-code
G92 E0 ; Reset Extruder
G28 ; Home all axes
G29 ; BLTouch calibration
G1 Z2.0 F3000 ; Move Z Axis up little to prevent scratching of Heat Bed
G1 X0.1 Y20 Z0.3 F5000.0 ; Move to start position
G1 X0.1 Y200.0 Z0.3 F1500.0 E15 ; Draw the first line
G1 X0.4 Y200.0 Z0.3 F5000.0 ; Move to side a little
G1 X0.4 Y20 Z0.3 F1500.0 E30 ; Draw the second line
G92 E0 ; Reset Extruder
G1 Z2.0 F3000 ; Move Z Axis up little to prevent scratching of Heat Bed
G1 X5 Y20 Z0.3 F5000.0 ; Move over to prevent blob squish
G92 E0
G92 E0
G1 F2700 E-5
;LAYER_COUNT:125
;LAYER:0
M107
;MESH:Sword Tip v2.stl
G0 F6000 X110 Y188.691 Z0.2
;TYPE:WALL-INNER
G1 F2700 E0
G1 F1200 X159.4 Y89.89 E3.674
G1 X159.4 Y78.561 E4.05081
G1 X159.4 Y30.567 E5.64709
G1 X60.6 Y30.567 E8.9332
G1 X60.6 Y89.89 E10.90629
G1 X110 Y188.691 E14.58029
G0 F6000 X110 Y189.585
;TYPE:WALL-OUTER
G1 F1200 X159.8 Y89.984 E18.28404
G1 X159.8 Y78.561 E18.66397
G1 X159.8 Y30.167 E20.27356
G1 X60.2 Y30.167 E23.58627
G1 X60.2 Y89.984 E25.57579
G1 X110 Y189.585 E29.27954
G0 F6000 X110 Y189.038
G0 X110.233 Y188
G0 X110 Y187.883
;TYPE:SKIN
G1 F1200 X154.011 Y99.861 E32.55273
G1 X159.04 Y89.803 E32.92674
G1 X159.04 Y30.927 E34.88497
G1 X60.96 Y30.927 E38.14712
G1 X60.96 Y89.803 E40.10534
G1 X110 Y187.883 E43.75254
G0 F6000 X110.167 Y187.101
G1 F1200 X109.497 Y186.43 E43.78408
G0 F6000 X110.356 Y186.724
G1 F1200 X108.931 Y185.299 E43.85111
G0 F6000 X108.519 Y185.504
G0 X107.953 Y184.373
G0 X108.366 Y184.168
G1 F1200 X110.544 Y186.346 E43.95356
G0 F6000 X110.733 Y185.969
G1 F1200 X107.8 Y183.036 E44.09152
G0 F6000 X107.387 Y183.241
G0 X106.822 Y182.11
G0 X107.234 Y181.905
G1 F1200 X110.922 Y185.592 E44.26496
G0 F6000 X111.11 Y185.215
G1 F1200 X106.669 Y180.773 E44.47388
G0 F6000 X106.256 Y180.978
G0 X105.69 Y179.847
G0 X106.103 Y179.642
G1 F1200 X111.299 Y184.838 E44.71828
G0 F6000 X111.488 Y184.461
G1 F1200 X105.537 Y178.511 E44.99818
G0 F6000 X105.125 Y178.716
G0 X104.559 Y177.584
G0 X104.972 Y177.379
G1 F1200 X111.676 Y184.083 E45.31351
G0 F6000 X111.864 Y183.707
G1 F1200 X104.406 Y176.248 E45.66434
G0 F6000 X103.993 Y176.453
G0 X103.428 Y175.322
G0 X103.84 Y175.117
G1 F1200 X112.053 Y183.33 E46.05065
G0 F6000 X112.241 Y182.952
G1 F1200 X103.275 Y173.985 E46.47241
G0 F6000 X102.862 Y174.19
G0 X102.296 Y173.059
G0 X102.709 Y172.854
G1 F1200 X112.43 Y182.575 E46.92965
G0 F6000 X112.619 Y182.198
G1 F1200 X102.143 Y171.723 E47.42239
G0 F6000 X101.731 Y171.928
G0 X101.165 Y170.796
G0 X101.578 Y170.591
G1 F1200 X112.807 Y181.821 E47.95059
G0 F6000 X112.996 Y181.444
G1 F1200 X101.012 Y169.46 E48.51428
G0 F6000 X100.599 Y169.665
G0 X100.033 Y168.533
G0 X100.446 Y168.328
G1 F1200 X113.185 Y181.067 E49.11348
G0 F6000 X113.373 Y180.689
G1 F1200 X99.88 Y167.197 E49.74813
G0 F6000 X99.468 Y167.402
G0 X98.902 Y166.271
G0 X99.315 Y166.066
G1 F1200 X113.562 Y180.312 E50.41824
G0 F6000 X113.75 Y179.936
G1 F1200 X98.749 Y164.934 E51.12387
G0 F6000 X98.336 Y165.139
G0 X97.771 Y164.008
G0 X98.183 Y163.803
G1 F1200 X113.938 Y179.558 E51.86493
G0 F6000 X114.127 Y179.181
G1 F1200 X97.618 Y162.672 E52.64147
G0 F6000 X97.205 Y162.877
G0 X96.639 Y161.745
G0 X97.052 Y161.54
G1 F1200 X114.316 Y178.804 E53.45351
G0 F6000 X114.504 Y178.427
G1 F1200 X96.486 Y160.409 E54.30102
G0 F6000 X96.074 Y160.614
G0 X95.508 Y159.482
G0 X95.921 Y159.277
G1 F1200 X114.693 Y178.05 E55.18402
G0 F6000 X114.882 Y177.673
G1 F1200 X95.355 Y158.146 E56.10251
G0 F6000 X94.942 Y158.351
G0 X94.377 Y157.22
G0 X94.789 Y157.015
G1 F1200 X115.07 Y177.295 E57.05645
G0 F6000 X115.259 Y176.918
G1 F1200 X94.224 Y155.883 E58.04587
G0 F6000 X93.811 Y156.088
G0 X93.245 Y154.957
G0 X93.658 Y154.752
G1 F1200 X115.447 Y176.541 E59.07076
G0 F6000 X115.636 Y176.164
G1 F1200 X93.092 Y153.621 E60.13113
G0 F6000 X92.68 Y153.826
G0 X92.114 Y152.694
G0 X92.527 Y152.489
G1 F1200 X115.824 Y175.787 E61.22698
G0 F6000 X116.013 Y175.41
G1 F1200 X91.961 Y151.358 E62.35831
G0 F6000 X91.548 Y151.563
G0 X90.982 Y150.431
G0 X91.395 Y150.226
G1 F1200 X116.201 Y175.032 E63.52511
G0 F6000 X116.39 Y174.656
G1 F1200 X90.829 Y149.095 E64.72742
G0 F6000 X90.417 Y149.3
G0 X89.851 Y148.169
G0 X90.264 Y147.964
G1 F1200 X116.579 Y174.279 E65.9652
G0 F6000 X116.767 Y173.901
G1 F1200 X89.698 Y146.832 E67.23844
G0 F6000 X89.285 Y147.037
G0 X88.72 Y145.906
G0 X89.132 Y145.701
G1 F1200 X116.956 Y173.524 E68.54717
G0 F6000 X117.144 Y173.147
G1 F1200 X88.567 Y144.57 E69.89134
G0 F6000 X88.154 Y144.775
G0 X87.589 Y143.643
G0 X88.001 Y143.438
G1 F1200 X117.333 Y172.77 E71.27103
G0 F6000 X117.521 Y172.393
G1 F1200 X87.435 Y142.307 E72.68619
G0 F6000 X87.023 Y142.512
G0 X86.457 Y141.38
G0 X86.87 Y141.175
G1 F1200 X117.71 Y172.016 E74.13683
G0 F6000 X117.898 Y171.638
G1 F1200 X86.304 Y140.044 E75.62291
G0 F6000 X85.892 Y140.249
G0 X85.326 Y139.118
G0 X85.738 Y138.913
G1 F1200 X118.087 Y171.261 E77.14449
G0 F6000 X118.276 Y170.885
G1 F1200 X85.173 Y137.781 E78.70157
G0 F6000 X84.76 Y137.986
G0 X84.195 Y136.855
G0 X84.607 Y136.65
G1 F1200 X118.464 Y170.507 E80.2941
G0 F6000 X118.653 Y170.13
G1 F1200 X84.041 Y135.519 E81.92212
G0 F6000 X83.629 Y135.724
G0 X83.063 Y134.592
G0 X83.476 Y134.387
G1 F1200 X118.842 Y169.753 E83.58563
G0 F6000 X119.03 Y169.376
G1 F1200 X82.91 Y133.256 E85.2846
G0 F6000 X82.498 Y133.461
G0 X81.932 Y132.33
G0 X82.344 Y132.125
G1 F1200 X119.218 Y168.999 E87.01904
G0 F6000 X119.407 Y168.622
G1 F1200 X81.779 Y130.993 E88.78897
G0 F6000 X81.366 Y131.198
G0 X80.801 Y130.067
G0 X81.213 Y129.862
G1 F1200 X119.595 Y168.244 E90.59435
G0 F6000 X119.784 Y167.867
G1 F1200 X80.647 Y128.73 E92.43523
G0 F6000 X80.235 Y128.935
G0 X79.669 Y127.804
G0 X80.081 Y127.599
G1 F1200 X119.973 Y167.49 E94.3116
G0 F6000 X120.161 Y167.113
G1 F1200 X79.516 Y126.468 E96.22342
G0 F6000 X79.104 Y126.673
G0 X78.538 Y125.541
G0 X78.95 Y125.336
G1 F1200 X120.35 Y166.736 E98.17075
G0 F6000 X120.539 Y166.359
G1 F1200 X78.384 Y124.205 E100.15357
G0 F6000 X77.972 Y124.41
G0 X77.407 Y123.279
G0 X77.819 Y123.074
G1 F1200 X120.727 Y165.982 E102.17183
G0 F6000 X120.915 Y165.605
G1 F1200 X77.253 Y121.942 E104.22558
G0 F6000 X76.841 Y122.147
G0 X76.275 Y121.016
G0 X76.687 Y120.811
G1 F1200 X121.104 Y165.228 E106.31482
G0 F6000 X121.292 Y164.85
G1 F1200 X76.122 Y119.679 E108.4395
G0 F6000 X75.709 Y119.884
G0 X75.144 Y118.753
G0 X75.556 Y118.548
G1 F1200 X121.481 Y164.473 E110.59967
G0 F6000 X121.67 Y164.096
G1 F1200 X74.99 Y117.417 E112.79533
G0 F6000 X74.578 Y117.622
G0 X74.012 Y116.49
G0 X74.425 Y116.285
G1 F1200 X121.858 Y163.719 E115.02646
G0 F6000 X122.047 Y163.342
G1 F1200 X73.859 Y115.154 E117.29307
G0 F6000 X73.447 Y115.359
G0 X72.881 Y114.228
G0 X73.293 Y114.023
G1 F1200 X122.235 Y162.964 E119.59513
G0 F6000 X122.424 Y162.587
G1 F1200 X72.728 Y112.891 E121.93268
G0 F6000 X72.315 Y113.096
G0 X71.75 Y111.965
G0 X72.162 Y111.76
G1 F1200 X122.613 Y162.211 E124.30574
G0 F6000 X122.801 Y161.833
G1 F1200 X71.596 Y110.628 E126.71427
G0 F6000 X71.184 Y110.833
G0 X70.618 Y109.702
G0 X71.03 Y109.497
G1 F1200 X122.989 Y161.456 E129.15826
G0 F6000 X123.178 Y161.079
G1 F1200 X70.465 Y108.366 E131.63772
G0 F6000 X70.053 Y108.571
G0 X69.487 Y107.439
G0 X69.899 Y107.234
G1 F1200 X123.366 Y160.702 E134.15266
G0 F6000 X123.555 Y160.325
G1 F1200 X69.333 Y106.103 E136.7031
G0 F6000 X68.921 Y106.308
G0 X68.356 Y105.177
G0 X68.768 Y104.972
G1 F1200 X123.744 Y159.948 E139.289
G0 F6000 X123.932 Y159.57
G1 F1200 X68.202 Y103.84 E141.91037
G0 F6000 X67.79 Y104.045
G0 X67.224 Y102.914
G0 X67.636 Y102.709
G1 F1200 X124.121 Y159.193 E144.56723
G0 F6000 X124.31 Y158.816
G1 F1200 X67.071 Y101.578 E147.25955
G0 F6000 X66.659 Y101.783
G0 X66.093 Y100.651
G0 X66.505 Y100.446
G1 F1200 X124.498 Y158.439 E149.98736
G0 F6000 X124.686 Y158.062
G1 F1200 X65.939 Y99.315 E152.75064
G0 F6000 X65.527 Y99.52
G0 X64.961 Y98.388
G0 X65.374 Y98.183
G1 F1200 X124.875 Y157.685 E155.54941
G0 F6000 X125.063 Y157.307
G1 F1200 X64.808 Y97.052 E158.38362
G0 F6000 X64.395 Y97.257
G0 X63.83 Y96.126
G0 X64.242 Y95.921
G1 F1200 X125.252 Y156.931 E161.25335
G0 F6000 X125.441 Y156.554
G1 F1200 X63.677 Y94.789 E164.15856
G0 F6000 X63.264 Y94.994
G0 X62.699 Y93.863
G0 X63.111 Y93.658
G1 F1200 X125.629 Y156.176 E167.09921
G0 F6000 X125.818 Y155.799
G1 F1200 X62.545 Y92.527 E170.07536
G0 F6000 X62.133 Y92.732
G0 X61.567 Y91.6
G0 X61.98 Y91.395
G1 F1200 X126.007 Y155.422 E173.08699
G0 F6000 X126.195 Y155.045
G1 F1200 X61.414 Y90.264 E176.13409
G0 F6000 X61.159 Y89.443
G1 F1200 X126.384 Y154.668 E179.20207
G0 F6000 X126.572 Y154.291
G1 F1200 X61.159 Y88.877 E182.27893
G0 F6000 X61.159 Y88.311
G1 F1200 X126.76 Y153.913 E185.36462
G0 F6000 X126.949 Y153.536
G1 F1200 X61.159 Y87.746 E188.45918
G0 F6000 X61.159 Y87.18
G1 F1200 X127.138 Y153.16 E191.56265
G0 F6000 X127.326 Y152.782
G1 F1200 X61.159 Y86.614 E194.67497
G0 F6000 X61.159 Y86.049
G1 F1200 X127.515 Y152.405 E197.79615
G0 F6000 X127.704 Y152.028
G1 F1200 X61.159 Y85.483 E200.92622
G0 F6000 X61.159 Y84.917
G1 F1200 X127.892 Y151.651 E204.06516
G0 F6000 X128.081 Y151.274
G1 F1200 X61.159 Y84.352 E207.21297
G0 F6000 X61.159 Y83.786
G1 F1200 X128.269 Y150.897 E210.36964
G0 F6000 X128.457 Y150.519
G1 F1200 X61.159 Y83.22 E213.53516
G0 F6000 X61.159 Y82.655
G1 F1200 X128.646 Y150.142 E216.70954
G0 F6000 X128.835 Y149.765
G1 F1200 X61.159 Y82.089 E219.89281
G0 F6000 X61.159 Y81.523
G1 F1200 X129.023 Y149.388 E223.08495
G0 F6000 X129.212 Y149.011
G1 F1200 X61.159 Y80.958 E226.28595
G0 F6000 X61.159 Y80.392
G1 F1200 X129.401 Y148.634 E229.49585
G0 F6000 X129.589 Y148.256
G1 F1200 X61.159 Y79.826 E232.71458
G0 F6000 X61.159 Y79.261
G1 F1200 X129.778 Y147.88 E235.94221
G0 F6000 X129.966 Y147.503
G1 F1200 X61.159 Y78.695 E239.1787
G0 F6000 X61.159 Y78.129
G1 F1200 X130.155 Y147.125 E242.42407
G0 F6000 X130.343 Y146.748
G1 F1200 X61.159 Y77.563 E245.67829
G0 F6000 X61.159 Y76.998
G1 F1200 X130.532 Y146.371 E248.94139
G0 F6000 X130.72 Y145.994
G1 F1200 X61.159 Y76.432 E252.21334
G0 F6000 X61.159 Y75.866
G1 F1200 X130.909 Y145.617 E255.49419
G0 F6000 X131.098 Y145.24
G1 F1200 X61.159 Y75.301 E258.78391
G0 F6000 X61.159 Y74.735
G1 F1200 X131.286 Y144.862 E262.08247
G0 F6000 X131.475 Y144.485
G1 F1200 X61.159 Y74.169 E265.38992
G0 F6000 X61.159 Y73.604
G1 F1200 X131.663 Y144.109 E268.70623
G0 F6000 X131.852 Y143.731
G1 F1200 X61.159 Y73.038 E272.03142
G0 F6000 X61.159 Y72.472
G1 F1200 X132.04 Y143.354 E275.36546
G0 F6000 X132.229 Y142.977
G1 F1200 X61.159 Y71.907 E278.70838
G0 F6000 X61.159 Y71.341
G1 F1200 X132.417 Y142.6 E282.06016
G0 F6000 X132.606 Y142.223
G1 F1200 X61.159 Y70.775 E285.42083
G0 F6000 X61.159 Y70.21
G1 F1200 X132.795 Y141.846 E288.79037
G0 F6000 X132.983 Y141.468
G1 F1200 X61.159 Y69.644 E292.16875
G0 F6000 X61.159 Y69.078
G1 F1200 X133.172 Y141.091 E295.55602
G0 F6000 X133.361 Y140.714
G1 F1200 X61.159 Y68.512 E298.95218
G0 F6000 X61.159 Y67.947
G1 F1200 X133.549 Y140.337 E302.35719
G0 F6000 X133.737 Y139.96
G1 F1200 X61.159 Y67.381 E305.77106
G0 F6000 X61.159 Y66.815
G1 F1200 X133.926 Y139.583 E309.19382
G0 F6000 X134.114 Y139.205
G1 F1200 X61.159 Y66.25 E312.6254
G0 F6000 X61.159 Y65.684
G1 F1200 X134.303 Y138.829 E316.06589
G0 F6000 X134.491 Y138.451
G1 F1200 X61.159 Y65.118 E319.51522
G0 F6000 X61.159 Y64.553
G1 F1200 X134.68 Y138.074 E322.97343
G0 F6000 X134.869 Y137.697
G1 F1200 X61.159 Y63.987 E326.44052
G0 F6000 X61.159 Y63.421
G1 F1200 X135.057 Y137.32 E329.91648
G0 F6000 X135.246 Y136.943
G1 F1200 X61.159 Y62.856 E333.4013
G0 F6000 X61.159 Y62.29
G1 F1200 X135.434 Y136.566 E336.895
G0 F6000 X135.623 Y136.188
G1 F1200 X61.159 Y61.724 E340.39755
G0 F6000 X61.159 Y61.159
G1 F1200 X135.811 Y135.811 E343.90896
G0 F6000 X136 Y135.434
G1 F1200 X61.159 Y60.593 E347.42925
G0 F6000 X61.159 Y60.027
G1 F1200 X136.188 Y135.057 E350.9584
G0 F6000 X136.377 Y134.68
G1 F1200 X61.159 Y59.462 E354.49643
G0 F6000 X61.159 Y58.896
G1 F1200 X136.566 Y134.303 E358.04334
G0 F6000 X136.754 Y133.926
G1 F1200 X61.159 Y58.33 E361.59912
G0 F6000 X61.159 Y57.764
G1 F1200 X136.943 Y133.549 E365.16379
G0 F6000 X137.132 Y133.172
G1 F1200 X61.159 Y57.199 E368.73733
G0 F6000 X61.159 Y56.633
G1 F1200 X137.32 Y132.794 E372.31971
G0 F6000 X137.508 Y132.417
G1 F1200 X61.159 Y56.067 E375.91096
G0 F6000 X61.159 Y55.502
G1 F1200 X137.697 Y132.04 E379.51107
G0 F6000 X137.885 Y131.663
G1 F1200 X61.159 Y54.936 E383.12005
G0 F6000 X61.159 Y54.37
G1 F1200 X138.074 Y131.286 E386.73792
G0 F6000 X138.263 Y130.909
G1 F1200 X61.159 Y53.805 E390.36465
G0 F6000 X61.159 Y53.239
G1 F1200 X138.451 Y130.531 E394.00023
G0 F6000 X138.64 Y130.155
G1 F1200 X61.159 Y52.673 E397.64472
G0 F6000 X61.159 Y52.108
G1 F1200 X138.829 Y129.778 E401.29808
G0 F6000 X139.017 Y129.4
G1 F1200 X61.159 Y51.542 E404.96028
G0 F6000 X61.159 Y50.976
G1 F1200 X139.205 Y129.023 E408.63135
G0 F6000 X139.394 Y128.646
G1 F1200 X61.159 Y50.411 E412.31129
G0 F6000 X61.159 Y49.845
G1 F1200 X139.582 Y128.269 E416.00009
G0 F6000 X139.771 Y127.892
G1 F1200 X61.159 Y49.279 E419.69778
G0 F6000 X61.159 Y48.714
G1 F1200 X139.96 Y127.515 E423.40434
G0 F6000 X140.148 Y127.137
G1 F1200 X61.159 Y48.148 E427.11974
G0 F6000 X61.159 Y47.582
G1 F1200 X140.337 Y126.76 E430.84403
G0 F6000 X140.526 Y126.384
G1 F1200 X61.159 Y47.016 E434.57723
G0 F6000 X61.159 Y46.451
G1 F1200 X140.714 Y126.006 E438.31925
G0 F6000 X140.903 Y125.629
G1 F1200 X61.159 Y45.885 E442.07017
G0 F6000 X61.159 Y45.319
G1 F1200 X141.091 Y125.252 E445.82995
G0 F6000 X141.279 Y124.875
G1 F1200 X61.159 Y44.754 E449.59857
G0 F6000 X61.159 Y44.188
G1 F1200 X141.468 Y124.498 E453.37608
G0 F6000 X141.657 Y124.121
G1 F1200 X61.159 Y43.622 E457.16249
G0 F6000 X61.159 Y43.057
G1 F1200 X141.845 Y123.743 E460.95771
G0 F6000 X142.034 Y123.366
G1 F1200 X61.159 Y42.491 E464.76182
G0 F6000 X61.159 Y41.925
G1 F1200 X142.223 Y122.989 E468.57482
G0 F6000 X142.411 Y122.612
G1 F1200 X61.159 Y41.36 E472.39667
G0 F6000 X61.159 Y40.794
G1 F1200 X142.6 Y122.235 E476.2274
G0 F6000 X142.788 Y121.858
G1 F1200 X61.159 Y40.228 E480.067
G0 F6000 X61.159 Y39.663
G1 F1200 X142.976 Y121.48 E483.91542
G0 F6000 X143.165 Y121.104
G1 F1200 X61.159 Y39.097 E487.77276
G0 F6000 X61.159 Y38.531
G1 F1200 X143.354 Y120.727 E491.63898
G0 F6000 X143.542 Y120.349
G1 F1200 X61.159 Y37.965 E495.51405
G0 F6000 X61.159 Y37.4
G1 F1200 X143.731 Y119.972 E499.39798
G0 F6000 X143.92 Y119.595
G1 F1200 X61.159 Y36.834 E503.29081
G0 F6000 X61.159 Y36.268
G1 F1200 X144.108 Y119.218 E507.1925
G0 F6000 X144.297 Y118.841
G1 F1200 X61.159 Y35.703 E511.10305
G0 F6000 X61.159 Y35.137
G1 F1200 X144.485 Y118.464 E515.02248
G0 F6000 X144.674 Y118.086
G1 F1200 X61.159 Y34.571 E518.95077
G0 F6000 X61.159 Y34.006
G1 F1200 X144.862 Y117.709 E522.8879
G0 F6000 X145.051 Y117.333
G1 F1200 X61.159 Y33.44 E526.83395
G0 F6000 X61.159 Y32.874
G1 F1200 X145.239 Y116.955 E530.78883
G0 F6000 X145.428 Y116.578
G1 F1200 X61.159 Y32.309 E534.75259
G0 F6000 X61.159 Y31.743
G1 F1200 X145.617 Y116.201 E538.72524
G0 F6000 X145.805 Y115.824
G1 F1200 X61.159 Y31.177 E542.70675
G0 F6000 X61.673 Y31.126
G1 F1200 X145.994 Y115.447 E546.67295
G0 F6000 X146.183 Y115.07
G1 F1200 X62.239 Y31.126 E550.62142
G0 F6000 X62.805 Y31.126
G1 F1200 X146.371 Y114.692 E554.55211
G0 F6000 X146.559 Y114.315
G1 F1200 X63.37 Y31.126 E558.46506
G0 F6000 X63.936 Y31.126
G1 F1200 X146.747 Y113.938 E562.36026
G0 F6000 X146.936 Y113.561
G1 F1200 X64.502 Y31.126 E566.23773
G0 F6000 X65.067 Y31.126
G1 F1200 X147.125 Y113.184 E570.09748
G0 F6000 X147.313 Y112.806
G1 F1200 X65.633 Y31.126 E573.93946
G0 F6000 X66.199 Y31.126
G1 F1200 X147.502 Y112.429 E577.7637
G0 F6000 X147.691 Y112.053
G1 F1200 X66.765 Y31.126 E581.57024
G0 F6000 X67.33 Y31.126
G1 F1200 X147.879 Y111.675 E585.35902
G0 F6000 X148.068 Y111.298
G1 F1200 X67.896 Y31.126 E589.13006
G0 F6000 X68.462 Y31.126
G1 F1200 X148.256 Y110.921 E592.88335
G0 F6000 X148.445 Y110.544
