;FLAVOR:Marlin
;TIME:29801
;Filament used: 22.6266m
;Layer height: 0.2
;MINX:59.335
;MINY:26.868
;MINZ:0.2
;MAXX:160.665
;MAXY:193.132
;MAXZ:25.2
;Generated with Cura_SteamEngine 5.2.1
M140 S50
M105
M190 S50
M104 S200
M105
M109 S200
M82 ;absolute extrusion mode
; Ender 3 Custom Start G-code
G92 E0 ; Reset Extruder
G28 ; Home all axes
G29 ; BLTouch calibration
G1 Z2.0 F3000 ; Move Z Axis up little to prevent scratching of Heat Bed
G1 X0.1 Y20 Z0.3 F5000.0 ; Move to start position
G1 X0.1 Y200.0 Z0.3 F1500.0 E15 ; Draw the first line
G1 X0.4 Y200.0 Z0.3 F5000.0 ; Move to side a little
G1 X0.4 Y20 Z0.3 F1500.0 E30 ; Draw the second line
G92 E0 ; Reset Extruder
G1 Z2.0 F3000 ; Move Z Axis up little to prevent scratching of Heat Bed
G1 X5 Y20 Z0.3 F5000.0 ; Move over to prevent blob squish
G92 E0
G92 E0
G1 F2700 E-5
;LAYER_COUNT:126
;LAYER:0
M107
G0 F6000 X63.8 Y166.267 Z0.2
;TYPE:SKIRT
G1 F2700 E0
G1 F1200 X156.2 Y166.267 E3.07324
G1 X156.2 Y188.667 E3.81826
G1 X63.8 Y188.667 E6.8915
G1 X63.8 Y166.267 E7.63653
G0 F6000 X63.4 Y165.867
G1 F1200 X156.6 Y165.867 E10.73637
G1 X156.6 Y189.067 E11.50801
G1 X63.4 Y189.067 E14.60785
G1 X63.4 Y165.867 E15.37949
G0 F6000 X63 Y165.467
G1 F1200 X157 Y165.467 E18.50594
G1 X157 Y189.467 E19.30418
G1 X63 Y189.467 E22.43064
G1 X63 Y165.467 E23.22888
G0 F6000 X62.6 Y165.067
G1 F1200 X157.4 Y165.067 E26.38194
G1 X157.4 Y189.867 E27.20679
G1 X62.6 Y189.867 E30.35985
G1 X62.6 Y165.067 E31.1847
G0 F6000 X62.2 Y164.667
G1 F1200 X157.8 Y164.667 E34.36437
G1 X157.8 Y190.267 E35.21583
G1 X62.2 Y190.267 E38.3955
G1 X62.2 Y164.667 E39.24696
G0 F6000 X61.8 Y164.267
G1 F1200 X158.2 Y164.267 E42.45324
G1 X158.2 Y190.667 E43.3313
G1 X61.8 Y190.667 E46.53758
G1 X61.8 Y164.267 E47.41565
G0 F6000 X61.4 Y163.867
G1 F1200 X158.6 Y163.867 E50.64853
G1 X158.6 Y191.067 E51.55321
G1 X61.4 Y191.067 E54.78609
G1 X61.4 Y163.867 E55.69077
G0 F6000 X61 Y163.467
G1 F1200 X159 Y163.467 E58.95026
G1 X159 Y191.467 E59.88155
G1 X61 Y191.467 E63.14104
G1 X61 Y163.467 E64.07232
G0 F6000 X60.6 Y163.067
G1 F1200 X159.4 Y163.067 E67.35843
G1 X159.4 Y191.867 E68.31632
G1 X60.6 Y191.867 E71.60242
G1 X60.6 Y163.067 E72.56031
G0 F6000 X60.2 Y162.667
G1 F1200 X159.8 Y162.667 E75.87302
G1 X159.8 Y192.267 E76.85752
G1 X60.2 Y192.267 E80.17023
G1 X60.2 Y162.667 E81.15473
G1 F2700 E76.15473
G0 F6000 X63.335 Y166.547
G0 X64.08 Y166.547
;TYPE:SUPPORT
G1 F2700 E81.15473
G1 F1200 X64.08 Y188.387 E81.88113
G1 X155.92 Y188.387 E84.93574
G1 X155.92 Y177.467 E85.29894
G1 X155.92 Y166.547 E85.66214
G1 X64.08 Y166.547 E88.71675
G0 F6000 X64.159 Y168
G1 F1200 X155.84 Y168 E91.76608
G0 F6000 X155.84 Y170
G1 F1200 X64.159 Y170 E94.8154
G0 F6000 X64.159 Y172
G1 F1200 X155.84 Y172 E97.86472
G0 F6000 X155.84 Y174
G1 F1200 X64.159 Y174 E100.91404
G0 F6000 X64.159 Y176
G1 F1200 X155.84 Y176 E103.96337
G0 F6000 X155.84 Y178
G1 F1200 X64.159 Y178 E107.01269
G0 F6000 X64.159 Y180
G1 F1200 X155.84 Y180 E110.06201
G0 F6000 X155.84 Y182
G1 F1200 X64.159 Y182 E113.11133
G0 F6000 X64.159 Y184
G1 F1200 X155.84 Y184 E116.16066
G0 F6000 X155.84 Y186
G1 F1200 X64.159 Y186 E119.20998
G0 F6000 X64.159 Y188
G1 F1200 X155.84 Y188 E122.2593
G0 F6000 X154 Y188.307
G1 F1200 X154 Y166.627 E122.98038
G0 F6000 X152 Y166.627
G1 F1200 X152 Y188.307 E123.70146
G0 F6000 X150 Y188.307
G1 F1200 X150 Y166.627 E124.42254
G0 F6000 X148 Y166.627
G1 F1200 X148 Y188.307 E125.14362
G0 F6000 X146 Y188.307
G1 F1200 X146 Y166.627 E125.8647
G0 F6000 X144 Y166.627
G1 F1200 X144 Y188.307 E126.58578
G0 F6000 X142 Y188.307
G1 F1200 X142 Y166.627 E127.30686
G0 F6000 X140 Y166.627
G1 F1200 X140 Y188.307 E128.02794
G0 F6000 X138 Y188.307
G1 F1200 X138 Y166.627 E128.74902
G0 F6000 X136 Y166.627
G1 F1200 X136 Y188.307 E129.4701
G0 F6000 X134 Y188.307
G1 F1200 X134 Y166.627 E130.19118
G0 F6000 X132 Y166.627
G1 F1200 X132 Y188.307 E130.91226
G0 F6000 X130 Y188.307
G1 F1200 X130 Y166.627 E131.63334
G0 F6000 X128 Y166.627
G1 F1200 X128 Y188.307 E132.35442
G0 F6000 X126 Y188.307
G1 F1200 X126 Y166.627 E133.0755
G0 F6000 X124 Y166.627
G1 F1200 X124 Y188.307 E133.79658
G0 F6000 X122 Y188.307
G1 F1200 X122 Y166.627 E134.51766
G0 F6000 X120 Y166.627
G1 F1200 X120 Y188.307 E135.23874
G0 F6000 X118 Y188.307
G1 F1200 X118 Y166.627 E135.95982
G0 F6000 X116 Y166.627
G1 F1200 X116 Y188.307 E136.6809
G0 F6000 X114 Y188.307
G1 F1200 X114 Y166.627 E137.40197
G0 F6000 X112 Y166.627
G1 F1200 X112 Y188.307 E138.12305
G0 F6000 X110 Y188.307
G1 F1200 X110 Y166.627 E138.84413
G0 F6000 X108 Y166.627
G1 F1200 X108 Y188.307 E139.56521
G0 F6000 X106 Y188.307
G1 F1200 X106 Y166.627 E140.28629
G0 F6000 X104 Y166.627
G1 F1200 X104 Y188.307 E141.00737
G0 F6000 X102 Y188.307
G1 F1200 X102 Y166.627 E141.72845
G0 F6000 X100 Y166.627
G1 F1200 X100 Y188.307 E142.44953
G0 F6000 X98 Y188.307
G1 F1200 X98 Y166.627 E143.17061
G0 F6000 X96 Y166.627
G1 F1200 X96 Y188.307 E143.89169
G0 F6000 X94 Y188.307
G1 F1200 X94 Y166.627 E144.61277
G0 F6000 X92 Y166.627
G1 F1200 X92 Y188.307 E145.33385
G0 F6000 X90 Y188.307
G1 F1200 X90 Y166.627 E146.05493
G0 F6000 X88 Y166.627
G1 F1200 X88 Y188.307 E146.77601
G0 F6000 X86 Y188.307
G1 F1200 X86 Y166.627 E147.49709
G0 F6000 X84 Y166.627
G1 F1200 X84 Y188.307 E148.21817
G0 F6000 X82 Y188.307
G1 F1200 X82 Y166.627 E148.93925
G0 F6000 X80 Y166.627
G1 F1200 X80 Y188.307 E149.66033
G0 F6000 X78 Y188.307
G1 F1200 X78 Y166.627 E150.38141
G0 F6000 X76 Y166.627
G1 F1200 X76 Y188.307 E151.10249
G0 F6000 X74 Y188.307
G1 F1200 X74 Y166.627 E151.82357
G0 F6000 X72 Y166.627
G1 F1200 X72 Y188.307 E152.54465
G0 F6000 X70 Y188.307
G1 F1200 X70 Y166.627 E153.26573
G0 F6000 X68 Y166.627
G1 F1200 X68 Y188.307 E153.98681
G0 F6000 X66 Y188.307
G1 F1200 X66 Y166.627 E154.70789
G1 F2700 E149.70789
;MESH:Sword Hilt  v1.stl
G0 F6000 X66 Y165.802
G0 X66 Y158.198
G0 X60.6 Y156.933
;TYPE:WALL-INNER
G1 F2700 E154.70789
G1 F1200 X159.4 Y156.933 E157.99399
G1 X159.4 Y118.225 E159.28142
G1 X159.4 Y79.517 E160.56886
G1 X60.6 Y79.517 E163.85496
G1 X60.6 Y156.933 E166.42982
G0 F6000 X60.2 Y157.333
;TYPE:WALL-OUTER
G1 F1200 X159.8 Y157.333 E169.74253
G1 X159.8 Y118.225 E171.04327
G1 X159.8 Y79.117 E172.34401
G1 X60.2 Y79.117 E175.65672
G1 X60.2 Y157.333 E178.25819
G0 F6000 X60.47 Y157.063
G0 X60.7 Y156.573
G0 X60.96 Y156.573
;TYPE:SKIN
G1 F1200 X159.04 Y156.573 E181.52035
G1 X159.04 Y118.225 E182.79581
G1 X159.04 Y79.877 E184.07127
G1 X60.96 Y79.877 E187.33342
G1 X60.96 Y156.573 E189.88434
G0 F6000 X61.337 Y156.372
G1 F1200 X61.159 Y156.194 E189.89271
G0 F6000 X61.159 Y155.629
G1 F1200 X61.902 Y156.372 E189.92766
G0 F6000 X62.468 Y156.372
G1 F1200 X61.159 Y155.063 E189.98923
G0 F6000 X61.159 Y154.497
G1 F1200 X63.034 Y156.372 E190.07743
G0 F6000 X63.6 Y156.372
G1 F1200 X61.159 Y153.932 E190.19222
G0 F6000 X61.159 Y153.366
G1 F1200 X64.165 Y156.372 E190.33361
G0 F6000 X64.731 Y156.372
G1 F1200 X61.159 Y152.8 E190.50163
G0 F6000 X61.159 Y152.235
G1 F1200 X65.297 Y156.372 E190.69624
G0 F6000 X65.862 Y156.372
G1 F1200 X61.159 Y151.669 E190.91746
G0 F6000 X61.159 Y151.103
G1 F1200 X66.428 Y156.372 E191.1653
G0 F6000 X66.994 Y156.372
G1 F1200 X61.159 Y150.538 E191.43973
G0 F6000 X61.159 Y149.972
G1 F1200 X67.559 Y156.372 E191.74077
G0 F6000 X68.125 Y156.372
G1 F1200 X61.159 Y149.406 E192.06843
G0 F6000 X61.159 Y148.841
G1 F1200 X68.691 Y156.372 E192.42269
G0 F6000 X69.256 Y156.372
G1 F1200 X61.159 Y148.275 E192.80355
G0 F6000 X61.159 Y147.709
G1 F1200 X69.822 Y156.372 E193.21103
G0 F6000 X70.388 Y156.372
G1 F1200 X61.159 Y147.143 E193.64513
G0 F6000 X61.159 Y146.578
G1 F1200 X70.953 Y156.372 E194.10581
G0 F6000 X71.519 Y156.372
G1 F1200 X61.159 Y146.012 E194.59311
G0 F6000 X61.159 Y145.446
G1 F1200 X72.085 Y156.372 E195.10704
G0 F6000 X72.65 Y156.372
G1 F1200 X61.159 Y144.881 E195.64754
G0 F6000 X61.159 Y144.315
G1 F1200 X73.216 Y156.372 E196.21466
G0 F6000 X73.782 Y156.372
G1 F1200 X61.159 Y143.749 E196.80841
G0 F6000 X61.159 Y143.184
G1 F1200 X74.348 Y156.372 E197.42876
G0 F6000 X74.913 Y156.372
G1 F1200 X61.159 Y142.618 E198.0757
G0 F6000 X61.159 Y142.052
G1 F1200 X75.479 Y156.372 E198.74927
G0 F6000 X76.045 Y156.372
G1 F1200 X61.159 Y141.487 E199.44944
G0 F6000 X61.159 Y140.921
G1 F1200 X76.61 Y156.372 E200.17621
G0 F6000 X77.176 Y156.372
G1 F1200 X61.159 Y140.355 E200.9296
G0 F6000 X61.159 Y139.79
G1 F1200 X77.742 Y156.372 E201.70959
G0 F6000 X78.307 Y156.372
G1 F1200 X61.159 Y139.224 E202.51618
G0 F6000 X61.159 Y138.658
G1 F1200 X78.873 Y156.372 E203.34939
G0 F6000 X79.439 Y156.372
G1 F1200 X61.159 Y138.093 E204.2092
G0 F6000 X61.159 Y137.527
G1 F1200 X80.004 Y156.372 E205.09561
G0 F6000 X80.57 Y156.372
G1 F1200 X61.159 Y136.961 E206.00865
G0 F6000 X61.159 Y136.395
G1 F1200 X81.136 Y156.372 E206.9483
G0 F6000 X81.701 Y156.372
G1 F1200 X61.159 Y135.83 E207.91454
G0 F6000 X61.159 Y135.264
G1 F1200 X82.267 Y156.372 E208.90739
G0 F6000 X82.833 Y156.372
G1 F1200 X61.159 Y134.698 E209.92687
G0 F6000 X61.159 Y134.133
G1 F1200 X83.399 Y156.372 E210.97295
G0 F6000 X83.964 Y156.372
G1 F1200 X61.159 Y133.567 E212.04563
G0 F6000 X61.159 Y133.001
G1 F1200 X84.53 Y156.372 E213.14493
G0 F6000 X85.096 Y156.372
G1 F1200 X61.159 Y132.436 E214.27083
G0 F6000 X61.159 Y131.87
G1 F1200 X85.661 Y156.372 E215.42332
G0 F6000 X86.227 Y156.372
G1 F1200 X61.159 Y131.304 E216.60245
G0 F6000 X61.159 Y130.739
G1 F1200 X86.793 Y156.372 E217.80817
G0 F6000 X87.358 Y156.372
G1 F1200 X61.159 Y130.173 E219.04049
G0 F6000 X61.159 Y129.607
G1 F1200 X87.924 Y156.372 E220.29943
G0 F6000 X88.49 Y156.372
G1 F1200 X61.159 Y129.042 E221.58498
G0 F6000 X61.159 Y128.476
G1 F1200 X89.055 Y156.372 E222.89712
G0 F6000 X89.621 Y156.372
G1 F1200 X61.159 Y127.91 E224.23588
G0 F6000 X61.159 Y127.344
G1 F1200 X90.187 Y156.372 E225.60127
G0 F6000 X90.752 Y156.372
G1 F1200 X61.159 Y126.779 E226.99323
G0 F6000 X61.159 Y126.213
G1 F1200 X91.318 Y156.372 E228.41182
G0 F6000 X91.884 Y156.372
G1 F1200 X61.159 Y125.647 E229.85703
G0 F6000 X61.159 Y125.082
G1 F1200 X92.449 Y156.372 E231.32882
G0 F6000 X93.015 Y156.372
G1 F1200 X61.159 Y124.516 E232.82723
G0 F6000 X61.159 Y123.95
G1 F1200 X93.581 Y156.372 E234.35226
G0 F6000 X94.147 Y156.372
G1 F1200 X61.159 Y123.385 E235.90389
G0 F6000 X61.159 Y122.819
G1 F1200 X94.712 Y156.372 E237.48212
G0 F6000 X95.278 Y156.372
G1 F1200 X61.159 Y122.253 E239.08697
G0 F6000 X61.159 Y121.688
G1 F1200 X95.844 Y156.372 E240.71842
G0 F6000 X96.409 Y156.372
G1 F1200 X61.159 Y121.122 E242.37648
G0 F6000 X61.159 Y120.556
G1 F1200 X96.975 Y156.372 E244.06115
G0 F6000 X97.541 Y156.372
G1 F1200 X61.159 Y119.991 E245.77243
G0 F6000 X61.159 Y119.425
G1 F1200 X98.106 Y156.372 E247.5103
G0 F6000 X98.672 Y156.372
G1 F1200 X61.159 Y118.859 E249.2748
G0 F6000 X61.159 Y118.294
G1 F1200 X99.238 Y156.372 E251.06589
G0 F6000 X99.803 Y156.372
G1 F1200 X61.159 Y117.728 E252.88359
G0 F6000 X61.159 Y117.162
G1 F1200 X100.369 Y156.372 E254.7279
G0 F6000 X100.935 Y156.372
G1 F1200 X61.159 Y116.596 E256.59885
G0 F6000 X61.159 Y116.031
G1 F1200 X101.5 Y156.372 E258.49636
G0 F6000 X102.066 Y156.372
G1 F1200 X61.159 Y115.465 E260.4205
G0 F6000 X61.159 Y114.899
G1 F1200 X102.632 Y156.372 E262.37127
G0 F6000 X103.197 Y156.372
G1 F1200 X61.159 Y114.334 E264.3486
G0 F6000 X61.159 Y113.768
G1 F1200 X103.763 Y156.372 E266.35257
G0 F6000 X104.329 Y156.372
G1 F1200 X61.159 Y113.202 E268.38315
G0 F6000 X61.159 Y112.637
G1 F1200 X104.895 Y156.372 E270.44033
G0 F6000 X105.46 Y156.372
G1 F1200 X61.159 Y112.071 E272.52412
G0 F6000 X61.159 Y111.505
G1 F1200 X106.026 Y156.372 E274.63452
G0 F6000 X106.592 Y156.372
G1 F1200 X61.159 Y110.94 E276.77153
G0 F6000 X61.159 Y110.374
G1 F1200 X107.157 Y156.372 E278.93513
G0 F6000 X107.723 Y156.372
G1 F1200 X61.159 Y109.808 E281.12536
G0 F6000 X61.159 Y109.243
G1 F1200 X108.289 Y156.372 E283.34219
G0 F6000 X108.854 Y156.372
G1 F1200 X61.159 Y108.677 E285.58561
G0 F6000 X61.159 Y108.111
G1 F1200 X109.42 Y156.372 E287.85566
G0 F6000 X109.986 Y156.372
G1 F1200 X61.159 Y107.545 E290.15234
G0 F6000 X61.159 Y106.98
G1 F1200 X110.551 Y156.372 E292.47559
G0 F6000 X111.117 Y156.372
G1 F1200 X61.159 Y106.414 E294.82546
G0 F6000 X61.159 Y105.848
G1 F1200 X111.683 Y156.372 E297.20195
G0 F6000 X112.248 Y156.372
G1 F1200 X61.159 Y105.283 E299.60502
G0 F6000 X61.159 Y104.717
G1 F1200 X112.814 Y156.372 E302.03471
G0 F6000 X113.38 Y156.372
G1 F1200 X61.159 Y104.151 E304.49103
G0 F6000 X61.159 Y103.586
G1 F1200 X113.946 Y156.372 E306.97394
G0 F6000 X114.511 Y156.372
G1 F1200 X61.159 Y103.02 E309.48346
G0 F6000 X61.159 Y102.454
G1 F1200 X115.077 Y156.372 E312.0196
G0 F6000 X115.643 Y156.372
G1 F1200 X61.159 Y101.889 E314.58233
G0 F6000 X61.159 Y101.323
G1 F1200 X116.208 Y156.372 E317.17167
G0 F6000 X116.774 Y156.372
G1 F1200 X61.159 Y100.757 E319.78763
G0 F6000 X61.159 Y100.192
G1 F1200 X117.34 Y156.372 E322.43019
G0 F6000 X117.905 Y156.372
G1 F1200 X61.159 Y99.626 E325.09934
G0 F6000 X61.159 Y99.06
G1 F1200 X118.471 Y156.372 E327.79512
G0 F6000 X119.037 Y156.372
G1 F1200 X61.159 Y98.495 E330.51751
G0 F6000 X61.159 Y97.929
G1 F1200 X119.602 Y156.372 E333.26648
G0 F6000 X120.168 Y156.372
G1 F1200 X61.159 Y97.363 E336.04209
G0 F6000 X61.159 Y96.797
G1 F1200 X120.734 Y156.372 E338.84431
G0 F6000 X121.299 Y156.372
G1 F1200 X61.159 Y96.232 E341.67311
G0 F6000 X61.159 Y95.666
G1 F1200 X121.865 Y156.372 E344.52854
G0 F6000 X122.431 Y156.372
G1 F1200 X61.159 Y95.1 E347.41058
G0 F6000 X61.159 Y94.535
G1 F1200 X122.996 Y156.372 E350.31921
G0 F6000 X123.562 Y156.372
G1 F1200 X61.159 Y93.969 E353.25445
G0 F6000 X61.159 Y93.403
G1 F1200 X124.128 Y156.372 E356.21632
G0 F6000 X124.694 Y156.372
G1 F1200 X61.159 Y92.838 E359.20479
G0 F6000 X61.159 Y92.272
G1 F1200 X125.259 Y156.372 E362.21986
G0 F6000 X125.825 Y156.372
G1 F1200 X61.159 Y91.706 E365.26155
G0 F6000 X61.159 Y91.141
G1 F1200 X126.391 Y156.372 E368.32984
G0 F6000 X126.956 Y156.372
G1 F1200 X61.159 Y90.575 E371.42473
G0 F6000 X61.159 Y90.009
G1 F1200 X127.522 Y156.372 E374.54624
G0 F6000 X128.088 Y156.372
G1 F1200 X61.159 Y89.444 E377.69435
G0 F6000 X61.159 Y88.878
G1 F1200 X128.653 Y156.372 E380.86906
G0 F6000 X129.219 Y156.372
G1 F1200 X61.159 Y88.312 E384.0704
G0 F6000 X61.159 Y87.747
G1 F1200 X129.785 Y156.372 E387.29833
G0 F6000 X130.35 Y156.372
G1 F1200 X61.159 Y87.181 E390.55286
G0 F6000 X61.159 Y86.615
G1 F1200 X130.916 Y156.372 E393.83402
G0 F6000 X131.482 Y156.372
G1 F1200 X61.159 Y86.049 E397.14179
G0 F6000 X61.159 Y85.484
G1 F1200 X132.047 Y156.372 E400.47615
G0 F6000 X132.613 Y156.372
G1 F1200 X61.159 Y84.918 E403.83713
G0 F6000 X61.159 Y84.352
G1 F1200 X133.179 Y156.372 E407.22473
G0 F6000 X133.745 Y156.372
G1 F1200 X61.159 Y83.787 E410.63893
G0 F6000 X61.159 Y83.221
G1 F1200 X134.31 Y156.372 E414.07972
G0 F6000 X134.876 Y156.372
G1 F1200 X61.159 Y82.655 E417.54715
G0 F6000 X61.159 Y82.09
G1 F1200 X135.442 Y156.372 E421.04117
G0 F6000 X136.007 Y156.372
G1 F1200 X61.159 Y81.524 E424.56179
G0 F6000 X61.159 Y80.958
G1 F1200 X136.573 Y156.372 E428.10903
G0 F6000 X137.139 Y156.372
G1 F1200 X61.159 Y80.393 E431.68287
G0 F6000 X61.409 Y80.077
G1 F1200 X137.704 Y156.372 E435.27156
G0 F6000 X138.27 Y156.372
G1 F1200 X61.975 Y80.077 E438.86024
G0 F6000 X62.54 Y80.077
G1 F1200 X138.836 Y156.372 E442.44895
G0 F6000 X139.401 Y156.372
G1 F1200 X63.106 Y80.077 E446.03763
G0 F6000 X63.672 Y80.077
G1 F1200 X139.967 Y156.372 E449.62631
G0 F6000 X140.533 Y156.372
G1 F1200 X64.237 Y80.077 E453.21502
G0 F6000 X64.803 Y80.077
G1 F1200 X141.098 Y156.372 E456.8037
G0 F6000 X141.664 Y156.372
G1 F1200 X65.369 Y80.077 E460.39238
G0 F6000 X65.934 Y80.077
G1 F1200 X142.23 Y156.372 E463.98109
G0 F6000 X142.795 Y156.372
G1 F1200 X66.5 Y80.077 E467.56977
G0 F6000 X67.066 Y80.077
G1 F1200 X143.361 Y156.372 E471.15846
G0 F6000 X143.927 Y156.372
G1 F1200 X67.631 Y80.077 E474.74716
G0 F6000 X68.197 Y80.077
G1 F1200 X144.493 Y156.372 E478.33587
G0 F6000 X145.058 Y156.372
G1 F1200 X68.763 Y80.077 E481.92455
G0 F6000 X69.328 Y80.077
G1 F1200 X145.624 Y156.372 E485.51326
G0 F6000 X146.19 Y156.372
G1 F1200 X69.894 Y80.077 E489.10196
G0 F6000 X70.46 Y80.077
G1 F1200 X146.755 Y156.372 E492.69065
G0 F6000 X147.321 Y156.372
